public/luts/kodak-fpe-07.cube
TITLE "Generated by Resolve"
LUT_3D_SIZE 33
0.0150912 0.02121 0.0241703
0.0210575 0.0245518 0.0271
0.03122 0.0285801 0.0302586
0.0499886 0.0335241 0.0332341
0.0758373 0.0402686 0.035111
0.101701 0.0475471 0.0366674
0.127428 0.0544442 0.0379339
0.153826 0.0614176 0.0377813
0.181827 0.0677043 0.036286
0.212039 0.0736858 0.034699
0.243595 0.0795605 0.0348363
0.275105 0.0857252 0.0355077
0.304189 0.0924544 0.0370336
0.331594 0.0992294 0.038941
0.35848 0.106203 0.0392767
0.384634 0.112947 0.0399939
0.410178 0.119692 0.041474
0.43415 0.125978 0.0432593
0.457664 0.132525 0.0450599
0.480156 0.138643 0.047364
0.501503 0.145357 0.0500649
0.522271 0.151675 0.0522316
0.541924 0.157885 0.0543526
0.561028 0.164309 0.0564126
0.578759 0.170703 0.0581521
0.595697 0.177096 0.0591897
0.611887 0.183795 0.0607309
0.627695 0.189731 0.0630808
0.643687 0.19527 0.0657359
0.659083 0.200626 0.070222
0.67422 0.204974 0.0763104
0.688838 0.20856 0.0846265
0.702556 0.212558 0.09337
0.0184939 0.0308385 0.0311131
0.0250401 0.0326085 0.032639
0.0370031 0.0355993 0.0341497
0.0542153 0.0395666 0.0362249
0.078706 0.0446479 0.0373083
0.104173 0.0508888 0.038117
0.130938 0.0570077 0.0381323
0.158434 0.0632486 0.0371862
0.187167 0.0688792 0.0349279
0.218784 0.0741283 0.032166
0.251225 0.0792248 0.0310826
0.283345 0.0850385 0.0312657
0.313802 0.0913863 0.0318608
0.342245 0.097734 0.0331884
0.369162 0.104677 0.0335699
0.394644 0.111559 0.0357214
0.419364 0.118517 0.0383917
0.442557 0.125109 0.0410315
0.465461 0.131975 0.0433509
0.487343 0.138445 0.0462043
0.508461 0.145418 0.0492103
0.528908 0.15198 0.0516518
0.548272 0.158587 0.0539101
0.566888 0.165408 0.0559701
0.584756 0.172641 0.057908
0.602197 0.180453 0.0598306
0.619348 0.188296 0.0626383
0.636591 0.195239 0.0662394
0.653117 0.202274 0.0700084
0.669581 0.20882 0.0755169
0.68545 0.214893 0.0819409
0.701305 0.219715 0.0917067
0.713497 0.223133 0.099382
0.0200351 0.0434272 0.0392462
0.0253605 0.0443732 0.040528
0.0404517 0.0471046 0.0412757
0.0607004 0.0513313 0.0425116
0.0829175 0.0567636 0.0439002
0.107256 0.0624857 0.0447395
0.135058 0.0685283 0.0446937
0.163668 0.0744182 0.043946
0.195544 0.0795758 0.0412146
0.228717 0.0847791 0.0384833
0.263233 0.0894942 0.0368048
0.295872 0.0947127 0.0357366
0.326574 0.100069 0.035523
0.356512 0.106065 0.0358587
0.384543 0.111803 0.0361791
0.410513 0.118517 0.0386664
0.434394 0.125566 0.0424201
0.457893 0.132723 0.0455329
0.479927 0.140032 0.0487221
0.50193 0.147494 0.0523995
0.522972 0.155154 0.0560159
0.543297 0.162692 0.0589761
0.563363 0.170642 0.0619364
0.582437 0.178546 0.0643015
0.600214 0.186465 0.0668498
0.617777 0.1944 0.0688792
0.635294 0.201801 0.071931
0.652155 0.20911 0.0759594
0.669047 0.216114 0.0796521
0.685298 0.223041 0.0846418
0.700618 0.229419 0.09131
0.715694 0.234668 0.100649
0.72459 0.23624 0.104891
0.021973 0.0600137 0.0480049
0.0266728 0.0601053 0.0484016
0.0401007 0.0627298 0.0505074
0.0641184 0.0664683 0.0511025
0.0889754 0.0724346 0.0529335
0.114916 0.0781567 0.0531014
0.144167 0.0840925 0.0520943
0.174777 0.0900282 0.0501869
0.206287 0.0956893 0.0489357
0.239353 0.101167 0.0465858
0.273777 0.106249 0.0457008
0.307546 0.111391 0.0440223
0.339712 0.116533 0.0438239
0.371054 0.122011 0.0437934
0.400153 0.127687 0.044358
0.426886 0.133806 0.0472114
0.452293 0.140597 0.0505531
0.475975 0.147494 0.0539712
0.498405 0.155093 0.0570687
0.520165 0.16289 0.0606394
0.540673 0.170626 0.06421
0.560815 0.178683 0.0672007
0.579873 0.186542 0.0704662
0.598611 0.194339 0.0732738
0.61651 0.202579 0.0750744
0.634714 0.210117 0.0784161
0.651911 0.217609 0.0815595
0.669093 0.225071 0.0853132
0.685267 0.232319 0.0890059
0.701198 0.239078 0.0935531
0.71577 0.246082 0.0990158
0.728542 0.250858 0.106615
0.735988 0.251453 0.109361
0.0261234 0.0786145 0.0582437
0.0306554 0.0779583 0.0575723
0.0441596 0.0807813 0.0599832
0.065507 0.0852064 0.0624247
0.0945449 0.090898 0.0633555
0.124147 0.0965744 0.0632639
0.154055 0.102541 0.0621347
0.185824 0.10869 0.0608682
0.220691 0.11487 0.0581064
0.256092 0.121065 0.0556649
0.29044 0.127016 0.0545815
0.322667 0.132464 0.053727
0.354314 0.137667 0.0530251
0.385245 0.143267 0.0519112
0.414496 0.14873 0.0522774
0.441703 0.154681 0.0545663
0.467506 0.161364 0.0573281
0.4916 0.168124 0.0601358
0.514733 0.174914 0.0630961
0.537118 0.18201 0.0660868
0.558389 0.189303 0.0693217
0.578454 0.196765 0.0733959
0.59791 0.204639 0.0770123
0.61677 0.212421 0.0797436
0.634623 0.220417 0.0829328
0.652415 0.228031 0.0861067
0.669566 0.235523 0.0892958
0.685939 0.243137 0.0923476
0.701198 0.25095 0.0951858
0.716197 0.258213 0.0983139
0.730129 0.265553 0.103532
0.74081 0.269581 0.109316
0.748699 0.268315 0.113344
0.0283055 0.100786 0.0698863
0.0326848 0.0995346 0.0683909
0.0456092 0.102556 0.0710613
0.0672313 0.106767 0.0738384
0.0958419 0.112947 0.076051
0.12961 0.118547 0.075227
0.162783 0.124483 0.0737621
0.196216 0.130983 0.0719768
0.231952 0.137575 0.0695659
0.269947 0.143755 0.0664836
0.307179 0.150317 0.0639506
0.34049 0.156451 0.0622568
0.372274 0.162127 0.0606851
0.402838 0.167529 0.0595865
0.431266 0.173053 0.0599069
0.457847 0.179095 0.0606546
0.483543 0.185092 0.0626383
0.507027 0.191485 0.0655528
0.530007 0.197925 0.0679026
0.55259 0.204654 0.0706951
0.574166 0.211505 0.0737316
0.595819 0.218341 0.0769818
0.616144 0.225589 0.0801099
0.635294 0.233127 0.0834363
0.653132 0.240772 0.0864271
0.670344 0.248371 0.0893263
0.686702 0.256245 0.092668
0.701976 0.264271 0.0949416
0.716976 0.272007 0.0978256
0.731243 0.27953 0.101045
0.745464 0.286198 0.106371
0.756268 0.289189 0.112673
0.76228 0.287312 0.115923
0.0312047 0.124651 0.0808423
0.0345617 0.123919 0.0796063
0.0459907 0.127993 0.0831006
0.0654002 0.13286 0.0869154
0.0943008 0.13846 0.0893416
0.130404 0.144259 0.088838
0.168261 0.150179 0.0864729
0.206043 0.156313 0.0832227
0.242924 0.162997 0.0800488
0.281056 0.169589 0.0756695
0.318456 0.17615 0.0720226
0.354253 0.182849 0.0683299
0.389654 0.189075 0.0660563
0.420386 0.194537 0.0644694
0.449058 0.200275 0.0640269
0.47483 0.206012 0.0653697
0.499123 0.211933 0.0673686
0.522484 0.217884 0.0694896
0.545525 0.224063 0.071519
0.56762 0.230503 0.0737011
0.589044 0.237232 0.0761578
0.610239 0.243778 0.078996
0.63093 0.250431 0.082002
0.650507 0.257496 0.0847486
0.66949 0.264637 0.0865034
0.687633 0.271717 0.0889906
0.70341 0.27953 0.0921492
0.718929 0.286961 0.095613
0.733516 0.294759 0.0985885
0.747494 0.302281 0.102983
0.761395 0.308858 0.108385
0.771511 0.311437 0.113512
0.776776 0.3084 0.11809
0.0335851 0.151949 0.0909133
0.0358129 0.152453 0.0907759
0.0451667 0.157504 0.0952163
0.0595102 0.163302 0.0999466
0.0890211 0.168902 0.102907
0.127825 0.174105 0.101808
0.168826 0.179919 0.0988327
0.210651 0.185763 0.0940871
0.251377 0.19147 0.087892
0.290578 0.197833 0.0820325
0.328695 0.204288 0.0768444
0.364752 0.210834 0.0722057
0.399832 0.217273 0.0695048
0.432395 0.223529 0.0674907
0.462562 0.229953 0.0672313
0.489143 0.235737 0.0673533
0.514504 0.241489 0.0691691
0.537499 0.247364 0.07187
0.559991 0.253361 0.07364
0.581872 0.25948 0.0754253
0.603372 0.265599 0.0782635
0.623819 0.271946 0.0805676
0.644144 0.278233 0.0826886
0.664012 0.284871 0.0844587
0.683116 0.291569 0.086717
0.701473 0.29836 0.0890974
0.719005 0.305348 0.0914931
0.735805 0.312337 0.0926986
0.750469 0.319631 0.096376
0.764584 0.326604 0.100877
0.777981 0.333165 0.106661
0.786465 0.334707 0.111635
0.790784 0.332052 0.117418
0.0329747 0.181811 0.100435
0.0349737 0.183642 0.101411
0.0420844 0.189532 0.10631
0.0539406 0.195926 0.111086
0.0807813 0.201678 0.114046
0.121416 0.20705 0.113802
0.164843 0.211917 0.10988
0.209751 0.217304 0.1037
0.254276 0.223133 0.0947433
0.296941 0.229084 0.0843214
0.335988 0.235386 0.0776532
0.373373 0.24184 0.0720073
0.409094 0.247974 0.0684825
0.441703 0.254246 0.0667124
0.471534 0.260761 0.0664225
0.499947 0.266911 0.0680552
0.525658 0.272831 0.0709392
0.549584 0.278462 0.0728008
0.572747 0.284276 0.0745708
0.594781 0.290059 0.0767376
0.616159 0.296101 0.0787366
0.637186 0.302098 0.0809796
0.657282 0.308019 0.0830243
0.676692 0.31429 0.0848249
0.69604 0.320531 0.0864576
0.714305 0.327276 0.0873732
0.731899 0.334066 0.088777
0.74902 0.340475 0.0914931
0.765316 0.347219 0.0928664
0.780819 0.353338 0.0959029
0.79411 0.359792 0.100679
0.801251 0.360311 0.106355
0.804608 0.357504 0.113497
0.0326238 0.212711 0.108583
0.0347906 0.215824 0.109957
0.0407263 0.221942 0.114305
0.0513466 0.228412 0.118807
0.0740978 0.234592 0.122118
0.110018 0.241001 0.123537
0.158709 0.245701 0.11841
0.205173 0.251133 0.112261
0.25333 0.256306 0.101625
0.297856 0.262531 0.090837
0.340154 0.268101 0.0802625
0.380118 0.273548 0.0725719
0.41622 0.27953 0.0686198
0.449454 0.285847 0.0667582
0.479255 0.292226 0.0668345
0.507225 0.29868 0.0664225
0.533928 0.304738 0.0676585
0.559243 0.31075 0.0705272
0.583429 0.316426 0.0729686
0.606241 0.322011 0.0747234
0.628122 0.327764 0.0776532
0.648875 0.333577 0.0796063
0.669627 0.339284 0.0820172
0.68896 0.345266 0.0833753
0.707576 0.351385 0.0845808
0.726207 0.357351 0.0863966
0.744045 0.363607 0.0880751
0.760967 0.37026 0.0890211
0.777966 0.376104 0.0907759
0.793973 0.382254 0.0921492
0.808682 0.388144 0.095552
0.815503 0.387396 0.0977951
0.818891 0.384009 0.107164
0.0345464 0.245151 0.116609
0.0364385 0.247913 0.117479
0.04271 0.254185 0.121508
0.0512551 0.261204 0.125658
0.0666667 0.269108 0.129686
0.0999619 0.275105 0.130922
0.151705 0.279774 0.12639
0.20264 0.284306 0.118502
0.249775 0.290089 0.110292
0.296849 0.295766 0.096849
0.340826 0.301778 0.0864729
0.38323 0.306737 0.0751507
0.42237 0.311849 0.067277
0.45597 0.318013 0.0643626
0.486641 0.324453 0.0632029
0.514855 0.330709 0.0651713
0.541329 0.336843 0.0666819
0.567514 0.342641 0.0679179
0.59234 0.348547 0.0694133
0.616175 0.354391 0.0728313
0.638392 0.359716 0.0751354
0.659571 0.365301 0.0784314
0.680171 0.37084 0.0806439
0.700267 0.376379 0.0825055
0.719402 0.382208 0.084123
0.737606 0.387961 0.0848554
0.755322 0.393774 0.086656
0.773098 0.399527 0.0879072
0.790021 0.405554 0.0889754
0.806531 0.411185 0.0904097
0.822095 0.416709 0.0913558
0.830472 0.41474 0.0915847
0.834623 0.41091 0.100511
0.0375067 0.277653 0.124178
0.0390021 0.280598 0.124498
0.0448005 0.287007 0.127749
0.0521706 0.294316 0.130816
0.0644236 0.302083 0.134371
0.0951858 0.3084 0.135607
0.143755 0.314199 0.133455
0.197177 0.318593 0.125673
0.247745 0.323018 0.115496
0.293629 0.329244 0.106859
0.339803 0.334768 0.0923781
0.383825 0.339971 0.0812238
0.425772 0.344015 0.0714427
0.461616 0.349233 0.0658885
0.49305 0.355322 0.063859
0.522423 0.361685 0.0626688
0.549996 0.36791 0.0638437
0.57557 0.373831 0.0656291
0.600519 0.379614 0.0672618
0.625101 0.385046 0.0690623
0.647929 0.390723 0.072343
0.66981 0.396124 0.0751965
0.690959 0.401434 0.0786603
0.711254 0.406744 0.0817884
0.730739 0.412146 0.0838178
0.749538 0.417929 0.0864729
0.767132 0.42359 0.0872358
0.784665 0.429145 0.088838
0.801984 0.434745 0.0895094
0.818936 0.440421 0.0894789
0.834791 0.445212 0.0909438
0.843854 0.443046 0.0878462
0.850111 0.438483 0.091722
0.0399481 0.310201 0.130831
0.0415351 0.313069 0.131167
0.0470436 0.319646 0.133364
0.0537118 0.327001 0.135866
0.0671244 0.334157 0.138582
0.0945144 0.341283 0.139223
0.140185 0.346807 0.137072
0.194278 0.351019 0.132036
0.247211 0.354879 0.121447
0.295308 0.360204 0.11075
0.33785 0.367102 0.102159
0.383749 0.371679 0.0866865
0.426612 0.376089 0.0765087
0.46537 0.380484 0.0684215
0.499672 0.385489 0.0640116
0.529427 0.391653 0.0637217
0.557855 0.397726 0.0636912
0.585306 0.403708 0.0643168
0.610132 0.409491 0.065919
0.63389 0.415259 0.0690166
0.657465 0.4206 0.0720989
0.679789 0.426322 0.0747997
0.701305 0.431815 0.0771801
0.721798 0.436866 0.0802472
0.741482 0.441901 0.0843977
0.760296 0.447395 0.0865949
0.779019 0.452903 0.0891737
0.796597 0.458335 0.0901808
0.814054 0.463645 0.090837
0.831174 0.469123 0.0906539
0.84683 0.473487 0.0891585
0.856672 0.471336 0.0849317
0.864256 0.466682 0.0875105
0.0426032 0.342153 0.137896
0.0442054 0.345327 0.137209
0.0495613 0.351934 0.138628
0.0583505 0.358419 0.140826
0.0734875 0.365286 0.142504
0.0969558 0.372076 0.143328
0.140719 0.377447 0.141695
0.192844 0.382116 0.137407
0.246586 0.385855 0.127459
0.29601 0.390845 0.116243
0.340185 0.396796 0.104906
0.381735 0.403037 0.0965133
0.427634 0.406882 0.0814679
0.467735 0.411582 0.0735637
0.503716 0.416159 0.0685283
0.536553 0.421149 0.065507
0.56527 0.427146 0.0653697
0.592676 0.433204 0.0656291
0.619165 0.439078 0.066392
0.643748 0.444419 0.0679637
0.666712 0.449958 0.0705272
0.689555 0.455314 0.0732738
0.711299 0.460838 0.0757153
0.732082 0.4663 0.0785992
0.751781 0.471183 0.0821546
0.771176 0.476265 0.0861524
0.789715 0.481514 0.0885786
0.808072 0.487053 0.0915084
0.825666 0.492271 0.091783
0.843336 0.497536 0.0923171
0.858824 0.501305 0.0903639
0.869154 0.499672 0.0860761
0.877089 0.495293 0.0849317
0.0466926 0.373434 0.144183
0.0491035 0.376638 0.143114
0.0558175 0.382574 0.145205
0.0645304 0.388785 0.146685
0.0772412 0.395407 0.14789
0.103059 0.401404 0.146624
0.145769 0.406485 0.144091
0.196719 0.411154 0.140169
0.247303 0.415549 0.133242
0.297185 0.420249 0.122454
0.342306 0.425803 0.111467
0.383688 0.431891 0.102449
0.425177 0.437385 0.0925307
0.468879 0.441321 0.0795453
0.506096 0.446189 0.0750286
0.540261 0.450965 0.0710918
0.572244 0.455756 0.068101
0.59997 0.461723 0.0665599
0.626322 0.467582 0.0680247
0.652171 0.473106 0.0695811
0.676173 0.478355 0.0714885
0.698695 0.483757 0.0740063
0.720592 0.489036 0.0762951
0.74197 0.494209 0.0783398
0.762081 0.499565 0.0818647
0.781384 0.504509 0.0853132
0.800488 0.509529 0.088838
0.81883 0.514778 0.0918593
0.837125 0.52018 0.0942397
0.854673 0.525429 0.0947738
0.870436 0.528466 0.0928206
0.881453 0.527382 0.0866865
0.889967 0.522988 0.0839094
0.0504463 0.403845 0.150042
0.053666 0.406928 0.14963
0.0610971 0.412406 0.150851
0.0699779 0.418311 0.151675
0.0868391 0.424353 0.15111
0.110872 0.429984 0.150103
0.151217 0.434897 0.146746
0.201648 0.439734 0.142061
0.249653 0.444205 0.135958
0.29659 0.448981 0.128847
0.343664 0.454139 0.116243
0.385458 0.459785 0.107851
0.426062 0.465446 0.0998245
0.466667 0.470619 0.0906081
0.506508 0.475288 0.0817884
0.542535 0.480049 0.0787213
0.575387 0.484977 0.0758526
0.606622 0.489616 0.0729534
0.63331 0.495354 0.0729839
0.659007 0.500954 0.0734569
0.68368 0.506539 0.0743725
0.707317 0.511757 0.0757916
0.729534 0.516823 0.0778973
0.750576 0.522057 0.0803845
0.771115 0.527108 0.0826123
0.791241 0.532326 0.0850996
0.810269 0.537209 0.0888838
0.828885 0.542168 0.0932631
0.847272 0.547265 0.0956436
0.865644 0.552483 0.097322
0.881224 0.555215 0.0958877
0.892851 0.554376 0.0904402
0.902022 0.550378 0.0862745
0.0558328 0.433143 0.156115
0.0605173 0.436271 0.155474
0.0696422 0.44123 0.155489
0.0798047 0.446754 0.156008
0.0953231 0.451987 0.154879
0.119478 0.457481 0.151614
0.157534 0.462501 0.148562
0.204883 0.467109 0.144213
0.252628 0.471901 0.138964
0.297856 0.476555 0.13286
0.342901 0.481651 0.125734
0.386908 0.487068 0.117144
0.428046 0.492485 0.108019
0.46598 0.498299 0.103548
0.504814 0.503624 0.0966659
0.543069 0.508614 0.0871138
0.577768 0.513527 0.0839399
0.609674 0.51838 0.0805676
0.639475 0.522972 0.0779889
0.665522 0.528405 0.0786755
0.690547 0.533852 0.0791638
0.714488 0.53933 0.0787518
0.737453 0.54432 0.0802777
0.759045 0.549111 0.0830091
0.779416 0.554086 0.0856031
0.799771 0.558907 0.0879377
0.819699 0.563836 0.0905776
0.838651 0.568521 0.0932784
0.857252 0.573343 0.0971389
0.875822 0.578408 0.0995804
0.891676 0.581079 0.0994736
0.904112 0.580438 0.0945449
0.913634 0.576928 0.08925
0.0614939 0.461601 0.161425
0.0679942 0.464866 0.159747
0.077348 0.469459 0.159686
0.0894026 0.473945 0.159167
0.105196 0.479072 0.158846
0.129915 0.483955 0.156481
0.163043 0.489036 0.152789
0.206928 0.493751 0.147997
0.255207 0.498421 0.143145
0.299321 0.503487 0.137697
0.34284 0.5084 0.132509
0.386648 0.513603 0.124529
0.429984 0.51873 0.116335
0.468147 0.524453 0.110414
0.50341 0.5308 0.10782
0.541421 0.53611 0.101015
0.578119 0.541344 0.0915694
0.61146 0.546181 0.0887465
0.642191 0.55079 0.0870069
0.670863 0.555169 0.0856336
0.696498 0.560388 0.0857099
0.720775 0.565576 0.0859388
0.743984 0.570733 0.0861219
0.766293 0.575494 0.0877241
0.787259 0.580026 0.0893568
0.807584 0.584741 0.0910658
0.82771 0.589456 0.093492
0.847532 0.594049 0.0972457
0.866423 0.598627 0.100328
0.885344 0.603418 0.102174
0.901457 0.606332 0.10457
0.914641 0.605859 0.100084
0.924529 0.602762 0.0937514
0.06981 0.488228 0.165377
0.078294 0.491356 0.165225
0.0886702 0.495674 0.165347
0.101183 0.50013 0.164782
0.116091 0.50486 0.163485
0.137102 0.509834 0.161334
0.16849 0.514611 0.157
0.210315 0.519417 0.152285
0.256825 0.52398 0.147784
0.30248 0.528664 0.142077
0.344381 0.534035 0.137896
0.386526 0.539162 0.133318
0.428885 0.544411 0.126406
0.469566 0.54992 0.119814
0.505226 0.556085 0.117479
0.538842 0.562554 0.116747
0.575967 0.567941 0.107286
0.611505 0.573022 0.0975357
0.643717 0.577646 0.095552
0.673793 0.581918 0.0933394
0.701473 0.586221 0.0915084
0.726162 0.591241 0.0914931
0.74963 0.596231 0.0914015
0.772244 0.601038 0.092958
0.793851 0.6056 0.0948959
0.814755 0.609934 0.0960098
0.835203 0.614374 0.0966506
0.855421 0.618769 0.0993668
0.875273 0.623117 0.102556
0.894469 0.627634 0.105974
0.910857 0.63032 0.107652
0.924392 0.630625 0.105058
0.934813 0.627604 0.0996414
0.0789502 0.513313 0.171969
0.0894942 0.516899 0.171481
0.100099 0.520851 0.171252
0.111223 0.525383 0.171725
0.126101 0.529763 0.169894
0.145968 0.534691 0.168002
0.173709 0.539559 0.165057
0.210819 0.544274 0.160998
0.256382 0.548852 0.155261
0.302678 0.553628 0.150591
0.346349 0.558328 0.14522
0.387518 0.563561 0.141131
0.427863 0.569162 0.136919
0.467964 0.57499 0.13167
0.505684 0.581033 0.128222
0.53991 0.587152 0.12636
0.572183 0.593256 0.127581
0.608698 0.598688 0.114977
0.643168 0.603708 0.104356
0.674464 0.608179 0.102983
0.703532 0.612253 0.101396
0.730953 0.61622 0.0991684
0.754574 0.621027 0.0993668
0.77731 0.625666 0.100038
0.799451 0.630228 0.101762
0.820966 0.634516 0.103914
0.84184 0.638727 0.10425
0.862486 0.642908 0.105196
0.882979 0.647044 0.107836
0.902831 0.651286 0.110704
0.919844 0.653788 0.112718
0.933806 0.654337 0.112703
0.944396 0.651499 0.108614
0.0902876 0.538018 0.179309
0.0999924 0.541726 0.17966
0.110491 0.545434 0.179492
0.121782 0.549554 0.179934
0.136843 0.553979 0.179187
0.154437 0.558465 0.177264
0.177401 0.563455 0.174914
0.212436 0.568124 0.170657
0.256275 0.572915 0.165835
0.302083 0.577462 0.160571
0.346868 0.581811 0.155642
0.388144 0.586938 0.151247
0.427253 0.59266 0.148638
0.465568 0.598581 0.145998
0.503197 0.604852 0.14342
0.539712 0.610849 0.140841
0.571817 0.616892 0.140261
0.603067 0.622522 0.141711
0.63946 0.628107 0.12604
0.673625 0.633219 0.113756
0.703731 0.637491 0.111788
0.732143 0.641291 0.110231
0.758694 0.644923 0.109087
0.78175 0.649409 0.110079
0.804227 0.653849 0.111406
0.826169 0.658213 0.113161
0.8477 0.662333 0.114229
0.868818 0.66627 0.115206
0.890211 0.670054 0.116793
0.910689 0.674189 0.118944
0.928161 0.676524 0.119051
0.942489 0.676997 0.118547
0.953552 0.674403 0.117205
0.102647 0.562005 0.187427
0.112444 0.565515 0.187747
0.122454 0.569177 0.188296
0.133211 0.573144 0.188449
0.14548 0.577371 0.187701
0.162203 0.581628 0.185962
0.183429 0.586374 0.184543
0.213687 0.59118 0.182269
0.254093 0.595575 0.178256
0.301564 0.599634 0.174029
0.346258 0.604273 0.169467
0.388281 0.60911 0.165286
0.426642 0.614832 0.162921
0.462654 0.621042 0.163317
0.499809 0.627054 0.16228
0.536294 0.632975 0.160327
0.570031 0.639109 0.159945
0.601648 0.644724 0.159915
0.631754 0.650294 0.161563
0.668956 0.65626 0.139055
0.701854 0.661601 0.125963
0.731258 0.665522 0.124086
0.758968 0.669062 0.12343
0.78526 0.672526 0.120562
0.80824 0.676844 0.121187
0.830808 0.681025 0.123018
0.852888 0.685267 0.124605
0.874601 0.689097 0.124788
0.896132 0.692653 0.12575
0.917708 0.696208 0.127504
0.9364 0.698497 0.127352
0.950912 0.698695 0.126101
0.961044 0.696635 0.125093
0.113985 0.584741 0.197192
0.123827 0.588006 0.197436
0.132952 0.591745 0.198535
0.143877 0.595346 0.19855
0.15555 0.599481 0.198917
0.170504 0.603769 0.198413
0.19057 0.608133 0.197452
0.214054 0.612772 0.19617
0.25214 0.616892 0.193149
0.298863 0.621042 0.188739
0.34464 0.625757 0.184985
0.385763 0.630808 0.18175
0.424231 0.636316 0.180346
0.460517 0.642283 0.180713
0.495735 0.648325 0.182467
0.531044 0.654322 0.181872
0.566079 0.660227 0.180468
0.598978 0.666148 0.180987
0.629374 0.671687 0.182086
0.658885 0.676829 0.184009
0.696345 0.683192 0.154818
0.72874 0.688487 0.139605
0.757488 0.692363 0.136736
0.785016 0.695644 0.135286
0.811719 0.698863 0.132692
0.83447 0.703105 0.134539
0.857237 0.707057 0.136217
0.879728 0.710979 0.136507
0.90164 0.714427 0.137102
0.923384 0.717952 0.137957
0.94345 0.720165 0.137469
0.954498 0.720211 0.134905
0.964172 0.718486 0.132738
0.126162 0.606668 0.207279
0.134691 0.610147 0.208728
0.144366 0.613443 0.2094
0.154253 0.617121 0.210163
0.165591 0.621134 0.211429
0.179187 0.625223 0.211795
0.194934 0.629496 0.211566
0.219821 0.633417 0.209842
0.251789 0.637552 0.207691
0.293828 0.641627 0.205341
0.340841 0.646326 0.202899
0.382803 0.651499 0.200885
0.420859 0.657053 0.200534
0.456809 0.66305 0.199619
0.491676 0.669001 0.200992
0.525628 0.674739 0.204654
0.560098 0.680659 0.203876
0.593606 0.686442 0.20351
0.62562 0.692256 0.203891
0.655131 0.697459 0.206226
0.683757 0.702525 0.206622
0.72105 0.708659 0.17467
0.753658 0.714366 0.154772
0.782834 0.718151 0.151354
0.810666 0.721431 0.149294
0.837461 0.724743 0.145754
0.860868 0.728618 0.147311
0.884016 0.732403 0.147829
0.90695 0.735882 0.148562
0.929091 0.739147 0.148867
0.946838 0.741726 0.148608
0.957488 0.741497 0.145266
0.967239 0.740185 0.141634
0.137896 0.627832 0.21915
0.146532 0.631006 0.220676
0.155459 0.634256 0.222019
0.164034 0.638071 0.223697
0.174701 0.641703 0.224063
0.186648 0.645624 0.224521
0.202914 0.649622 0.224369
0.222995 0.653529 0.223743
0.247883 0.657496 0.222538
0.285588 0.661707 0.221637
0.330678 0.666102 0.219379
0.375647 0.671412 0.218997
0.415045 0.677073 0.218357
0.450629 0.682994 0.218738
0.485115 0.68896 0.220035
0.518715 0.694957 0.222416
0.551751 0.700694 0.225742
0.585687 0.706325 0.225422
0.618189 0.712047 0.225849
0.649195 0.717662 0.226413
0.678325 0.722667 0.227512
0.706706 0.72752 0.227283
0.744183 0.733471 0.195773
0.777676 0.739544 0.172137
0.807324 0.743526 0.166705
0.836042 0.74667 0.163958
0.863325 0.74992 0.160449
0.887282 0.753567 0.16173
0.911223 0.757076 0.161975
0.933867 0.760372 0.161563
0.949584 0.763424 0.160678
0.960403 0.763104 0.155978
0.970245 0.761822 0.150286
0.148775 0.648569 0.230884
0.157076 0.651698 0.232319
0.165805 0.654795 0.233555
0.174334 0.658289 0.235157
0.184482 0.661768 0.235782
0.195453 0.665599 0.236912
0.209445 0.669093 0.237263
0.225757 0.673106 0.237964
0.246555 0.676921 0.237736
0.275776 0.681071 0.236912
0.313466 0.685924 0.237003
0.359136 0.691051 0.237369
0.401465 0.696681 0.237812
0.439979 0.702358 0.238437
0.475608 0.70837 0.240345
0.509102 0.714397 0.242237
0.541985 0.720394 0.244541
0.574075 0.726177 0.248753
0.606958 0.731685 0.248966
0.638666 0.737118 0.249287
0.66923 0.742443 0.250568
0.698466 0.747326 0.253178
0.727977 0.751995 0.251637
0.766201 0.757855 0.219898
0.800641 0.763867 0.195315
0.831495 0.768185 0.186282
0.861357 0.771466 0.180972
0.889326 0.774701 0.176699
0.914275 0.778042 0.176577
0.938079 0.781216 0.176196
0.952224 0.784497 0.174655
0.963378 0.784543 0.16846
0.9729 0.783047 0.161196
0.16025 0.668894 0.243748
0.168658 0.671809 0.244862
0.176623 0.674968 0.246479
0.184665 0.67834 0.248249
0.194461 0.681559 0.248997
0.204608 0.685191 0.250294
0.216831 0.688746 0.251011
0.229419 0.692607 0.251728
0.244312 0.696513 0.252476
0.265064 0.700832 0.253376
0.292119 0.70547 0.254627
0.332311 0.710536 0.256291
0.378378 0.715862 0.257023
0.421805 0.721553 0.258473
0.459602 0.727321 0.259861
0.494545 0.733318 0.261845
