public/luts/kodak-fpe-07.cube
TITLE "Generated by Resolve"
LUT_3D_SIZE 9
0.0150912 0.02121 0.0241703
0.0758373 0.0402686 0.035111
0.181827 0.0677043 0.036286
0.304189 0.0924544 0.0370336
0.410178 0.119692 0.041474
0.501503 0.145357 0.0500649
0.578759 0.170703 0.0581521
0.643687 0.19527 0.0657359
0.702556 0.212558 0.09337
0.0261234 0.0786145 0.0582437
0.0945449 0.090898 0.0633555
0.220691 0.11487 0.0581064
0.354314 0.137667 0.0530251
0.467506 0.161364 0.0573281
0.558389 0.189303 0.0693217
0.634623 0.220417 0.0829328
0.701198 0.25095 0.0951858
0.748699 0.268315 0.113344
0.0329747 0.181811 0.100435
0.0807813 0.201678 0.114046
0.254276 0.223133 0.0947433
0.409094 0.247974 0.0684825
0.525658 0.272831 0.0709392
0.616159 0.296101 0.0787366
0.69604 0.320531 0.0864576
0.765316 0.347219 0.0928664
0.804608 0.357504 0.113497
0.0399481 0.310201 0.130831
0.0671244 0.334157 0.138582
0.247211 0.354879 0.121447
0.426612 0.376089 0.0765087
0.557855 0.397726 0.0636912
0.657465 0.4206 0.0720989
0.741482 0.441901 0.0843977
0.814054 0.463645 0.090837
0.864256 0.466682 0.0875105
0.0558328 0.433143 0.156115
0.0953231 0.451987 0.154879
0.252628 0.471901 0.138964
0.428046 0.492485 0.108019
0.577768 0.513527 0.0839399
0.690547 0.533852 0.0791638
0.779416 0.554086 0.0856031
0.857252 0.573343 0.0971389
0.913634 0.576928 0.08925
0.0902876 0.538018 0.179309
0.136843 0.553979 0.179187
0.256275 0.572915 0.165835
0.427253 0.59266 0.148638
0.571817 0.616892 0.140261
0.703731 0.637491 0.111788
0.804227 0.653849 0.111406
0.890211 0.670054 0.116793
0.953552 0.674403 0.117205
0.137896 0.627832 0.21915
0.174701 0.641703 0.224063
0.247883 0.657496 0.222538
0.415045 0.677073 0.218357
0.551751 0.700694 0.225742
0.678325 0.722667 0.227512
0.807324 0.743526 0.166705
0.911223 0.757076 0.161975
0.970245 0.761822 0.150286
0.184482 0.707134 0.271153
0.214252 0.719585 0.27895
0.250629 0.734554 0.287037
0.303532 0.751415 0.296681
0.470848 0.772305 0.307897
0.609445 0.79472 0.325475
0.745617 0.816938 0.336828
0.906767 0.838956 0.255985
0.980377 0.847044 0.21828
0.190005 0.731746 0.370611
0.215869 0.745693 0.38291
0.246021 0.761547 0.399802
0.279118 0.776715 0.419059
0.315251 0.79057 0.440879
0.351614 0.804379 0.468376
0.390921 0.82266 0.504036
0.661982 0.861326 0.548699
0.964202 0.940597 0.515816
0.0180972 0.0322576 0.0789349
0.0809644 0.0482032 0.0894942
0.222889 0.0667887 0.0884565
0.349859 0.0903029 0.0894026
0.450614 0.10605 0.0986954
0.536507 0.129595 0.107591
0.610666 0.156771 0.112856
0.673671 0.18323 0.117693
0.72079 0.210086 0.122484
0.0155642 0.0910811 0.11162
0.0821393 0.101915 0.120989
0.231769 0.119234 0.112352
0.382773 0.136294 0.111315
0.496818 0.155398 0.120974
0.586603 0.182437 0.132815
0.664317 0.213077 0.144518
0.7355 0.240986 0.153323
0.775021 0.261494 0.14992
0.0204776 0.199176 0.14583
0.052491 0.219928 0.164599
0.242695 0.235721 0.16083
0.419913 0.25095 0.138277
0.536065 0.273823 0.143664
0.632609 0.295232 0.14728
0.718105 0.318273 0.154986
0.790845 0.343114 0.162478
0.835096 0.350362 0.153536
0.0299992 0.326299 0.176257
0.0548257 0.35079 0.187396
0.226902 0.369451 0.195041
0.426276 0.384451 0.160922
0.567651 0.402152 0.137987
0.667887 0.423804 0.145998
0.754116 0.443976 0.152667
0.828473 0.465766 0.154223
0.881498 0.467353 0.138247
0.0487526 0.44535 0.201266
0.0912337 0.462776 0.20647
0.240742 0.48159 0.207904
0.42298 0.499062 0.202365
0.579065 0.520027 0.164843
0.695003 0.539605 0.149813
0.785824 0.558114 0.155154
0.866743 0.576181 0.159762
0.924285 0.580972 0.138643
0.0894789 0.545907 0.230198
0.132921 0.560845 0.235096
0.245701 0.578561 0.232868
0.41976 0.597192 0.229801
0.564508 0.61973 0.238926
0.700755 0.641474 0.192844
0.805432 0.658289 0.174273
0.892744 0.673915 0.176013
0.956008 0.679561 0.157275
0.137606 0.633646 0.266453
0.175204 0.646601 0.272068
0.244068 0.662074 0.27454
0.407401 0.682017 0.27744
0.545815 0.705364 0.287434
0.672435 0.726757 0.294118
0.802335 0.745602 0.239872
0.910552 0.760174 0.21622
0.968872 0.766888 0.187137
0.188067 0.710735 0.304662
0.215305 0.723796 0.314366
0.251072 0.738689 0.323003
0.301274 0.755611 0.331685
0.465782 0.776562 0.343999
0.606806 0.799374 0.36022
0.743191 0.821775 0.371878
0.903899 0.842359 0.302403
0.97966 0.850996 0.258808
0.193576 0.738094 0.385763
0.218784 0.752285 0.398337
0.249897 0.767819 0.414298
0.283436 0.782757 0.433524
0.319036 0.796735 0.456001
0.355352 0.810605 0.483284
0.394995 0.82887 0.518242
0.66627 0.867491 0.563653
0.964462 0.946151 0.53695
0.0351415 0.0372625 0.186252
0.0932784 0.0550698 0.208179
0.225498 0.0690929 0.217044
0.36434 0.0823377 0.213245
0.482933 0.10248 0.222477
0.565576 0.12575 0.229541
0.635859 0.149554 0.239475
0.700328 0.17525 0.239597
0.758099 0.197086 0.206043
0.0195163 0.105699 0.225986
0.0820325 0.119722 0.239445
0.22739 0.135302 0.24065
0.397971 0.142275 0.24036
0.52134 0.160967 0.247944
0.605432 0.183658 0.261295
0.680888 0.208194 0.274922
0.76112 0.233463 0.275151
0.811704 0.247868 0.23946
0.0184787 0.218601 0.261448
0.0367285 0.241505 0.281788
0.221439 0.255375 0.286168
0.412848 0.264942 0.267521
0.543343 0.279988 0.275807
0.642115 0.294194 0.284215
0.725399 0.314107 0.292134
0.804868 0.337819 0.294484
0.858244 0.342412 0.25417
0.0261082 0.346441 0.281224
0.0443885 0.37322 0.296971
0.179294 0.395666 0.310826
0.397803 0.403769 0.299336
0.556329 0.413169 0.283268
0.660258 0.42974 0.294606
0.749203 0.445899 0.30399
0.831647 0.464149 0.307637
0.895918 0.462379 0.274464
0.0415961 0.465232 0.308034
0.0756085 0.483909 0.319692
0.186664 0.502571 0.321798
0.392874 0.517479 0.337301
0.564553 0.532311 0.316304
0.689174 0.54316 0.308263
0.78143 0.559762 0.311696
0.860761 0.577508 0.315328
0.927047 0.582528 0.279683
0.0783856 0.562692 0.329335
0.124102 0.57586 0.332525
0.218189 0.591867 0.333562
0.399847 0.610452 0.344869
0.555825 0.630671 0.361212
0.688792 0.647334 0.344121
0.794949 0.660731 0.326528
0.886351 0.674769 0.320287
0.950668 0.68101 0.291218
0.131441 0.644282 0.350637
0.172442 0.655329 0.354314
0.233371 0.670298 0.359792
0.392782 0.690745 0.366278
0.534691 0.71429 0.380865
0.664042 0.734539 0.396307
0.790402 0.750317 0.36231
0.901595 0.763867 0.332906
0.965118 0.770367 0.302464
0.182879 0.7178 0.369757
0.214755 0.728771 0.376394
0.251484 0.743114 0.385183
0.294423 0.760693 0.395453
0.450126 0.782284 0.409262
0.598047 0.805814 0.423728
0.736187 0.828946 0.434272
0.895537 0.847425 0.386511
0.977462 0.856992 0.334707
0.194842 0.744686 0.412558
0.220768 0.758556 0.424933
0.252857 0.773785 0.440055
0.287373 0.788754 0.457206
0.322896 0.803204 0.47808
0.359609 0.817472 0.502815
0.398886 0.835966 0.538216
0.670863 0.875029 0.584161
0.96556 0.952392 0.566903
0.0585184 0.051667 0.296422
0.109758 0.0648203 0.326543
0.246754 0.07776 0.332982
0.382635 0.0797131 0.341543
0.484382 0.102022 0.343954
0.57557 0.129656 0.350134
0.653056 0.154421 0.356344
0.719051 0.180423 0.358862
0.779126 0.198444 0.349172
0.0474403 0.119722 0.345815
0.10042 0.140002 0.367102
0.253376 0.151522 0.361639
0.39147 0.157824 0.367636
0.512612 0.168353 0.372717
0.618463 0.188037 0.382727
0.703014 0.212116 0.393622
0.768307 0.242252 0.400397
0.813077 0.259312 0.377707
0.0150759 0.241672 0.385977
0.0354162 0.265187 0.403525
0.230869 0.276829 0.405585
0.392432 0.288029 0.40322
0.540581 0.291402 0.400778
0.650034 0.30721 0.405951
0.731777 0.326452 0.413184
0.7953 0.350484 0.422415
0.858061 0.347906 0.402533
0.0227817 0.365377 0.410391
0.0406806 0.390311 0.428473
0.145708 0.418662 0.444221
0.38732 0.417105 0.427802
0.547509 0.426917 0.419028
0.663203 0.43978 0.420539
0.755718 0.450095 0.429816
0.836133 0.460792 0.435294
0.895155 0.460166 0.417304
0.035172 0.481285 0.424674
0.0584726 0.504738 0.437827
0.129183 0.530114 0.447395
0.379934 0.533715 0.446677
0.541222 0.54725 0.448173
0.674525 0.557443 0.437079
0.767361 0.56965 0.442802
0.853376 0.58027 0.447303
0.92192 0.578637 0.431754
0.0551766 0.586114 0.439918
0.0911421 0.602319 0.449958
0.183566 0.61033 0.449882
0.378103 0.626749 0.453254
0.529213 0.647532 0.479545
0.675959 0.662226 0.461006
0.787701 0.667659 0.451484
0.878218 0.679805 0.450034
0.945876 0.684443 0.432471
0.119738 0.660502 0.445899
0.163592 0.669718 0.44947
0.221286 0.683482 0.45185
0.380209 0.702388 0.457511
0.524178 0.726436 0.475868
0.656626 0.74667 0.493645
0.783505 0.758831 0.474311
0.889921 0.769924 0.455116
0.961944 0.774502 0.431739
0.177752 0.72668 0.445518
0.208972 0.737667 0.45275
0.248447 0.751049 0.459876
0.290913 0.768002 0.468193
0.428244 0.790249 0.481407
0.587488 0.814923 0.495079
0.729961 0.838392 0.505684
0.886259 0.855421 0.477455
0.975525 0.863661 0.432456
0.19527 0.749889 0.448722
0.221271 0.763653 0.461265
0.252872 0.779202 0.476677
0.290257 0.793378 0.491218
0.32575 0.808331 0.510689
0.362341 0.823163 0.533806
0.401434 0.84271 0.564858
0.675547 0.882948 0.609583
0.967697 0.958267 0.606317
0.0914321 0.0744488 0.392157
0.128985 0.0905928 0.415732
0.260304 0.0991379 0.424613
0.387732 0.108141 0.426551
0.492866 0.115938 0.440772
0.57911 0.139727 0.445274
0.659281 0.168231 0.452598
0.73315 0.19292 0.460395
0.79588 0.215412 0.453162
0.087953 0.142107 0.438178
0.128145 0.164706 0.458015
0.26981 0.175036 0.45623
0.405859 0.181384 0.455909
0.507927 0.190494 0.465095
0.609995 0.204822 0.475837
0.702998 0.228992 0.489326
0.779553 0.256565 0.498375
0.830518 0.274464 0.483284
0.0187686 0.267002 0.471717
0.0566873 0.291463 0.49575
0.241962 0.305592 0.503944
0.40853 0.311589 0.491493
0.522789 0.320058 0.502266
0.638102 0.324117 0.509773
0.735286 0.340337 0.510872
0.814404 0.359167 0.519387
0.857725 0.367864 0.504814
0.0197147 0.388373 0.504158
0.0383001 0.412482 0.524178
0.187716 0.429694 0.528328
0.396124 0.432898 0.525872
0.52726 0.448753 0.527886
0.654292 0.454307 0.525414
0.756069 0.463661 0.532296
0.836255 0.475441 0.535378
0.887266 0.47248 0.526436
0.0347448 0.498665 0.527687
0.0585031 0.520851 0.544076
0.124254 0.544732 0.555428
0.364263 0.554086 0.552209
0.53875 0.558862 0.547997
0.670542 0.56994 0.544976
0.771267 0.578851 0.543069
0.860136 0.583124 0.546609
0.925231 0.574838 0.537682
0.0573281 0.599054 0.535698
0.0946517 0.614313 0.543496
0.162951 0.631525 0.546181
0.331655 0.652598 0.550408
0.527352 0.661677 0.563531
0.663172 0.675212 0.564034
0.778103 0.681682 0.553414
0.86894 0.687663 0.551858
0.944411 0.683009 0.540932
0.0878309 0.686976 0.541985
0.12285 0.69987 0.547936
0.183459 0.71162 0.547921
0.358801 0.718776 0.547784
0.510307 0.741527 0.560967
0.639277 0.76173 0.585641
0.777173 0.773037 0.564233
0.887877 0.776486 0.550774
0.959609 0.780987 0.532555
0.155779 0.74548 0.527138
0.192309 0.75378 0.533227
0.238331 0.764233 0.539712
0.283604 0.780499 0.544396
0.40235 0.801785 0.552041
0.57583 0.826596 0.567895
0.723964 0.85037 0.580255
0.881529 0.865202 0.564523
0.975067 0.87216 0.524376
0.195911 0.753262 0.493492
0.220661 0.767544 0.506645
0.252628 0.783032 0.521645
0.288853 0.797909 0.536675
0.327504 0.812253 0.552651
0.363973 0.827771 0.574228
0.402045 0.848371 0.60293
0.670878 0.89099 0.643931
0.970916 0.965072 0.647364
0.119493 0.111299 0.481727
0.149966 0.12813 0.500328
0.26836 0.135729 0.510369
0.399237 0.139773 0.515984
0.499809 0.148028 0.523888
0.584298 0.160815 0.536126
0.656214 0.188388 0.53431
0.735851 0.213077 0.544503
0.804944 0.237797 0.544137
0.12105 0.174426 0.52108
0.154543 0.196841 0.540017
0.280919 0.207858 0.548135
0.412818 0.213596 0.543862
0.516991 0.220142 0.549325
0.601099 0.234195 0.559091
0.684169 0.257984 0.561547
0.778531 0.279103 0.583337
0.840497 0.295079 0.575677
0.043946 0.294987 0.555383
0.106813 0.318486 0.579995
0.256886 0.334829 0.593957
0.418189 0.337346 0.575494
0.531334 0.345647 0.580804
0.620935 0.354009 0.591684
0.721447 0.360739 0.598001
0.810605 0.379294 0.604257
0.871397 0.38265 0.596246
0.0196078 0.412146 0.586603
0.045243 0.436622 0.606516
0.223987 0.452201 0.614618
0.413733 0.452644 0.610101
0.538872 0.46833 0.60766
0.642069 0.47686 0.621393
0.747997 0.477272 0.625696
0.839841 0.487694 0.622782
0.899351 0.483101 0.613764
0.0319829 0.518578 0.610605
0.0610513 0.538689 0.625772
0.1776 0.553384 0.633616
0.391302 0.561608 0.631846
0.539361 0.572854 0.638376
0.650813 0.587732 0.639902
0.762219 0.591287 0.634791
0.858595 0.595087 0.638331
0.923293 0.585702 0.625498
0.0559396 0.615167 0.624765
0.0905318 0.631159 0.63595
0.151766 0.647578 0.642969
0.341802 0.665156 0.648402
0.517525 0.678691 0.652705
0.660014 0.684611 0.651545
0.776104 0.691234 0.646983
0.870085 0.695048 0.639429
0.949569 0.679545 0.627787
0.104723 0.693736 0.616693
0.138827 0.706706 0.624628
0.183352 0.723064 0.631662
0.330404 0.739834 0.632059
0.4813 0.764462 0.641535
0.637446 0.775509 0.657755
0.765667 0.786694 0.652628
0.880446 0.786923 0.635294
0.960037 0.782483 0.622019
0.135363 0.763668 0.610361
0.160876 0.776913 0.619425
0.195926 0.792905 0.627771
0.249897 0.805722 0.630945
0.37055 0.817121 0.63331
0.567559 0.839826 0.639475
0.711757 0.863767 0.662364
0.879042 0.876524 0.641855
0.976059 0.880476 0.608194
0.182788 0.760922 0.550942
0.210285 0.773968 0.563394
0.24686 0.787472 0.577142
0.285039 0.801709 0.592157
0.323857 0.816617 0.607706
0.363607 0.83209 0.624384
0.401083 0.853819 0.651484
0.656306 0.89836 0.690745
0.975097 0.972366 0.695369
0.139666 0.159045 0.562615
0.165606 0.177356 0.57763
0.273182 0.184298 0.586435
0.397559 0.187442 0.594186
0.5028 0.193179 0.603555
0.587732 0.200397 0.614267
0.660273 0.214267 0.623896
0.72282 0.242237 0.619608
0.808469 0.262257 0.633997
0.142489 0.216739 0.595514
0.175097 0.238117 0.613352
0.283833 0.253651 0.622522
0.41413 0.256672 0.625513
0.52134 0.261479 0.632425
0.609201 0.269902 0.642512
0.68333 0.286412 0.651545
0.755489 0.314977 0.651698
0.843839 0.318914 0.667231
0.103182 0.324758 0.634897
0.152499 0.351064 0.653986
0.271931 0.368856 0.670069
0.428534 0.364614 0.667521
0.533837 0.376226 0.663066
0.628321 0.38085 0.673915
0.707851 0.389578 0.683848
0.791241 0.40531 0.683772
0.871824 0.403372 0.688228
0.0446326 0.438651 0.66508
0.0978408 0.460807 0.687007
0.257694 0.475044 0.69894
0.42562 0.475013 0.698161
0.546929 0.488075 0.691875
0.643961 0.497871 0.699062
0.729381 0.500999 0.712764
0.828733 0.501198 0.716045
0.902129 0.497353 0.703883
0.0369726 0.539132 0.694148
0.0796979 0.558099 0.70808
0.243214 0.569726 0.713375
0.411826 0.577173 0.717235
0.549981 0.587457 0.723857
0.655772 0.601923 0.722454
0.749599 0.607187 0.73434
0.849348 0.604395 0.734325
0.930175 0.593301 0.7178
0.0560922 0.63064 0.708141
0.0942245 0.644846 0.717937
0.184756 0.657237 0.724376
0.381476 0.66949 0.732525
0.531411 0.684245 0.738521
0.651972 0.695476 0.743755
0.75288 0.705562 0.743297
0.861891 0.703868 0.734737
0.952728 0.686229 0.724468
0.0907759 0.710094 0.710933
0.123491 0.723156 0.720333
0.166522 0.7402 0.730846
0.29247 0.757336 0.738262
0.479896 0.774899 0.744427
0.622599 0.790295 0.750576
0.757061 0.793591 0.745373
0.876936 0.79263 0.73138
0.964218 0.777966 0.712947
0.142931 0.768841 0.688731
0.166949 0.782284 0.699214
0.198657 0.799481 0.710979
0.238788 0.818692 0.720928
0.317952 0.838193 0.726848
0.548196 0.85803 0.723293
0.704158 0.877134 0.743435
0.867658 0.889586 0.732296
0.976715 0.885161 0.698268
0.158251 0.771756 0.623636
0.181247 0.786847 0.6374
0.216083 0.801465 0.651331
0.257984 0.814649 0.664469
0.307271 0.825544 0.678126
0.351095 0.84004 0.69662
0.39469 0.861708 0.715007
0.635538 0.907179 0.74876
0.979965 0.979828 0.761288
0.151553 0.230549 0.633844
0.175433 0.247944 0.646174
0.274525 0.255756 0.652934
0.393561 0.259007 0.664073
0.49662 0.26511 0.677699
0.586313 0.27126 0.6925
0.663111 0.275242 0.707057
0.7337 0.281147 0.718715
0.790921 0.308629 0.712108
0.151019 0.281193 0.663874
0.187213 0.301228 0.678874
0.291112 0.315801 0.687282
0.417777 0.318639 0.701122
0.518364 0.329137 0.70898
0.610803 0.335241 0.724269
0.694438 0.341115 0.743328
0.765484 0.353201 0.754711
0.818555 0.368322 0.740322
0.140078 0.371786 0.70309
0.183734 0.395438 0.719417
0.290974 0.414084 0.730983
0.431144 0.414679 0.741955
0.541451 0.4224 0.746731
0.633844 0.428931 0.757992
0.717067 0.433127 0.773693
0.790585 0.440116 0.785367
0.849363 0.442618 0.767956
0.119493 0.472816 0.739651
0.173693 0.494041 0.756909
0.290974 0.509987 0.769436
0.433921 0.512871 0.779873
0.557198 0.517876 0.786831
0.65127 0.528222 0.786419
0.735042 0.532189 0.799405
0.811856 0.533715 0.812543
0.887037 0.521431 0.798367
0.114 0.568978 0.774227
0.170794 0.586282 0.789471
0.299199 0.595819 0.796429
0.433494 0.603922 0.804532
0.556939 0.611826 0.812711
0.661265 0.622415 0.81004
0.747967 0.629343 0.817441
0.82919 0.627909 0.831968
0.920699 0.606088 0.821195
0.0956436 0.651972 0.792981
0.150042 0.664866 0.802029
0.280598 0.679026 0.810849
0.419791 0.689448 0.818296
0.544976 0.69955 0.827131
0.656931 0.7093 0.833951
0.754955 0.718654 0.833646
0.848112 0.717556 0.84622
0.944564 0.695003 0.834028
0.0966049 0.72668 0.801602
0.130587 0.739193 0.811383
0.194934 0.75462 0.821836
0.368032 0.768658 0.827649
0.511788 0.780331 0.835462
0.634852 0.792752 0.842435
0.747036 0.801724 0.84863
0.855421 0.806287 0.849638
0.965301 0.783291 0.837568
0.115465 0.789792 0.801511
0.138582 0.803342 0.812772
0.168734 0.820768 0.826108
0.206317 0.839979 0.838636
0.291737 0.858396 0.847532
0.506676 0.875669 0.848966
0.677745 0.893248 0.857511
0.848585 0.897032 0.847883
0.975952 0.88278 0.815457
0.172854 0.765484 0.698375
0.193759 0.78143 0.713878
0.220829 0.799771 0.732036
0.251637 0.818677 0.751293
0.286595 0.837949 0.771191
0.324956 0.858274 0.790997
0.372488 0.87953 0.813672
0.6103 0.921828 0.837491
0.983993 0.987381 0.840864
0.189822 0.375906 0.697169
0.196643 0.387411 0.704799
0.277226 0.396139 0.713756
0.369985 0.404486 0.730526
0.457633 0.419074 0.747372
0.551141 0.42652 0.763745
0.644648 0.426566 0.778393
0.727886 0.426322 0.795071
0.804746 0.421103 0.813077
0.187121 0.419409 0.725567
0.212253 0.433845 0.736141
0.301045 0.445853 0.746426
0.397681 0.456123 0.764126
0.482261 0.47335 0.780774
0.578698 0.481865 0.798032
0.674022 0.485588 0.812848
0.762463 0.486809 0.831724
0.832914 0.472206 0.842634
0.194324 0.487129 0.766613
0.23537 0.503456 0.77966
0.323217 0.514977 0.788602
0.422202 0.525093 0.802243
0.508873 0.541131 0.822705
0.60148 0.552453 0.835004
0.700526 0.554849 0.848356
0.791348 0.554879 0.863233
0.858717 0.535302 0.86894
0.224857 0.560937 0.80589
0.272801 0.574365 0.816785
0.357275 0.585657 0.82591
0.444205 0.599817 0.840009
0.532265 0.614847 0.858381
0.622415 0.625956 0.870878
0.721416 0.627726 0.882338
0.816342 0.626169 0.891768
0.881788 0.605447 0.89192
0.274037 0.63299 0.837324
0.320562 0.644953 0.84773
0.387747 0.659358 0.860334
0.469398 0.673228 0.873259
0.556786 0.686625 0.888609
0.644007 0.696147 0.903487
0.733166 0.702129 0.907805
0.835279 0.697902 0.914382
0.904936 0.676799 0.91339
0.319661 0.704906 0.863539
0.35967 0.716731 0.874617
0.420493 0.729809 0.886275
0.495567 0.743694 0.898695
0.578317 0.756069 0.910491
0.662394 0.765652 0.920684
0.742763 0.774426 0.924773
0.846326 0.770169 0.930068
0.926299 0.746868 0.929808
0.357015 0.775174 0.882765
0.390509 0.787182 0.89424
0.445335 0.799405 0.905516
0.518608 0.809735 0.914061
0.597421 0.82182 0.922667
0.675059 0.833112 0.928054
0.755932 0.841352 0.935119
0.854124 0.841856 0.940307
0.946532 0.817456 0.941451
0.375952 0.833677 0.88426
0.402655 0.846571 0.896178
0.446326 0.861708 0.909682
0.506294 0.875853 0.921355
0.580163 0.889479 0.930236
0.661936 0.901442 0.935317
0.756909 0.911376 0.941665
0.860929 0.915312 0.950927
0.964477 0.894118 0.94876
0.192401 0.826276 0.854047
0.213611 0.842939 0.870069
0.238972 0.862821 0.888884
0.266697 0.88455 0.908797
0.298543 0.907897 0.921798
0.333883 0.934218 0.934325
0.414099 0.963546 0.951141
0.722301 0.987228 0.965866
0.980453 0.98793 0.960708
