public/luts/kodak-fpe-06.cube
TITLE "Generated by Resolve"
LUT_3D_SIZE 9
0.0217594 0.0302586 0.0362097
0.0854505 0.0460059 0.0407416
0.200855 0.0669108 0.0336919
0.336538 0.0801404 0.0163119
0.460563 0.0883803 0.0198672
0.569314 0.0992142 0.0334783
0.654047 0.121981 0.0396582
0.721279 0.146654 0.0520333
0.776135 0.166064 0.0866255
0.0183719 0.08542 0.0651408
0.0982376 0.0994583 0.0666056
0.229908 0.121263 0.0502022
0.370871 0.139376 0.023621
0.497169 0.153903 0.0198367
0.598108 0.169162 0.0205539
0.68249 0.185092 0.0269932
0.745937 0.202945 0.037583
0.792645 0.226658 0.0649729
0.0232395 0.178546 0.0966964
0.0825513 0.191669 0.0910201
0.250935 0.219379 0.062562
0.410834 0.242893 0.0314183
0.54548 0.261234 0.024918
0.643961 0.276432 0.0205844
0.724346 0.291539 0.0175631
0.786984 0.308522 0.0220951
0.834989 0.329534 0.0467689
0.0293736 0.286427 0.115938
0.0379492 0.309453 0.0988022
0.251423 0.331594 0.0621805
0.426993 0.359869 0.0383001
0.571023 0.38027 0.0289006
0.681147 0.397101 0.0263371
0.767468 0.411536 0.0262608
0.831281 0.427512 0.0229496
0.879881 0.446891 0.0298161
0.040177 0.390707 0.123461
0.0427253 0.416526 0.095079
0.238437 0.439353 0.0696269
0.428122 0.469749 0.0482032
0.586572 0.496056 0.042649
0.704356 0.516564 0.0356451
0.796429 0.533211 0.033341
0.86743 0.549218 0.0354467
0.919081 0.568505 0.0349126
0.0527962 0.484321 0.129381
0.0467689 0.509987 0.117479
0.207523 0.533364 0.0886397
0.415305 0.564248 0.0665599
0.58909 0.593927 0.062562
0.719539 0.618891 0.0609445
0.818051 0.638132 0.06009
0.895689 0.654963 0.0602121
0.942245 0.672175 0.0672465
0.066041 0.568307 0.156176
0.0516213 0.593576 0.140948
0.161334 0.617655 0.115984
0.394476 0.646586 0.0910658
0.576944 0.677241 0.0866255
0.720043 0.705226 0.0894484
0.832593 0.728511 0.0959029
0.91165 0.745953 0.100267
0.962966 0.7635 0.10515
0.0840925 0.648432 0.183734
0.0642557 0.67039 0.164401
0.142855 0.695354 0.143816
0.285954 0.716182 0.120607
0.504601 0.743099 0.113588
0.671107 0.772015 0.121523
0.814298 0.801251 0.13521
0.920317 0.825513 0.147265
0.980377 0.845747 0.16228
0.092668 0.721416 0.305608
0.0767224 0.741054 0.239826
0.200549 0.748714 0.212955
0.300267 0.765087 0.202014
0.380316 0.779248 0.202243
0.441321 0.793622 0.215473
0.490639 0.813306 0.242496
0.725567 0.856413 0.295735
0.964202 0.93904 0.383932
0.0250706 0.0376745 0.0835431
0.0892348 0.053727 0.0940719
0.233234 0.0683452 0.0954604
0.366781 0.0824445 0.100298
0.482597 0.0802319 0.107195
0.576242 0.0981155 0.108812
0.659251 0.120302 0.111513
0.726421 0.144457 0.115145
0.779568 0.162646 0.139147
0.0125734 0.0978103 0.116793
0.0926223 0.108675 0.118914
0.235843 0.127947 0.114382
0.383322 0.142275 0.109514
0.505196 0.150225 0.10399
0.605722 0.157641 0.0993973
0.698665 0.15523 0.104067
0.762341 0.166079 0.102388
0.806836 0.195483 0.108751
0.0167239 0.191913 0.148394
0.0439765 0.206195 0.147753
0.24152 0.229313 0.142153
0.412421 0.247456 0.122255
0.543938 0.262531 0.104295
0.642863 0.2757 0.0860151
0.725597 0.289952 0.071458
0.78883 0.304829 0.0738689
0.836744 0.323949 0.0833753
0.0234073 0.299336 0.171679
0.0258793 0.321614 0.170245
0.230274 0.343008 0.156603
0.425528 0.36669 0.124193
0.572824 0.383322 0.0885328
0.680659 0.399344 0.0722057
0.766461 0.413428 0.0691691
0.829786 0.429969 0.063508
0.881132 0.450172 0.0647746
0.0305333 0.401083 0.189029
0.0322271 0.425818 0.179706
0.210529 0.44892 0.14786
0.423362 0.478218 0.0944533
0.584848 0.502022 0.0860914
0.702113 0.521233 0.0819562
0.794507 0.537377 0.0786603
0.86569 0.553338 0.0768749
0.918273 0.574746 0.0699779
0.0418097 0.490074 0.213901
0.0372931 0.515389 0.196872
0.162936 0.545617 0.145861
0.404105 0.571588 0.091783
0.584024 0.599954 0.095079
0.715587 0.62443 0.0972152
0.814664 0.643107 0.0958877
0.89337 0.66009 0.0937972
0.94435 0.678981 0.0949111
0.0548104 0.571145 0.24097
0.0446937 0.59559 0.217121
0.121828 0.625818 0.155673
0.379843 0.652674 0.113283
0.568643 0.682689 0.106523
0.71458 0.710414 0.110933
0.82829 0.733562 0.117311
0.912398 0.751675 0.119799
0.965484 0.770031 0.122591
0.0710765 0.647745 0.272038
0.0559396 0.668757 0.245197
0.104952 0.697688 0.190478
0.26894 0.718639 0.137789
0.491783 0.745815 0.127108
0.662821 0.774746 0.130709
0.807691 0.803983 0.143908
0.921843 0.829313 0.157443
0.97966 0.849058 0.174548
0.0756085 0.722942 0.391852
0.0597086 0.740536 0.373144
0.132464 0.756848 0.352178
0.273747 0.765423 0.329122
0.360769 0.777768 0.320043
0.424643 0.791165 0.32134
0.47657 0.811246 0.330205
0.725872 0.853773 0.368582
0.964462 0.935149 0.451896
0.0321508 0.0441444 0.171939
0.104509 0.0576638 0.192844
0.226627 0.0747082 0.205081
0.375357 0.0744945 0.21355
0.504921 0.0806744 0.224948
0.593973 0.0973831 0.232059
0.668696 0.117983 0.241001
0.731655 0.142214 0.251087
0.783841 0.158572 0.259052
0.0151064 0.114107 0.21706
0.094316 0.124315 0.225574
0.234684 0.142016 0.232822
0.397345 0.147936 0.234791
0.530571 0.154162 0.233036
0.622141 0.158602 0.238392
0.702098 0.156191 0.251804
0.76434 0.163546 0.262592
0.805264 0.194415 0.259098
0.0142061 0.212863 0.258015
0.0174716 0.231525 0.266056
0.229999 0.244724 0.261021
0.411643 0.259449 0.252171
0.550835 0.26923 0.249683
0.647807 0.276448 0.248219
0.724865 0.287373 0.250523
0.785748 0.304128 0.258061
0.832898 0.323461 0.256977
0.0188144 0.319173 0.283268
0.0190738 0.343511 0.289586
0.186053 0.365209 0.282017
0.400641 0.38529 0.275853
0.560418 0.395727 0.263661
0.670588 0.406729 0.258671
0.755337 0.417624 0.25684
0.81944 0.432761 0.260136
0.869398 0.451743 0.259831
0.0240024 0.421607 0.301656
0.021561 0.448127 0.302312
0.124575 0.476036 0.293294
0.386511 0.496284 0.285176
0.569818 0.514412 0.269444
0.693126 0.525856 0.260502
0.78291 0.54023 0.256641
0.851408 0.556222 0.255924
0.901045 0.578897 0.253254
0.0338598 0.5075 0.319997
0.0289311 0.533867 0.315465
0.0963912 0.566476 0.30338
0.370428 0.586023 0.283207
0.568643 0.608454 0.27013
0.700984 0.628794 0.267079
0.798749 0.645197 0.257389
0.877241 0.661631 0.252613
0.933227 0.682383 0.251774
0.0472572 0.583917 0.344717
0.0372931 0.60943 0.336828
0.0670329 0.643442 0.324254
0.346883 0.661875 0.291417
0.544625 0.688441 0.272801
0.696391 0.713283 0.265217
0.810559 0.735073 0.257984
0.901854 0.754864 0.247303
0.961822 0.773281 0.250401
0.0638132 0.655924 0.37055
0.0496681 0.678004 0.35848
0.061265 0.711498 0.347234
0.23801 0.724346 0.315236
0.4589 0.748348 0.298421
0.637888 0.775921 0.289799
0.78735 0.804318 0.287648
0.914488 0.830945 0.295811
0.977462 0.851011 0.307897
0.0699779 0.730037 0.459907
0.0550393 0.748852 0.448341
0.0843977 0.773083 0.441596
0.25391 0.774456 0.41912
0.346334 0.785763 0.417563
0.409979 0.796689 0.425711
0.461158 0.814481 0.450217
0.726482 0.858412 0.497414
0.96556 0.940948 0.581964
0.05832 0.0510719 0.278233
0.136278 0.0545815 0.301839
0.253269 0.0734264 0.319219
0.382879 0.0747387 0.325567
0.50045 0.0835279 0.330877
0.600107 0.102754 0.33904
0.6804 0.123903 0.349554
0.742611 0.149645 0.361746
0.79443 0.169177 0.370703
0.034699 0.129824 0.32108
0.102785 0.146258 0.332845
0.255848 0.158312 0.344961
0.39704 0.159197 0.349081
0.523751 0.158984 0.349828
0.628794 0.163149 0.354803
0.715801 0.160098 0.370123
0.773907 0.170108 0.380453
0.812543 0.20621 0.377859
0.0130159 0.235325 0.367117
0.0183871 0.254902 0.378897
0.23888 0.265232 0.375479
0.40177 0.27863 0.377966
0.544915 0.282445 0.374884
0.658991 0.287846 0.373816
0.738949 0.296407 0.374548
0.792935 0.310491 0.381506
0.835935 0.334462 0.384009
0.0157015 0.340032 0.398016
0.016144 0.364294 0.407904
0.149371 0.384344 0.402457
0.395636 0.398306 0.396826
0.559945 0.409186 0.391546
0.675929 0.418036 0.388281
0.761227 0.424414 0.390112
0.82121 0.434134 0.392126
0.865156 0.455817 0.394705
0.0198062 0.43801 0.414664
0.0177005 0.465568 0.420966
0.0629587 0.50161 0.422919
0.368399 0.51458 0.408148
0.550149 0.53077 0.406104
0.678614 0.543053 0.401831
0.771389 0.553124 0.39791
0.841947 0.564538 0.399725
0.890425 0.583413 0.398856
0.0288853 0.523552 0.430747
0.023682 0.551537 0.43331
0.0481575 0.590066 0.431601
0.337865 0.606531 0.413138
0.538445 0.627955 0.414679
0.687617 0.646265 0.409812
0.791684 0.655634 0.406851
0.868116 0.671305 0.408286
0.918761 0.691829 0.403815
0.0417945 0.598947 0.448188
0.0327459 0.625757 0.446815
0.0381476 0.666407 0.44625
0.316884 0.678798 0.417777
0.524102 0.704143 0.412268
0.681743 0.727611 0.415274
0.800412 0.745647 0.419989
0.88716 0.763668 0.420935
0.947585 0.78117 0.417258
0.0587167 0.665171 0.46775
0.0453651 0.688548 0.462593
0.0447089 0.727306 0.462028
0.213474 0.73669 0.433219
0.424079 0.759548 0.424674
0.616831 0.786999 0.42359
0.771527 0.815 0.428061
0.900145 0.840864 0.445197
0.975525 0.8598 0.452506
0.0666667 0.734707 0.521233
0.0524605 0.754467 0.513466
0.0662547 0.780133 0.510384
0.238743 0.781262 0.490166
0.336431 0.791959 0.490349
0.400366 0.801404 0.498543
0.451896 0.819638 0.52163
0.720455 0.864302 0.567712
0.967697 0.948898 0.653788
0.0901045 0.072755 0.368338
0.159167 0.0773632 0.386694
0.27631 0.0896773 0.406638
0.393729 0.0975357 0.413016
0.503807 0.0991836 0.418326
0.5991 0.113436 0.42707
0.684581 0.137087 0.437659
0.75285 0.16318 0.452079
0.807645 0.187533 0.46482
0.0778515 0.137774 0.410071
0.114916 0.168475 0.421714
0.277989 0.173861 0.433509
0.406088 0.179187 0.438651
0.525063 0.171572 0.443412
0.626963 0.16701 0.452201
0.71899 0.165057 0.465339
0.78294 0.182483 0.475944
0.825193 0.220005 0.479088
0.0166781 0.255222 0.451087
0.0407568 0.277424 0.465766
0.254002 0.28838 0.471015
0.412726 0.300893 0.472419
0.544457 0.300084 0.476783
0.648539 0.302266 0.476692
0.738048 0.310292 0.475029
0.800153 0.32372 0.479667
0.842542 0.35079 0.48481
0.0148318 0.36025 0.485191
0.0150149 0.38497 0.49987
0.153079 0.407492 0.499504
0.397269 0.416205 0.494102
0.548714 0.427176 0.494194
0.666194 0.433234 0.49247
0.764202 0.436728 0.49514
0.830106 0.444755 0.495491
0.867872 0.464912 0.497551
0.0181277 0.45623 0.509041
0.0157473 0.484642 0.519402
0.047715 0.518471 0.521752
0.360098 0.530663 0.510292
0.548241 0.542779 0.50634
0.679164 0.555428 0.507042
0.774716 0.563592 0.50544
0.846235 0.569909 0.507668
0.889021 0.583749 0.505928
0.0261692 0.539345 0.526131
0.0214542 0.567346 0.531472
0.0343938 0.607965 0.536294
0.299519 0.625818 0.519463
0.531411 0.643198 0.517067
0.675441 0.660594 0.520455
0.780987 0.671763 0.521065
0.859541 0.681514 0.519173
0.912062 0.694789 0.51519
0.0389868 0.612711 0.54139
0.0305486 0.640085 0.543587
0.0347143 0.68072 0.546029
0.288029 0.695827 0.52108
0.504143 0.720897 0.520363
0.661204 0.743984 0.530983
0.793362 0.761166 0.531258
0.884932 0.772473 0.534157
0.940703 0.790417 0.526909
0.056199 0.67538 0.555474
0.0430915 0.699626 0.55378
0.042237 0.738949 0.556634
0.192645 0.750744 0.531746
0.389776 0.772976 0.525002
0.598795 0.800198 0.528725
0.761212 0.828046 0.535592
0.894148 0.852232 0.556848
0.970855 0.870451 0.55671
0.0650492 0.737346 0.579934
0.0512551 0.75729 0.573892
0.0523079 0.788769 0.577829
0.225757 0.785931 0.554147
0.329549 0.796292 0.554696
0.394308 0.805554 0.562066
0.445914 0.824186 0.584054
0.710414 0.870497 0.627771
0.970916 0.956374 0.709545
0.121492 0.109087 0.448356
0.179904 0.11429 0.463081
0.298085 0.120089 0.483223
0.411826 0.126436 0.493111
0.516381 0.127474 0.498238
0.60502 0.134661 0.505867
0.686442 0.15346 0.516365
0.757916 0.181521 0.530373
0.820142 0.207675 0.54905
0.126925 0.156374 0.496742
0.13872 0.194339 0.49807
0.298146 0.197574 0.51104
0.421775 0.20148 0.518532
0.535393 0.191867 0.525658
0.632059 0.179294 0.536507
0.719203 0.175723 0.549203
0.787396 0.198215 0.55903
0.840452 0.228153 0.57142
0.04271 0.278431 0.525139
0.0879225 0.301839 0.540124
0.270771 0.313451 0.548379
0.427695 0.321309 0.549279
0.549233 0.324285 0.553857
0.648493 0.319951 0.559457
0.732891 0.323293 0.561395
0.800656 0.338796 0.56434
0.849958 0.368322 0.572091
0.0166934 0.381491 0.558679
0.023743 0.406485 0.573816
0.177478 0.430915 0.580804
0.409842 0.435325 0.577661
0.555261 0.446418 0.57731
0.667613 0.447959 0.584527
0.753979 0.451286 0.583169
0.827848 0.459373 0.582925
0.873564 0.479026 0.583795
0.0179141 0.474891 0.583169
0.0158846 0.502663 0.595865
0.066865 0.540871 0.608911
0.363455 0.546487 0.594324
0.545769 0.558022 0.592523
0.669291 0.569329 0.595209
0.7673 0.576318 0.59379
0.848905 0.581003 0.598169
0.895384 0.591134 0.594125
0.0250858 0.556237 0.604669
0.0210269 0.584772 0.613428
0.0278325 0.624887 0.621912
0.30663 0.639567 0.606638
0.526772 0.657755 0.605814
0.672694 0.671061 0.607569
0.781796 0.682429 0.611475
0.858763 0.69131 0.611917
0.914626 0.694606 0.605676
0.0377661 0.627909 0.622599
0.0296788 0.655604 0.627573
0.0292668 0.696498 0.633951
0.265278 0.710155 0.610651
0.485328 0.737881 0.610681
0.657557 0.758221 0.617441
0.78378 0.776028 0.624125
0.877058 0.785092 0.626383
0.93843 0.793973 0.61883
0.0549783 0.686519 0.632837
0.0424048 0.710918 0.633036
0.0412451 0.750851 0.63917
0.174899 0.764401 0.618021
0.362051 0.78674 0.611765
0.589944 0.813519 0.61529
0.749538 0.841657 0.632639
0.893339 0.864073 0.646586
0.969802 0.879973 0.644022
0.0653697 0.738888 0.633875
0.051545 0.758862 0.628717
0.0523995 0.790524 0.634119
0.215534 0.789105 0.612573
0.324346 0.799558 0.613245
0.390829 0.809842 0.620096
0.443015 0.829084 0.640833
0.695338 0.877073 0.681086
0.975097 0.96405 0.756344
0.150225 0.155917 0.519341
0.195514 0.162188 0.534203
0.316625 0.1626 0.5514
0.429664 0.16556 0.564782
0.534173 0.165881 0.573068
0.620325 0.168368 0.581613
0.695354 0.179553 0.590677
0.762737 0.201877 0.602899
0.828992 0.231083 0.625025
0.158419 0.192798 0.564706
0.164126 0.222675 0.564126
0.314687 0.229801 0.578973
0.439094 0.230228 0.591333
0.552178 0.218891 0.602319
0.646906 0.200946 0.615915
0.725307 0.199771 0.625376
0.78999 0.215457 0.634546
0.84715 0.245426 0.648814
0.102892 0.303471 0.591577
0.134249 0.329122 0.606043
0.283406 0.343816 0.613504
0.44097 0.346685 0.62092
0.559075 0.349767 0.622889
0.652918 0.346838 0.630488
0.733288 0.343618 0.637217
0.799023 0.352972 0.641611
0.854643 0.388464 0.649989
0.043183 0.406622 0.624964
0.0718853 0.430869 0.639933
0.198459 0.456199 0.649226
0.421271 0.45716 0.649149
0.566293 0.464332 0.647501
0.665156 0.470542 0.652918
0.753414 0.465736 0.660899
0.823468 0.471061 0.660838
0.877317 0.494911 0.661585
0.0254215 0.495415 0.649119
0.0337835 0.52285 0.663615
0.130144 0.558862 0.677119
0.378653 0.56347 0.666362
0.55584 0.572869 0.667704
0.672358 0.584787 0.670314
0.770382 0.586587 0.678843
0.839384 0.593957 0.676387
0.899229 0.603464 0.672343
0.026688 0.572946 0.670649
0.0222324 0.601221 0.680659
0.0519417 0.640955 0.692622
0.325124 0.653056 0.680995
0.531823 0.669001 0.681102
0.667735 0.683528 0.68426
0.772824 0.693797 0.690272
0.855695 0.702312 0.690028
0.92256 0.701488 0.686732
0.0387427 0.642039 0.691112
0.0299992 0.669612 0.69752
0.0295415 0.711147 0.707301
0.229953 0.726345 0.68986
0.494179 0.747997 0.689235
0.654795 0.770535 0.697581
0.781064 0.784558 0.703059
0.877531 0.794263 0.706783
0.941238 0.794461 0.700877
0.0555581 0.698116 0.702998
0.04271 0.722469 0.704677
0.0414893 0.762631 0.713039
0.154086 0.776547 0.694926
0.330266 0.799878 0.695293
0.588907 0.825223 0.693462
0.748074 0.854353 0.713436
0.889418 0.877882 0.728115
0.970001 0.886503 0.72282
0.0675669 0.739681 0.685786
0.0525216 0.759625 0.681773
0.0534066 0.791592 0.688029
0.20679 0.791638 0.668101
0.320424 0.802655 0.669535
0.389029 0.814939 0.678569
0.442008 0.835615 0.698177
0.67837 0.885161 0.735088
0.979965 0.971862 0.80354
0.172656 0.221439 0.589578
0.209277 0.229572 0.605982
0.33109 0.226673 0.619486
0.445579 0.227802 0.634928
0.551598 0.226688 0.645716
0.63827 0.230289 0.658228
0.713024 0.234287 0.671305
0.776013 0.243839 0.683833
0.836942 0.264439 0.700267
0.181125 0.248249 0.631678
0.181369 0.272602 0.62884
0.324437 0.286503 0.642664
0.4495 0.286946 0.658824
0.566369 0.276143 0.672908
0.659434 0.260197 0.689143
0.738155 0.252918 0.704479
0.79855 0.256443 0.714137
0.851804 0.277775 0.724376
0.145724 0.343938 0.654688
0.160632 0.371344 0.667994
0.285924 0.392264 0.674464
0.44622 0.393332 0.688151
0.574151 0.392081 0.692699
0.663859 0.392538 0.700298
0.73904 0.389807 0.710979
0.800778 0.389319 0.720516
0.854627 0.417182 0.725002
0.11194 0.443122 0.687419
0.136187 0.466911 0.701656
0.216495 0.496071 0.711788
0.428 0.495003 0.713558
0.576379 0.495781 0.717632
0.675792 0.50071 0.719554
0.752682 0.501884 0.729122
0.818998 0.498939 0.740353
0.87454 0.516091 0.737591
0.0973526 0.528161 0.713878
0.117144 0.554925 0.727504
0.178195 0.589837 0.740795
0.394369 0.592981 0.732708
0.561395 0.598947 0.735973
0.680049 0.605936 0.737835
0.763638 0.613291 0.744808
0.83772 0.610254 0.757595
0.895354 0.618647 0.748196
0.0573587 0.600427 0.737972
0.0667582 0.627894 0.748394
0.145693 0.665827 0.759777
0.358083 0.674983 0.747417
0.543206 0.687129 0.749737
0.674006 0.699199 0.755047
0.775509 0.70959 0.762631
0.861006 0.71136 0.775555
0.917067 0.715755 0.76257
0.0412146 0.664179 0.759441
0.0336919 0.691005 0.766613
0.0546883 0.731212 0.776059
0.285023 0.743221 0.756542
0.515435 0.76141 0.760678
0.662898 0.778973 0.76788
0.777829 0.795117 0.778058
0.877043 0.804929 0.790097
0.94284 0.805112 0.781628
0.0579843 0.712947 0.772122
0.0444495 0.737026 0.77406
0.0428931 0.777111 0.784314
0.133989 0.791547 0.768032
0.332799 0.813687 0.770138
0.570809 0.839704 0.775372
0.745083 0.866209 0.792248
0.885481 0.886336 0.805463
0.970397 0.889372 0.804135
0.069276 0.742565 0.741131
0.0547189 0.761608 0.737392
0.0555276 0.793927 0.744991
0.200137 0.795621 0.727016
0.317906 0.808682 0.7308
0.389105 0.825254 0.743435
0.442634 0.849531 0.765332
0.665064 0.900649 0.801541
0.983993 0.979248 0.848798
0.213947 0.348058 0.686046
0.212985 0.377447 0.687068
0.327291 0.380636 0.69221
0.430137 0.38471 0.707561
0.539773 0.374594 0.726772
0.648951 0.360983 0.753582
0.736187 0.363867 0.764202
0.802487 0.371084 0.777722
0.861311 0.374228 0.801022
0.203265 0.393957 0.699962
0.205051 0.430686 0.714336
0.311894 0.449973 0.717769
0.431144 0.455924 0.728313
0.541772 0.459434 0.740017
0.64007 0.460273 0.752285
0.728405 0.457633 0.76202
0.793484 0.459709 0.773358
0.843381 0.472435 0.785489
0.197559 0.473182 0.730709
0.202335 0.499611 0.746059
0.268513 0.52433 0.75024
0.428275 0.526467 0.751308
0.546593 0.531731 0.76025
0.646906 0.534844 0.771237
0.738872 0.533944 0.779553
0.80705 0.536583 0.788602
0.855726 0.543389 0.797574
0.199786 0.547265 0.760281
0.205005 0.572885 0.774289
0.239307 0.601907 0.78262
0.421546 0.602075 0.773861
0.549813 0.608286 0.779187
0.652018 0.613535 0.789456
0.746731 0.614054 0.797848
0.822278 0.615442 0.805539
0.871489 0.617655 0.811337
0.214771 0.618235 0.786816
0.216175 0.645243 0.800046
0.235676 0.678294 0.810254
0.411749 0.679408 0.795346
0.554559 0.685573 0.796582
0.657984 0.693309 0.805188
0.750805 0.697017 0.81442
0.83682 0.697154 0.822065
0.889342 0.694469 0.825559
0.235859 0.683131 0.815259
0.234257 0.709575 0.824567
0.249683 0.744183 0.834257
0.408194 0.749249 0.817945
0.564782 0.755688 0.815274
0.670588 0.765713 0.8215
0.761227 0.773037 0.830961
0.852522 0.774502 0.840116
0.912428 0.766461 0.842863
0.262364 0.742306 0.844678
0.25658 0.767468 0.849989
0.26952 0.803357 0.858732
0.393454 0.807996 0.837644
0.577707 0.819242 0.835752
0.687404 0.830427 0.839475
0.779858 0.841199 0.848569
0.870542 0.846815 0.859876
0.941039 0.834821 0.863523
0.261982 0.794232 0.872374
0.252216 0.816281 0.873381
0.265126 0.852445 0.882139
0.369223 0.863722 0.866331
0.571664 0.8719 0.860273
0.69131 0.884031 0.862867
0.800595 0.897444 0.87039
0.896513 0.909468 0.884153
0.974197 0.900252 0.889738
0.0725719 0.81796 0.881819
0.0572061 0.835737 0.876982
0.0581674 0.86833 0.884718
0.193378 0.871717 0.866575
0.314565 0.887785 0.869215
0.387839 0.910277 0.880964
0.484764 0.939452 0.898772
0.78732 0.971649 0.917983
0.983551 0.980514 0.918502
