public/luts/kodak-fpe-07.cube
TITLE "Generated by Resolve"
LUT_3D_SIZE 5
0.0150912 0.02121 0.0241703
0.181827 0.0677043 0.036286
0.410178 0.119692 0.041474
0.578759 0.170703 0.0581521
0.702556 0.212558 0.09337
0.0329747 0.181811 0.100435
0.254276 0.223133 0.0947433
0.525658 0.272831 0.0709392
0.69604 0.320531 0.0864576
0.804608 0.357504 0.113497
0.0558328 0.433143 0.156115
0.252628 0.471901 0.138964
0.577768 0.513527 0.0839399
0.779416 0.554086 0.0856031
0.913634 0.576928 0.08925
0.137896 0.627832 0.21915
0.247883 0.657496 0.222538
0.551751 0.700694 0.225742
0.807324 0.743526 0.166705
0.970245 0.761822 0.150286
0.190005 0.731746 0.370611
0.246021 0.761547 0.399802
0.315251 0.79057 0.440879
0.390921 0.82266 0.504036
0.964202 0.940597 0.515816
0.0351415 0.0372625 0.186252
0.225498 0.0690929 0.217044
0.482933 0.10248 0.222477
0.635859 0.149554 0.239475
0.758099 0.197086 0.206043
0.0184787 0.218601 0.261448
0.221439 0.255375 0.286168
0.543343 0.279988 0.275807
0.725399 0.314107 0.292134
0.858244 0.342412 0.25417
0.0415961 0.465232 0.308034
0.186664 0.502571 0.321798
0.564553 0.532311 0.316304
0.78143 0.559762 0.311696
0.927047 0.582528 0.279683
0.131441 0.644282 0.350637
0.233371 0.670298 0.359792
0.534691 0.71429 0.380865
0.790402 0.750317 0.36231
0.965118 0.770367 0.302464
0.194842 0.744686 0.412558
0.252857 0.773785 0.440055
0.322896 0.803204 0.47808
0.398886 0.835966 0.538216
0.96556 0.952392 0.566903
0.0914321 0.0744488 0.392157
0.260304 0.0991379 0.424613
0.492866 0.115938 0.440772
0.659281 0.168231 0.452598
0.79588 0.215412 0.453162
0.0187686 0.267002 0.471717
0.241962 0.305592 0.503944
0.522789 0.320058 0.502266
0.735286 0.340337 0.510872
0.857725 0.367864 0.504814
0.0347448 0.498665 0.527687
0.124254 0.544732 0.555428
0.53875 0.558862 0.547997
0.771267 0.578851 0.543069
0.925231 0.574838 0.537682
0.0878309 0.686976 0.541985
0.183459 0.71162 0.547921
0.510307 0.741527 0.560967
0.777173 0.773037 0.564233
0.959609 0.780987 0.532555
0.195911 0.753262 0.493492
0.252628 0.783032 0.521645
0.327504 0.812253 0.552651
0.402045 0.848371 0.60293
0.970916 0.965072 0.647364
0.139666 0.159045 0.562615
0.273182 0.184298 0.586435
0.5028 0.193179 0.603555
0.660273 0.214267 0.623896
0.808469 0.262257 0.633997
0.103182 0.324758 0.634897
0.271931 0.368856 0.670069
0.533837 0.376226 0.663066
0.707851 0.389578 0.683848
0.871824 0.403372 0.688228
0.0369726 0.539132 0.694148
0.243214 0.569726 0.713375
0.549981 0.587457 0.723857
0.749599 0.607187 0.73434
0.930175 0.593301 0.7178
0.0907759 0.710094 0.710933
0.166522 0.7402 0.730846
0.479896 0.774899 0.744427
0.757061 0.793591 0.745373
0.964218 0.777966 0.712947
0.158251 0.771756 0.623636
0.216083 0.801465 0.651331
0.307271 0.825544 0.678126
0.39469 0.861708 0.715007
0.979965 0.979828 0.761288
0.189822 0.375906 0.697169
0.277226 0.396139 0.713756
0.457633 0.419074 0.747372
0.644648 0.426566 0.778393
0.804746 0.421103 0.813077
0.194324 0.487129 0.766613
0.323217 0.514977 0.788602
0.508873 0.541131 0.822705
0.700526 0.554849 0.848356
0.858717 0.535302 0.86894
0.274037 0.63299 0.837324
0.387747 0.659358 0.860334
0.556786 0.686625 0.888609
0.733166 0.702129 0.907805
0.904936 0.676799 0.91339
0.357015 0.775174 0.882765
0.445335 0.799405 0.905516
0.597421 0.82182 0.922667
0.755932 0.841352 0.935119
0.946532 0.817456 0.941451
0.192401 0.826276 0.854047
0.238972 0.862821 0.888884
0.298543 0.907897 0.921798
0.414099 0.963546 0.951141
0.980453 0.98793 0.960708
