public/luts/kodak-fpe-06.cube
TITLE "Generated by Resolve"
LUT_3D_SIZE 5
0.0217594 0.0302586 0.0362097
0.200855 0.0669108 0.0336919
0.460563 0.0883803 0.0198672
0.654047 0.121981 0.0396582
0.776135 0.166064 0.0866255
0.0232395 0.178546 0.0966964
0.250935 0.219379 0.062562
0.54548 0.261234 0.024918
0.724346 0.291539 0.0175631
0.834989 0.329534 0.0467689
0.040177 0.390707 0.123461
0.238437 0.439353 0.0696269
0.586572 0.496056 0.042649
0.796429 0.533211 0.033341
0.919081 0.568505 0.0349126
0.066041 0.568307 0.156176
0.161334 0.617655 0.115984
0.576944 0.677241 0.0866255
0.832593 0.728511 0.0959029
0.962966 0.7635 0.10515
0.092668 0.721416 0.305608
0.200549 0.748714 0.212955
0.380316 0.779248 0.202243
0.490639 0.813306 0.242496
0.964202 0.93904 0.383932
0.0321508 0.0441444 0.171939
0.226627 0.0747082 0.205081
0.504921 0.0806744 0.224948
0.668696 0.117983 0.241001
0.783841 0.158572 0.259052
0.0142061 0.212863 0.258015
0.229999 0.244724 0.261021
0.550835 0.26923 0.249683
0.724865 0.287373 0.250523
0.832898 0.323461 0.256977
0.0240024 0.421607 0.301656
0.124575 0.476036 0.293294
0.569818 0.514412 0.269444
0.78291 0.54023 0.256641
0.901045 0.578897 0.253254
0.0472572 0.583917 0.344717
0.0670329 0.643442 0.324254
0.544625 0.688441 0.272801
0.810559 0.735073 0.257984
0.961822 0.773281 0.250401
0.0699779 0.730037 0.459907
0.0843977 0.773083 0.441596
0.346334 0.785763 0.417563
0.461158 0.814481 0.450217
0.96556 0.940948 0.581964
0.0901045 0.072755 0.368338
0.27631 0.0896773 0.406638
0.503807 0.0991836 0.418326
0.684581 0.137087 0.437659
0.807645 0.187533 0.46482
0.0166781 0.255222 0.451087
0.254002 0.28838 0.471015
0.544457 0.300084 0.476783
0.738048 0.310292 0.475029
0.842542 0.35079 0.48481
0.0181277 0.45623 0.509041
0.047715 0.518471 0.521752
0.548241 0.542779 0.50634
0.774716 0.563592 0.50544
0.889021 0.583749 0.505928
0.0389868 0.612711 0.54139
0.0347143 0.68072 0.546029
0.504143 0.720897 0.520363
0.793362 0.761166 0.531258
0.940703 0.790417 0.526909
0.0650492 0.737346 0.579934
0.0523079 0.788769 0.577829
0.329549 0.796292 0.554696
0.445914 0.824186 0.584054
0.970916 0.956374 0.709545
0.150225 0.155917 0.519341
0.316625 0.1626 0.5514
0.534173 0.165881 0.573068
0.695354 0.179553 0.590677
0.828992 0.231083 0.625025
0.102892 0.303471 0.591577
0.283406 0.343816 0.613504
0.559075 0.349767 0.622889
0.733288 0.343618 0.637217
0.854643 0.388464 0.649989
0.0254215 0.495415 0.649119
0.130144 0.558862 0.677119
0.55584 0.572869 0.667704
0.770382 0.586587 0.678843
0.899229 0.603464 0.672343
0.0387427 0.642039 0.691112
0.0295415 0.711147 0.707301
0.494179 0.747997 0.689235
0.781064 0.784558 0.703059
0.941238 0.794461 0.700877
0.0675669 0.739681 0.685786
0.0534066 0.791592 0.688029
0.320424 0.802655 0.669535
0.442008 0.835615 0.698177
0.979965 0.971862 0.80354
0.213947 0.348058 0.686046
0.327291 0.380636 0.69221
0.539773 0.374594 0.726772
0.736187 0.363867 0.764202
0.861311 0.374228 0.801022
0.197559 0.473182 0.730709
0.268513 0.52433 0.75024
0.546593 0.531731 0.76025
0.738872 0.533944 0.779553
0.855726 0.543389 0.797574
0.214771 0.618235 0.786816
0.235676 0.678294 0.810254
0.554559 0.685573 0.796582
0.750805 0.697017 0.81442
0.889342 0.694469 0.825559
0.262364 0.742306 0.844678
0.26952 0.803357 0.858732
0.577707 0.819242 0.835752
0.779858 0.841199 0.848569
0.941039 0.834821 0.863523
0.0725719 0.81796 0.881819
0.0581674 0.86833 0.884718
0.314565 0.887785 0.869215
0.484764 0.939452 0.898772
0.983551 0.980514 0.918502
