public/luts/kodak-fpe-06.cube
TITLE "Generated by Resolve"
LUT_3D_SIZE 33
0.0217594 0.0302586 0.0362097
0.0275883 0.0329747 0.0381323
0.0378271 0.0362097 0.039704
0.0590372 0.0401923 0.0406043
0.0854505 0.0460059 0.0407416
0.109438 0.0529183 0.0416266
0.136629 0.0584268 0.0411383
0.167987 0.0630655 0.038117
0.200855 0.0669108 0.0336919
0.23473 0.0707866 0.0286107
0.268742 0.0744335 0.0235904
0.303105 0.077348 0.0175021
0.336538 0.0801404 0.0163119
0.369131 0.0826429 0.0171511
0.400931 0.0850385 0.0170291
0.431098 0.0869917 0.0176394
0.460563 0.0883803 0.0198672
0.490257 0.0891737 0.0243687
0.519799 0.0899977 0.0296025
0.54493 0.0942092 0.0315709
0.569314 0.0992142 0.0334783
0.592416 0.10454 0.0346075
0.614145 0.110002 0.035996
0.635065 0.115923 0.0375219
0.654047 0.121981 0.0396582
0.672084 0.128069 0.0417029
0.689281 0.134569 0.04448
0.705638 0.140597 0.0480354
0.721279 0.146654 0.0520333
0.736324 0.152468 0.0580758
0.750286 0.157687 0.0654459
0.763653 0.162066 0.0753643
0.776135 0.166064 0.0866255
0.024567 0.0384222 0.0417334
0.0317845 0.0413672 0.043534
0.0438239 0.0448157 0.0448463
0.064332 0.0485542 0.0454108
0.089128 0.0540627 0.0455787
0.112718 0.0608072 0.0462959
0.140887 0.0666514 0.0454566
0.173449 0.0714122 0.0423896
0.207248 0.0755474 0.0372778
0.242237 0.0797436 0.0311894
0.277302 0.0837873 0.0252537
0.312139 0.0868696 0.0186313
0.346181 0.0900435 0.0164645
0.379431 0.0927901 0.0173495
0.411658 0.095613 0.0170748
0.441978 0.0985428 0.0177157
0.47071 0.10164 0.018555
0.497337 0.104356 0.0196689
0.523156 0.107393 0.0209049
0.54902 0.10724 0.0239414
0.575402 0.106386 0.0280613
0.601923 0.10457 0.0327764
0.623835 0.108904 0.034287
0.644343 0.114336 0.0353704
0.662699 0.119783 0.0369421
0.679988 0.125292 0.0383154
0.69633 0.131121 0.040528
0.712276 0.136965 0.0439918
0.727733 0.143099 0.0479896
0.742596 0.148943 0.0540627
0.756344 0.154208 0.0615549
0.769482 0.158618 0.0715648
0.781735 0.162722 0.082887
0.0245518 0.0490425 0.047715
0.032517 0.0518349 0.0494545
0.0460822 0.0556344 0.0510262
0.068513 0.0601053 0.0516518
0.0916304 0.0659037 0.0517739
0.114427 0.0720531 0.0518654
0.143755 0.0778973 0.050248
0.177005 0.0826429 0.0465553
0.211749 0.0871443 0.0413519
0.247517 0.0915694 0.0345617
0.283375 0.0957046 0.0278935
0.319005 0.0990921 0.0209659
0.353567 0.102129 0.0178378
0.38761 0.105592 0.0183871
0.420127 0.108598 0.0175631
0.450904 0.112245 0.0179751
0.479759 0.115541 0.0190738
0.506615 0.119066 0.019852
0.53225 0.122148 0.0205539
0.557229 0.125078 0.0224918
0.581704 0.127779 0.0243381
0.606043 0.127367 0.0271
0.629343 0.128313 0.0302739
0.652354 0.128344 0.0341955
0.671275 0.132555 0.0363012
0.689952 0.135607 0.0393683
0.70721 0.139193 0.0428779
0.722637 0.144396 0.0460822
0.737285 0.149615 0.0492866
0.751125 0.154604 0.0542611
0.763867 0.158999 0.0610056
0.775357 0.163195 0.0695201
0.784268 0.170871 0.077348
0.0196231 0.0658427 0.0551614
0.0311437 0.0675212 0.0556802
0.0451057 0.0708782 0.0573587
0.0699931 0.0756085 0.0581979
0.094667 0.0822156 0.0591745
0.118837 0.0885634 0.0584726
0.149172 0.0941329 0.0557717
0.18439 0.0987564 0.0502174
0.219883 0.103243 0.0447089
0.255238 0.107958 0.0370336
0.290745 0.112642 0.028809
0.326009 0.116457 0.0227512
0.360678 0.119677 0.0203403
0.394903 0.123156 0.0200351
0.42771 0.126513 0.0188754
0.458534 0.130022 0.0189517
0.487678 0.133837 0.0193484
0.51458 0.137514 0.0197299
0.540291 0.141421 0.0199283
0.56495 0.144991 0.0209201
0.588937 0.148363 0.0221256
0.612299 0.151873 0.0233921
0.634195 0.1552 0.025391
0.65507 0.15848 0.0273289
0.674037 0.161517 0.0292821
0.692638 0.163622 0.0329442
0.710567 0.164965 0.0372778
0.726528 0.168536 0.0413214
0.741695 0.172992 0.0449683
0.755199 0.177905 0.0492409
0.767697 0.182864 0.055787
0.777859 0.188876 0.0633402
0.785168 0.201404 0.0690166
0.0183719 0.08542 0.0651408
0.0273899 0.0853742 0.0634928
0.0456092 0.0885176 0.0650034
0.0718395 0.0923323 0.0654307
0.0982376 0.0994583 0.0666056
0.123781 0.106386 0.0664378
0.155047 0.111849 0.0628824
0.19147 0.116411 0.0573739
0.229908 0.121263 0.0502022
0.26743 0.126665 0.0413519
0.30338 0.132143 0.0304723
0.337301 0.135927 0.0260014
0.370871 0.139376 0.023621
0.40444 0.142947 0.0221103
0.436927 0.14638 0.0208133
0.467887 0.149966 0.020325
0.497169 0.153903 0.0198367
0.524041 0.157733 0.0194553
0.549599 0.161547 0.0195163
0.574166 0.165362 0.0198825
0.598108 0.169162 0.0205539
0.621286 0.172671 0.0221561
0.643061 0.17673 0.0237583
0.663828 0.180697 0.0250706
0.68249 0.185092 0.0269932
0.699794 0.189609 0.0289464
0.715984 0.194034 0.0313268
0.731426 0.198306 0.0344091
0.745937 0.202945 0.037583
0.759319 0.20795 0.0412451
0.771542 0.213489 0.0474098
0.782742 0.219028 0.0562905
0.792645 0.226658 0.0649729
0.0213779 0.104997 0.0745708
0.0222782 0.106523 0.0743114
0.0413062 0.107408 0.0732128
0.0722972 0.110689 0.0734875
0.101015 0.116976 0.074052
0.127779 0.124651 0.0745403
0.160357 0.130617 0.0717327
0.198047 0.135576 0.0657206
0.237369 0.14078 0.0578622
0.27718 0.146258 0.0476234
0.316213 0.152422 0.0336309
0.351186 0.156725 0.0295415
0.385 0.160616 0.0267796
0.417716 0.164431 0.0249638
0.449378 0.16791 0.0233768
0.480003 0.171633 0.0213321
0.508812 0.175463 0.0202335
0.53518 0.179294 0.0201419
0.560723 0.183093 0.0196994
0.585138 0.186999 0.0198825
0.60882 0.190661 0.020325
0.631861 0.1944 0.0212863
0.653681 0.198383 0.0224765
0.674342 0.202625 0.0236973
0.692851 0.207034 0.0251011
0.71014 0.211429 0.0267491
0.726375 0.216037 0.0291142
0.741634 0.220569 0.0312047
0.756146 0.225284 0.0340429
0.769497 0.230182 0.0381781
0.781582 0.235309 0.0437324
0.793011 0.240757 0.0523384
0.802762 0.248508 0.0614633
0.022385 0.12723 0.0829938
0.0223239 0.128542 0.0820783
0.0349279 0.131456 0.082536
0.0673533 0.133135 0.0808576
0.0991989 0.138293 0.0805066
0.128923 0.145968 0.0805219
0.163546 0.152926 0.0784924
0.20264 0.158694 0.072694
0.243076 0.164431 0.0626383
0.283879 0.170138 0.0500649
0.32311 0.17586 0.0371252
0.361151 0.181094 0.0320439
0.39794 0.185977 0.0292668
0.431067 0.190021 0.0266575
0.46363 0.193988 0.0241245
0.493523 0.197696 0.0226902
0.521675 0.201526 0.0217136
0.547646 0.205295 0.0208743
0.572824 0.209293 0.0200046
0.596658 0.213169 0.018967
0.620035 0.216922 0.0186465
0.642817 0.220462 0.0190585
0.664134 0.224262 0.0199893
0.684489 0.228336 0.0209354
0.702998 0.232883 0.0217136
0.720241 0.237278 0.0233921
0.73637 0.241733 0.0255741
0.751659 0.246098 0.0280919
0.766186 0.250904 0.0305943
0.77966 0.255848 0.0344244
0.791882 0.260792 0.039292
0.803372 0.266255 0.0475624
0.813199 0.273152 0.05832
0.0236362 0.152239 0.0901045
0.022858 0.153506 0.0885939
0.0303349 0.157763 0.0896468
0.0559091 0.159976 0.0876173
0.0932326 0.164065 0.0859846
0.126482 0.171328 0.0849775
0.164401 0.178653 0.0818036
0.206226 0.18529 0.073991
0.247395 0.191623 0.0616159
0.288685 0.197528 0.0496834
0.328496 0.203006 0.0403754
0.367468 0.208331 0.0344854
0.404685 0.213535 0.0311284
0.440238 0.218509 0.0280156
0.475013 0.223224 0.025452
0.505714 0.227253 0.0236362
0.534752 0.231296 0.0225376
0.560693 0.235111 0.0220188
0.585351 0.239109 0.0206912
0.608865 0.242939 0.019379
0.631861 0.246464 0.0192721
0.65388 0.249989 0.018677
0.674754 0.253635 0.0180667
0.695018 0.257511 0.0179904
0.713146 0.26186 0.0187839
0.730236 0.266117 0.0200504
0.746441 0.270481 0.021973
0.76173 0.274907 0.0235142
0.776257 0.279438 0.0260929
0.789731 0.284153 0.0292058
0.802029 0.289021 0.0337682
0.813626 0.294133 0.0415503
0.823819 0.300954 0.0529183
0.0232395 0.178546 0.0966964
0.0217288 0.179751 0.0945296
0.0256657 0.184924 0.0957351
0.0439155 0.188418 0.0940719
0.0825513 0.191669 0.0910201
0.122072 0.198367 0.0890059
0.162692 0.2056 0.0835431
0.207477 0.212497 0.0728313
0.250935 0.219379 0.062562
0.292729 0.226047 0.0494087
0.33283 0.231968 0.041825
0.372656 0.237552 0.035874
0.410834 0.242893 0.0314183
0.447044 0.247898 0.0283513
0.482155 0.25272 0.0264591
0.515129 0.257221 0.0256504
0.54548 0.261234 0.024918
0.572091 0.265202 0.0236057
0.597635 0.269078 0.0223697
0.621073 0.272786 0.0214084
0.643961 0.276432 0.0205844
0.666041 0.280003 0.0200504
0.686595 0.283619 0.0191653
0.706279 0.287419 0.0182803
0.724346 0.291539 0.0175631
0.741329 0.295811 0.016846
0.757198 0.300114 0.017792
0.772457 0.304112 0.0201572
0.786984 0.308522 0.0220951
0.800595 0.313024 0.024567
0.81297 0.317876 0.0280308
0.824689 0.322911 0.0359197
0.834989 0.329534 0.0467689
0.02327 0.205249 0.102876
0.0210117 0.206332 0.099855
0.0237278 0.211917 0.100618
0.0334478 0.216938 0.0996567
0.070161 0.219974 0.095201
0.112566 0.226123 0.0916915
0.159655 0.233371 0.0833143
0.20705 0.240284 0.0708782
0.253147 0.247227 0.0607156
0.296361 0.254383 0.0512245
0.336889 0.26099 0.0440681
0.37702 0.266758 0.0373846
0.415717 0.272236 0.0330816
0.453162 0.277363 0.0303807
0.488563 0.282155 0.028397
0.521935 0.286641 0.0267796
0.552926 0.290913 0.0255131
0.581598 0.295171 0.0247501
0.608026 0.29926 0.0237125
0.632212 0.302937 0.0223545
0.655695 0.306508 0.0223239
0.677729 0.309957 0.0214389
0.698695 0.313619 0.0209354
0.718441 0.31725 0.019791
0.736095 0.321202 0.0186618
0.752804 0.325231 0.0181277
0.768719 0.329274 0.0179599
0.783825 0.333532 0.0180514
0.798413 0.337606 0.0191806
0.812009 0.342168 0.0208896
0.824475 0.346792 0.0247349
0.836332 0.351675 0.0297246
0.846403 0.358053 0.0408179
0.0249638 0.232074 0.108629
0.0224155 0.233204 0.104753
0.02533 0.238849 0.104707
0.0321355 0.244587 0.103609
0.0557565 0.24799 0.0984054
0.101335 0.254108 0.0928969
0.154925 0.261372 0.0804913
0.20557 0.268223 0.06804
0.254337 0.274968 0.0590677
0.298894 0.282155 0.0524453
0.340948 0.289616 0.0460212
0.381201 0.295918 0.0386206
0.420356 0.301656 0.0331884
0.45803 0.306889 0.030808
0.494331 0.311772 0.0284123
0.528328 0.316396 0.0276799
0.559792 0.320729 0.0265202
0.588907 0.32491 0.0255589
0.616464 0.329091 0.0242161
0.642161 0.332906 0.0244144
0.665766 0.336339 0.0237583
0.688655 0.339666 0.0239567
0.709758 0.343191 0.02327
0.729885 0.346792 0.022385
0.747982 0.350729 0.0214084
0.764553 0.354528 0.0196841
0.780209 0.358465 0.0188754
0.795377 0.362402 0.0183108
0.809949 0.366781 0.0175479
0.823758 0.371221 0.0188602
0.836316 0.376043 0.0200198
0.848432 0.381094 0.0256352
0.857954 0.38677 0.035462
0.0273747 0.259312 0.112535
0.0246281 0.260761 0.108202
0.0266117 0.266194 0.107256
0.0305638 0.27306 0.105592
0.044831 0.278752 0.0998245
0.089601 0.283146 0.088838
0.147982 0.289616 0.0777752
0.202869 0.296574 0.0700542
0.253208 0.303349 0.0603952
0.300679 0.310506 0.0532998
0.343282 0.317968 0.0464027
0.384878 0.325093 0.0403143
0.424002 0.331075 0.0359808
0.46186 0.336339 0.0326696
0.498558 0.341344 0.0304723
0.533349 0.34609 0.0284733
0.566079 0.350713 0.0272526
0.595407 0.354971 0.026276
0.623285 0.359106 0.0251469
0.649317 0.362966 0.0241703
0.674266 0.366567 0.0242161
0.697673 0.370016 0.0238499
0.719432 0.37351 0.0242466
0.739986 0.37705 0.0241703
0.758206 0.380926 0.0233463
0.775341 0.384878 0.0235142
0.790997 0.388663 0.0220798
0.806149 0.392554 0.0211795
0.820859 0.396811 0.0199893
0.834821 0.401709 0.0184482
0.847715 0.406561 0.0193942
0.86009 0.411704 0.0224308
0.869062 0.416526 0.0310216
0.0293736 0.286427 0.115938
0.0263828 0.288197 0.110918
0.0275578 0.293675 0.108202
0.0309453 0.300862 0.104265
0.0379492 0.309453 0.0988022
0.0753948 0.314 0.0865034
0.139818 0.317906 0.0759899
0.198795 0.324529 0.0699626
0.251423 0.331594 0.0621805
0.30071 0.338628 0.0537118
0.34522 0.346075 0.0472725
0.386603 0.353277 0.0413367
0.426993 0.359869 0.0383001
0.465324 0.365393 0.0347753
0.502586 0.370535 0.0317082
0.537911 0.375494 0.030396
0.571023 0.38027 0.0289006
0.601724 0.385092 0.0272526
0.629755 0.389364 0.0259556
0.65594 0.393332 0.026154
0.681147 0.397101 0.0263371
0.705409 0.400778 0.0261387
0.727916 0.404501 0.0253758
0.748806 0.407919 0.0254368
0.767468 0.411536 0.0262608
0.784772 0.415427 0.025742
0.801175 0.419425 0.0259403
0.81651 0.423255 0.0245365
0.831281 0.427512 0.0229496
0.845487 0.432364 0.0210575
0.858686 0.437629 0.0193027
0.87129 0.442893 0.0205234
0.879881 0.446891 0.0298161
0.0311437 0.31342 0.118944
0.027924 0.315511 0.112963
0.028397 0.320897 0.108858
0.0325933 0.328527 0.101701
0.0408331 0.337606 0.0915999
0.0547036 0.346609 0.0877394
0.131411 0.346303 0.0776684
0.193622 0.35227 0.0719615
0.248371 0.359487 0.0645609
0.299001 0.366644 0.0559701
0.344854 0.374044 0.046952
0.387945 0.38146 0.0426032
0.428336 0.388281 0.0406348
0.468162 0.394522 0.0381018
0.506142 0.399908 0.0351415
0.541985 0.405035 0.0329137
0.575555 0.410056 0.031342
0.606394 0.41503 0.0297551
0.635737 0.419837 0.0283665
0.662211 0.423911 0.0270085
0.687633 0.427756 0.026566
0.712108 0.431556 0.026276
0.735058 0.435401 0.0257267
0.75671 0.4392 0.0256504
0.77554 0.442741 0.0263523
0.793408 0.446448 0.0274815
0.810056 0.450309 0.0269474
0.826047 0.454505 0.0274357
0.841108 0.458701 0.0256657
0.855573 0.463737 0.0240024
0.869047 0.469123 0.0220951
0.882033 0.474632 0.0228122
0.890211 0.477989 0.0285039
0.0344854 0.339788 0.120638
0.0313573 0.342275 0.113268
0.0320745 0.347982 0.104463
0.0351415 0.35581 0.0962692
0.0399939 0.36463 0.0907607
0.0530709 0.374334 0.0890211
0.120363 0.373938 0.0783551
0.189944 0.380011 0.0732586
0.245502 0.38706 0.0666056
0.29662 0.39443 0.0583047
0.343679 0.401816 0.0499733
0.387869 0.409308 0.0449836
0.429419 0.416464 0.0425422
0.4692 0.422934 0.0411231
0.508904 0.429007 0.0388647
0.545556 0.434379 0.0363165
0.579644 0.439643 0.033814
0.610941 0.444831 0.030518
0.640345 0.449729 0.0300298
0.667994 0.454246 0.0296178
0.693828 0.458259 0.0289616
0.718425 0.462181 0.0283665
0.741482 0.466072 0.0275731
0.763455 0.469932 0.0269169
0.783215 0.473915 0.0275731
0.801343 0.477501 0.0282444
0.818555 0.481239 0.0291447
0.834791 0.485313 0.0293584
0.850492 0.489967 0.0293889
0.865217 0.494972 0.0278325
0.878965 0.500465 0.0257877
0.892348 0.506371 0.0242618
0.900114 0.50901 0.0281376
0.0367895 0.365621 0.122118
0.0336156 0.368582 0.112551
0.0333257 0.374166 0.102251
0.0357977 0.382345 0.0928359
0.0424811 0.391012 0.0914015
0.0533913 0.40116 0.0915541
0.108782 0.402289 0.0818341
0.183841 0.406546 0.0743725
0.241794 0.413764 0.0681163
0.292882 0.421088 0.0607614
0.341375 0.42884 0.0513313
0.386252 0.436255 0.0471199
0.429099 0.443519 0.0445258
0.470207 0.45034 0.0422827
0.509941 0.456672 0.0419013
0.548348 0.462699 0.0404517
0.583444 0.46833 0.0380865
0.615167 0.473747 0.035523
0.644892 0.478904 0.0337987
0.672633 0.483543 0.0324559
0.69955 0.487999 0.0313115
0.724666 0.492119 0.0304723
0.74786 0.496117 0.0299687
0.76997 0.500084 0.0298161
0.789837 0.504082 0.0296178
0.808789 0.508156 0.0297093
0.826352 0.511803 0.030869
0.843015 0.515663 0.032639
0.859083 0.520195 0.0323644
0.874434 0.52549 0.0318608
0.888441 0.531044 0.0305791
0.902159 0.537087 0.0288396
0.909697 0.539391 0.0311284
0.040177 0.390707 0.123461
0.0373693 0.394507 0.109117
0.0364385 0.399588 0.0980087
0.0384833 0.407324 0.0955215
0.0427253 0.416526 0.095079
0.053193 0.426886 0.0938582
0.0899062 0.433127 0.0889143
0.176059 0.432929 0.0765545
0.238437 0.439353 0.0696269
0.28867 0.446769 0.0633555
0.337316 0.454719 0.0561074
0.384588 0.46247 0.0515602
0.428122 0.469749 0.0482032
0.470161 0.476799 0.0465858
0.511086 0.483497 0.0462348
0.549767 0.48983 0.044892
0.586572 0.496056 0.042649
0.619272 0.501717 0.0400244
0.649332 0.507073 0.0379644
0.677287 0.511925 0.0369268
0.704356 0.516564 0.0356451
0.730266 0.521004 0.0333715
0.754025 0.5252 0.0327611
0.776303 0.529183 0.0330663
0.796429 0.533211 0.033341
0.81561 0.537209 0.0329595
0.833906 0.541176 0.033402
0.850919 0.5449 0.0341039
0.86743 0.549218 0.0354467
0.883177 0.554528 0.0354314
0.897688 0.560357 0.0356603
0.911284 0.566094 0.0341192
0.919081 0.568505 0.0349126
0.0435798 0.415045 0.124361
0.040238 0.419013 0.109682
0.0378271 0.423499 0.100755
0.0392615 0.431434 0.100252
0.0438697 0.440925 0.0998245
0.0543679 0.451316 0.0988632
0.0821393 0.459297 0.0944839
0.162982 0.459129 0.0815137
0.233738 0.463645 0.0726024
0.285222 0.471168 0.0658427
0.333043 0.479164 0.0597696
0.380713 0.487129 0.0548104
0.426795 0.494667 0.0521401
0.469627 0.501671 0.0495613
0.511452 0.508629 0.0485695
0.551141 0.515419 0.0485237
0.588159 0.521828 0.0469673
0.622309 0.527977 0.0449836
0.65333 0.533593 0.0437934
0.681514 0.538582 0.04271
0.708888 0.54342 0.0415351
0.734981 0.547951 0.0400397
0.759487 0.552392 0.0384833
0.782406 0.556588 0.0381628
0.802655 0.560632 0.0377661
0.821973 0.564645 0.0372931
0.84062 0.568643 0.0373693
0.858381 0.572671 0.0387579
0.875273 0.576837 0.039765
0.891432 0.582025 0.0394446
0.906386 0.587991 0.0421149
0.919371 0.593225 0.0407721
0.926543 0.595956 0.0403449
0.0473793 0.438849 0.124193
0.0434424 0.442863 0.11014
0.0399023 0.446418 0.10547
0.0420386 0.454887 0.105348
0.0450752 0.464454 0.104692
0.0525368 0.474983 0.103502
0.0753796 0.484169 0.100206
0.155077 0.483574 0.0862287
0.22565 0.487221 0.0765698
0.280705 0.494606 0.0695048
0.329503 0.502586 0.0632334
0.376654 0.510628 0.059617
0.423331 0.518288 0.0567025
0.468467 0.525643 0.0543832
0.510933 0.532677 0.0537728
0.551446 0.539712 0.0536202
0.589334 0.546471 0.0524605
0.623728 0.552758 0.0510414
0.65626 0.558816 0.0501869
0.685527 0.564111 0.0487068
0.713146 0.569131 0.0468757
0.739528 0.573816 0.0456703
0.764248 0.578393 0.043946
0.787747 0.582818 0.0437324
0.808759 0.587152 0.0437476
0.828275 0.591226 0.0430152
0.84712 0.595224 0.0415808
0.865263 0.599252 0.0422217
0.882933 0.603586 0.0433356
0.899474 0.608621 0.0446784
0.914733 0.61442 0.0467384
0.927306 0.619287 0.0471351
0.93286 0.622065 0.0475776
0.0504311 0.461891 0.125933
0.0455177 0.46569 0.117144
0.0411688 0.469215 0.112123
0.042649 0.477668 0.111803
0.0451057 0.487404 0.110979
0.0518502 0.498024 0.109667
0.0716564 0.507317 0.106355
0.144091 0.50692 0.0927138
0.217182 0.510491 0.0814527
0.274998 0.517784 0.0744945
0.324926 0.525567 0.0678416
0.372595 0.53373 0.0635691
0.419364 0.541497 0.0616465
0.465583 0.548959 0.0598764
0.510185 0.55642 0.0585794
0.551202 0.5635 0.0574502
0.5897 0.570489 0.0577554
0.624781 0.577111 0.0567178
0.657664 0.583337 0.0549935
0.688304 0.589136 0.0551308
0.716854 0.594385 0.0538796
0.743526 0.599237 0.0525368
0.768368 0.603937 0.0513924
0.79202 0.608454 0.05066
0.813642 0.612985 0.0510872
0.83389 0.617212 0.0514992
0.85301 0.621256 0.0504311
0.871504 0.62536 0.0495918
0.889723 0.629664 0.0500649
0.905943 0.634089 0.0510719
0.919554 0.639414 0.0534524
0.931777 0.644877 0.0562753
0.937667 0.647486 0.0575875
0.0527962 0.484321 0.129381
0.0473793 0.488136 0.123934
0.0427863 0.492058 0.11899
0.0433051 0.50016 0.118151
0.0467689 0.509987 0.117479
0.0508583 0.520623 0.116426
0.0661021 0.530007 0.113054
0.134783 0.529564 0.0991989
0.207523 0.533364 0.0886397
0.267826 0.540536 0.080705
0.319615 0.548226 0.0737316
0.368109 0.556313 0.0679484
0.415305 0.564248 0.0665599
0.461738 0.571893 0.0645151
0.507393 0.579446 0.0638743
0.550454 0.586923 0.0633707
0.58909 0.593927 0.062562
0.624826 0.600778 0.0623484
0.658579 0.607294 0.0620432
0.689693 0.613245 0.0615702
0.719539 0.618891 0.0609445
0.747066 0.623941 0.0602426
0.772152 0.628763 0.06009
0.796063 0.633448 0.0599985
0.818051 0.638132 0.06009
0.838972 0.642588 0.0603647
0.858778 0.646799 0.0601511
0.87744 0.650828 0.0597391
0.895689 0.654963 0.0602121
0.91165 0.659083 0.0606394
0.924514 0.663828 0.0612039
0.936019 0.669474 0.0638437
0.942245 0.672175 0.0672465
0.0560616 0.506096 0.135851
0.050782 0.510414 0.130449
0.0462043 0.514412 0.12549
0.0455634 0.522057 0.124086
0.0462654 0.532021 0.12343
0.0493782 0.542855 0.122499
0.062211 0.552209 0.119341
0.12401 0.551553 0.105379
0.194903 0.55552 0.0951705
0.259617 0.562875 0.0879072
0.313787 0.570459 0.0802625
0.363272 0.578408 0.0746014
0.410849 0.586389 0.0721294
0.457649 0.594156 0.0701457
0.503716 0.601785 0.0694896
0.547555 0.609293 0.0691386
0.588159 0.616739 0.0690013
0.624353 0.623667 0.0683146
0.65864 0.630457 0.0682536
0.690532 0.636667 0.0686046
0.720851 0.642481 0.068986
0.749355 0.647883 0.069337
0.775357 0.652949 0.0700084
0.79968 0.657786 0.0691844
0.822126 0.662654 0.0690623
0.843519 0.667247 0.0697642
0.864118 0.671626 0.0706035
0.883345 0.675639 0.0699016
0.900465 0.679149 0.0693828
0.915053 0.683162 0.0699168
0.928206 0.687816 0.0706798
0.94023 0.693355 0.0725414
0.946929 0.696193 0.0766918
0.058381 0.527276 0.142947
0.0530098 0.531853 0.137469
0.0482032 0.536019 0.132372
0.0466926 0.543145 0.130236
0.0474861 0.553231 0.129656
0.0499428 0.56408 0.128817
0.060853 0.573541 0.125948
0.112917 0.572931 0.112413
0.184115 0.576669 0.102312
0.250767 0.584146 0.0948196
0.307408 0.591608 0.0877089
0.357977 0.599374 0.0811017
0.406485 0.607385 0.077821
0.453605 0.615137 0.0766461
0.499901 0.622843 0.075639
0.544091 0.630396 0.0750591
0.585779 0.637934 0.074464
0.623667 0.645304 0.0753033
0.65832 0.652232 0.075349
0.690883 0.658625 0.0749218
0.721736 0.664637 0.0759289
0.750683 0.670192 0.077409
0.777737 0.675578 0.0780957
0.80325 0.680644 0.0781872
0.826185 0.685649 0.0783246
0.848035 0.690455 0.079469
0.868589 0.694774 0.0802014
0.888151 0.698772 0.0800641
0.904326 0.70219 0.0796521
0.918608 0.706127 0.0802777
0.932189 0.710613 0.0807202
0.944686 0.716197 0.0823072
0.951949 0.719341 0.0856794
0.0618448 0.548241 0.14934
0.0563058 0.553002 0.14374
0.0513619 0.557321 0.138598
0.0489815 0.563851 0.135805
0.0500649 0.573999 0.135241
0.0516518 0.584924 0.134356
0.0580148 0.594583 0.13196
0.108003 0.594125 0.11899
0.172702 0.597559 0.108812
0.239933 0.604883 0.102113
0.29955 0.612299 0.0949264
0.352224 0.619837 0.0885786
0.40174 0.627802 0.0838788
0.449226 0.635538 0.0824598
0.495521 0.643198 0.0818952
0.540185 0.650858 0.0814069
0.582254 0.658427 0.0809644
0.62089 0.665873 0.0810712
0.657389 0.673182 0.081651
0.690227 0.679637 0.0824903
0.721538 0.685817 0.0831617
0.751247 0.691585 0.0836042
0.778973 0.6972 0.0854505
0.805798 0.702678 0.0869459
0.829969 0.707973 0.0875715
0.852369 0.712932 0.0881666
0.873121 0.717449 0.0894331
0.892226 0.72108 0.089601
0.90782 0.724758 0.090013
0.922377 0.728664 0.0902876
0.936324 0.733059 0.0908827
0.949233 0.738506 0.0924239
0.957122 0.742061 0.0959793
0.066041 0.568307 0.156176
0.0603647 0.57322 0.150454
0.0552987 0.577585 0.145235
0.0518807 0.583352 0.141527
0.0516213 0.593576 0.140948
0.0518044 0.604501 0.1402
0.0579232 0.614527 0.138384
0.10135 0.615152 0.126787
0.161334 0.617655 0.115984
0.227237 0.624125 0.109178
0.285573 0.631449 0.102449
0.342962 0.638926 0.0966049
0.394476 0.646586 0.0910658
0.442679 0.654261 0.0884413
0.489479 0.661906 0.0876783
0.534539 0.669566 0.0869612
0.576944 0.677241 0.0866255
0.616175 0.684703 0.087068
0.653483 0.692103 0.087541
0.688014 0.698909 0.0881819
0.720043 0.705226 0.0894484
0.750439 0.711238 0.0906233
0.779263 0.717083 0.0921492
0.807034 0.722835 0.0939345
0.832593 0.728511 0.0959029
0.856199 0.733654 0.0977035
0.877104 0.738216 0.0991073
0.895109 0.742046 0.0999161
0.91165 0.745953 0.100267
0.926879 0.749859 0.100465
0.941161 0.754177 0.101045
0.954284 0.759533 0.102464
0.962966 0.7635 0.10515
0.0700389 0.588113 0.16257
0.0642405 0.593179 0.156771
0.0589609 0.597635 0.151553
0.0543374 0.602533 0.147036
0.0538643 0.612757 0.146487
0.0536812 0.623682 0.145769
0.0566415 0.633967 0.144335
0.0949264 0.635584 0.13402
0.153567 0.637064 0.122652
0.21297 0.642878 0.115297
0.266697 0.65005 0.108995
0.325841 0.657252 0.103578
0.38114 0.664469 0.0983902
0.43238 0.672145 0.093843
0.480919 0.679866 0.0937057
0.526253 0.68751 0.0934768
0.569162 0.695201 0.0931563
0.609094 0.70277 0.093492
0.646784 0.71017 0.0942092
0.68191 0.717083 0.0950942
0.715831 0.723766 0.0967575
0.74789 0.730053 0.0986496
0.777813 0.736156 0.100267
0.806699 0.742138 0.10248
0.833402 0.748135 0.105058
0.857801 0.75346 0.107393
0.880171 0.758343 0.108888
0.898116 0.762463 0.109667
0.915221 0.766522 0.110124
0.931441 0.770443 0.11075
0.94612 0.774609 0.111131
0.959579 0.779873 0.112184
0.968719 0.784283 0.114931
0.0745403 0.608118 0.169848
0.0686503 0.613321 0.163943
0.0633097 0.617792 0.158663
0.0581369 0.622217 0.153597
0.0569314 0.631937 0.152575
