public/luts/luxury-vlog.cube
TITLE "Generated by Resolve"
LUT_3D_SIZE 33
0.019791 0.0276799 0.0291447
0.0276951 0.028275 0.029099
0.0354009 0.0294041 0.0299382
0.0446326 0.0307164 0.0307317
0.0545205 0.0341039 0.0315099
0.0678416 0.0381323 0.0313878
0.0807355 0.0403906 0.0301823
0.0924392 0.0428931 0.0287633
0.103532 0.0454719 0.0271305
0.116381 0.047837 0.0252995
0.131289 0.0497902 0.0227207
0.149004 0.0513771 0.019089
0.165942 0.0533913 0.0160372
0.183963 0.0556344 0.0128023
0.204578 0.0572824 0.00842298
0.227787 0.0587167 0.0037995
0.251804 0.0600443 0.0011902
0.273381 0.0608835 0.000137331
0.294728 0.0613718 0
0.314977 0.0617533 0
0.333165 0.0619364 0
0.351568 0.0618601 0
0.368978 0.0618601 0
0.386221 0.061738 0
0.403235 0.0632486 0
0.420554 0.0658885 0
0.437613 0.0687572 0
0.454826 0.0710307 0
0.47332 0.0727245 0
0.490745 0.0749371 0
0.508202 0.0758221 0
0.526558 0.0774701 0
0.546792 0.0825971 0
0.0197452 0.0352941 0.0317845
0.0272679 0.0357824 0.0322271
0.0378576 0.0370184 0.0324102
0.0475319 0.0380255 0.0328985
0.0602274 0.0398871 0.0333715
0.0745861 0.0430457 0.0332952
0.0910048 0.0462806 0.0322118
0.10457 0.0488441 0.0306096
0.117861 0.0511635 0.028687
0.134066 0.0534218 0.0261692
0.152667 0.0550393 0.0223239
0.173037 0.0566262 0.018265
0.194369 0.0583658 0.0137026
0.215183 0.0594949 0.00848402
0.23592 0.0604562 0.0037995
0.256611 0.0612192 0.00135805
0.277134 0.0618906 0.000228885
0.295521 0.0623941 1.5259e-05
0.314458 0.0625467 0
0.33228 0.0625772 0
0.349218 0.0625162 0
0.366384 0.0624857 0
0.382849 0.0628977 0
0.399145 0.0637369 0
0.416022 0.0666209 0
0.43241 0.0701305 0
0.449058 0.0729992 0
0.466728 0.0749371 0
0.483848 0.0772564 0
0.501366 0.0798505 0
0.519677 0.08365 0
0.537606 0.085008 0
0.556634 0.0910658 0
0.0151675 0.0432288 0.0343481
0.022034 0.0432593 0.0352789
0.0374609 0.0449836 0.0348821
0.0514839 0.0466468 0.0348211
0.0640116 0.0482032 0.0350042
0.0772717 0.0502327 0.0346685
0.0932784 0.0526284 0.0337224
0.108476 0.0548257 0.032517
0.12752 0.0570993 0.0304112
0.146822 0.058732 0.0273747
0.169635 0.0597086 0.0225071
0.192172 0.0607156 0.0175174
0.214862 0.0614786 0.011368
0.239078 0.0620584 0.00486763
0.262776 0.0623026 0.00154116
0.283268 0.0626383 0.000259403
0.300389 0.0630045 1.5259e-05
0.318074 0.0631723 0
0.33315 0.0630961 0
0.349371 0.0630655 0
0.364157 0.0630503 0
0.380011 0.0644541 0
0.396246 0.0657816 0
0.412833 0.0686656 0
0.427848 0.0716564 0
0.444343 0.0752728 0
0.461494 0.0773327 0
0.477623 0.0793317 0
0.495415 0.0817731 0
0.513054 0.085832 0
0.530068 0.0904097 0
0.547265 0.0938735 0
0.566247 0.103075 0
0.00846876 0.0513619 0.0358129
0.0161135 0.0516823 0.0366369
0.0301061 0.0532387 0.0376593
0.0508736 0.055024 0.0369879
0.0663767 0.0570687 0.0369116
0.0821546 0.059678 0.0364385
0.0985885 0.0618906 0.0350652
0.114458 0.0641489 0.0336919
0.13138 0.0658122 0.0319219
0.152148 0.067216 0.0283665
0.176242 0.0676738 0.0234226
0.202335 0.0679332 0.0178225
0.228031 0.0679332 0.0107424
0.254612 0.0674144 0.00407416
0.279454 0.0671092 0.00103761
0.30106 0.0665904 6.10361e-05
0.320806 0.066453 1.5259e-05
0.337957 0.0661784 0
0.353323 0.0664683 0
0.368261 0.0668193 0
0.381949 0.0675975 0
0.396429 0.0690623 0
0.410361 0.0713054 0
0.425422 0.0735637 0
0.441169 0.0778058 0
0.45713 0.0791791 0
0.47303 0.0814832 0
0.490455 0.0843214 0
0.506127 0.0872511 0
0.523079 0.0915236 0
0.540993 0.100313 0
0.5579 0.107652 0
0.576745 0.118044 0
0.00619516 0.0601663 0.038941
0.0146487 0.0604105 0.0390326
0.0275425 0.0617685 0.0395972
0.0435035 0.064622 0.041001
0.0661784 0.0670481 0.0400854
0.0874342 0.0697948 0.0387732
0.104158 0.0722515 0.0375219
0.120058 0.0742199 0.0358282
0.139147 0.0767376 0.0335088
0.161822 0.0784772 0.0299077
0.186648 0.0796979 0.0250248
0.212787 0.0803235 0.0197604
0.239841 0.0800183 0.0123903
0.267033 0.0798657 0.00529488
0.293065 0.0794842 0.00149538
0.315801 0.0791333 7.62951e-05
0.336309 0.079057 3.0518e-05
0.354635 0.0787671 0
0.372396 0.0786297 0
0.389059 0.0787213 0
0.404288 0.0789654 0
0.417624 0.079469 0
0.43125 0.0806287 0
0.445823 0.0829175 0
0.45919 0.0851148 0
0.473777 0.0865949 0
0.489021 0.0888533 0
0.504906 0.0930648 0
0.520394 0.0993057 0
0.53724 0.106889 0
0.553903 0.117098 0
0.570871 0.128161 0
0.589029 0.133913 0
0.00138857 0.0734569 0.0441901
0.0113832 0.0737469 0.0439155
0.0247654 0.0745708 0.0441138
0.0398108 0.0767681 0.044831
0.0588998 0.0804303 0.0454108
0.0868696 0.0843977 0.0435035
0.109316 0.0872816 0.0405127
0.127672 0.0902419 0.0387427
0.147616 0.092195 0.0360266
0.172244 0.093843 0.0314488
0.198718 0.0953994 0.026566
0.225437 0.0960098 0.0206149
0.252964 0.0960708 0.0136721
0.281331 0.0955978 0.0065919
0.307347 0.0953384 0.00234989
0.329702 0.0951705 0.00015259
0.35227 0.0950179 4.57771e-05
0.371389 0.0952926 1.5259e-05
0.3897 0.0958724 0
0.407416 0.0958267 0
0.424079 0.0961929 0
0.441672 0.0962997 0
0.45742 0.0974746 0
0.471473 0.098436 0
0.484642 0.100374 0
0.497978 0.102815 0
0.511009 0.10602 0
0.524407 0.111681 0
0.538415 0.117632 0
0.554208 0.127291 0
0.569818 0.135302 0
0.584756 0.142519 0
0.602152 0.151293 0
0.00224308 0.0907607 0.0498817
0.00921645 0.0911574 0.0492714
0.0185702 0.0919203 0.0491646
0.0297093 0.0929885 0.0492256
0.049134 0.0968795 0.0503243
0.0798199 0.102327 0.049836
0.109316 0.10692 0.0459602
0.136309 0.110414 0.0417334
0.160159 0.113558 0.038468
0.185214 0.115755 0.0336004
0.211673 0.117098 0.0272068
0.239078 0.118364 0.0201267
0.269566 0.11902 0.0127718
0.298161 0.119081 0.00663767
0.323827 0.119112 0.00289921
0.346914 0.119036 0.000671397
0.367864 0.118746 0.000122072
0.387823 0.118669 3.0518e-05
0.40734 0.118868 1.5259e-05
0.425208 0.118685 1.5259e-05
0.442634 0.119478 0.000106813
0.459739 0.120058 0.000167849
0.477211 0.120806 0.000167849
0.493645 0.122454 0.000137331
0.510582 0.125307 1.5259e-05
0.526925 0.128344 0
0.538918 0.132418 0
0.550942 0.136248 0
0.562829 0.142031 0
0.574243 0.148425 0
0.58703 0.154971 0
0.601892 0.163394 0
0.618433 0.171984 0
0.00184634 0.113771 0.0560769
0.00462348 0.114137 0.0552071
0.00958267 0.114961 0.0551919
0.0165866 0.115877 0.055024
0.0352026 0.118715 0.0552834
0.0691081 0.124788 0.0550546
0.103456 0.13138 0.0525978
0.136873 0.136584 0.0468757
0.17113 0.140108 0.0399939
0.200977 0.143435 0.0331426
0.230213 0.146349 0.026154
0.257847 0.148135 0.0192264
0.28661 0.148882 0.0118715
0.315282 0.149889 0.00646983
0.340291 0.150362 0.00354009
0.363928 0.150072 0.00146487
0.386191 0.149935 0.00180056
0.405615 0.149874 0.00209049
0.424903 0.149615 0.00204471
0.443503 0.149767 0.00215152
0.462058 0.150301 0.002121
0.479469 0.151171 0.00190738
0.497139 0.15198 0.00149538
0.515267 0.154391 0.000961318
0.532158 0.156085 0.000747692
0.548287 0.158465 0.000396735
0.564233 0.162127 7.62951e-05
0.581201 0.167742 0
0.591714 0.172107 0
0.601511 0.176486 0
0.611399 0.181857 0
0.621927 0.188296 0
0.634516 0.196475 0
7.62951e-05 0.140597 0.0625315
0.000488289 0.141238 0.0616007
0.00154116 0.142184 0.0611582
0.00598154 0.143908 0.0607614
0.0233768 0.146639 0.0599832
0.0551766 0.152422 0.0598154
0.0942855 0.15935 0.0585641
0.131823 0.166781 0.0530556
0.173098 0.172747 0.0427863
0.214389 0.177432 0.0300298
0.247547 0.180606 0.0229038
0.279072 0.184329 0.0166629
0.308675 0.185473 0.0105287
0.336767 0.186847 0.00581369
0.360784 0.187366 0.0033875
0.383902 0.186999 0.00231937
0.404181 0.187045 0.0037995
0.425162 0.187106 0.00459297
0.444541 0.187289 0.00462348
0.463737 0.187213 0.00466926
0.482246 0.18761 0.00415045
0.500862 0.187915 0.00366217
0.518135 0.187976 0.00303655
0.53521 0.188891 0.00256352
0.552697 0.190372 0.00196841
0.56939 0.193637 0.00129702
0.585809 0.197086 0.000701915
0.601587 0.200946 0.000320439
0.618341 0.207523 0
0.632136 0.212314 0
0.641306 0.217639 0
0.647486 0.221225 0
0.654047 0.225849 0
1.5259e-05 0.169924 0.068513
1.5259e-05 0.171984 0.0673686
0.000732433 0.173831 0.066453
0.00451667 0.17586 0.0658885
0.0185397 0.178424 0.0647593
0.0413825 0.18233 0.0632486
0.0845502 0.190311 0.0613565
0.122545 0.198611 0.0584573
0.169146 0.206699 0.0474861
0.214664 0.212863 0.0352789
0.259556 0.217426 0.0242161
0.298878 0.221408 0.0174868
0.33228 0.225177 0.0130159
0.359915 0.226734 0.00959792
0.382803 0.226246 0.00701915
0.406409 0.228199 0.00460822
0.428046 0.228443 0.00370794
0.447349 0.228153 0.00471504
0.466606 0.227207 0.00497444
0.486046 0.226978 0.00492866
0.504494 0.227192 0.00462348
0.522606 0.227573 0.00418097
0.540398 0.227344 0.00354009
0.557305 0.22858 0.00297551
0.573877 0.230243 0.00239567
0.590707 0.231556 0.00187686
0.607294 0.23447 0.00146487
0.622934 0.238575 0.000885023
0.638132 0.241566 0.000213626
0.654444 0.247883 3.0518e-05
0.669657 0.255955 0
0.675853 0.258885 0
0.678798 0.259663 0
0 0.199985 0.0738689
7.62951e-05 0.20209 0.0725567
0.000549325 0.204211 0.0711833
0.00276188 0.206928 0.0697795
0.00794995 0.210224 0.0674754
0.0335546 0.214069 0.0657511
0.0755932 0.220661 0.0627909
0.118914 0.228809 0.0597391
0.15877 0.237491 0.055436
0.211551 0.246357 0.0417945
0.260304 0.252262 0.0313726
0.308843 0.25771 0.0215152
0.3514 0.262364 0.0141451
0.382483 0.265644 0.0107271
0.408026 0.267323 0.00869764
0.429206 0.26685 0.00735485
0.449393 0.266804 0.00602731
0.470649 0.267124 0.00444038
0.489662 0.266987 0.00355535
0.508019 0.266911 0.00354009
0.52726 0.266926 0.00344854
0.544198 0.267048 0.00318914
0.561517 0.267247 0.00283818
0.578729 0.267536 0.00241093
0.594873 0.268376 0.0018616
0.610727 0.269703 0.00144961
0.62591 0.270756 0.00112917
0.642527 0.273457 0.000686656
0.657694 0.276539 0.000213626
0.67364 0.281697 0
0.689967 0.288869 0
0.703822 0.294438 0
0.707164 0.294453 0
3.0518e-05 0.228855 0.0784772
0.00015259 0.231952 0.0769818
0.000885023 0.234882 0.0748608
0.00273136 0.238193 0.0719615
0.00877394 0.242176 0.0699626
0.0326085 0.246479 0.0677043
0.0657206 0.251133 0.0639353
0.110018 0.259251 0.0610819
0.156664 0.268635 0.0576028
0.20058 0.277836 0.0539864
0.257542 0.286229 0.038819
0.308644 0.291707 0.0263981
0.359792 0.296178 0.0163577
0.397299 0.299351 0.0106203
0.426307 0.302129 0.00790417
0.452247 0.305104 0.00598154
0.47332 0.305592 0.00476081
0.492729 0.305745 0.00387579
0.511559 0.305653 0.0028687
0.531121 0.305058 0.00178531
0.548135 0.304982 0.0016022
0.565103 0.304585 0.00146487
0.582101 0.304448 0.00143435
0.598169 0.304082 0.00149538
0.614374 0.304128 0.00117494
0.63003 0.305104 0.000640879
0.645624 0.306996 0.000259403
0.660624 0.308385 0.00015259
0.676387 0.311238 3.0518e-05
0.692348 0.315267 0
0.708492 0.321202 0
0.725032 0.328298 0
0.735439 0.330587 0
0.00015259 0.258244 0.082063
0.000381476 0.26096 0.0803845
0.00131228 0.264271 0.0767071
0.00280766 0.26775 0.0729229
0.0123293 0.271885 0.0712902
0.0316625 0.277272 0.0678264
0.0653544 0.282887 0.0645762
0.105684 0.288426 0.0622416
0.155749 0.298009 0.0595102
0.203784 0.307378 0.0548867
0.246387 0.315679 0.0475929
0.30695 0.323827 0.0291447
0.359487 0.329137 0.0177768
0.405539 0.333272 0.00970474
0.442023 0.335805 0.00552377
0.468421 0.338415 0.00410468
0.493172 0.340612 0.00320439
0.515435 0.341344 0.00260929
0.533913 0.341192 0.0018616
0.551476 0.341268 0.00111391
0.569955 0.340963 0.000732433
0.586267 0.341131 0.000122072
0.602258 0.340963 0.000122072
0.618494 0.340887 0.000183108
0.633402 0.340108 0.000228885
0.648737 0.340841 0.000213626
0.664851 0.341848 7.62951e-05
0.679774 0.343389 7.62951e-05
0.694957 0.345068 0
0.710338 0.348501 0
0.725978 0.353368 0
0.742168 0.358907 0
0.75816 0.36495 0
0.000106813 0.286854 0.0856794
0.000762951 0.290501 0.082475
0.00210575 0.294072 0.0776226
0.00798047 0.29781 0.0753796
0.0188144 0.302068 0.0724651
0.0371252 0.306905 0.0695201
0.0687114 0.3122 0.0662699
0.105196 0.318135 0.0630655
0.154101 0.326192 0.0587167
0.204364 0.3355 0.0530251
0.250599 0.34374 0.0456092
0.295293 0.351354 0.0369421
0.359991 0.360342 0.0174258
0.407858 0.365179 0.00848402
0.448478 0.368139 0.00430304
0.483543 0.370764 0.0012665
0.508949 0.373129 0.000717174
0.532509 0.37525 0.000701915
0.553979 0.376471 0.000442512
0.573007 0.37612 0.000320439
0.589899 0.376364 0.000274662
0.606867 0.375784 4.57771e-05
0.622675 0.375875 0
0.637934 0.376043 1.5259e-05
0.653468 0.376104 1.5259e-05
0.668544 0.37615 1.5259e-05
0.682902 0.375982 1.5259e-05
0.697963 0.37702 0
0.713344 0.379095 1.5259e-05
0.728267 0.380682 0
0.743557 0.384726 0
0.758984 0.389792 0
0.775082 0.396033 0
0.000717174 0.317021 0.0887007
0.00291447 0.321126 0.0851453
0.007187 0.324681 0.0826276
0.0144656 0.328374 0.0796979
0.0253147 0.332601 0.0766308
0.0471046 0.337209 0.0721904
0.0783093 0.342687 0.0680247
0.113115 0.34844 0.0635843
0.155169 0.354238 0.0587167
0.206943 0.36257 0.0522927
0.254994 0.371313 0.0445563
0.298436 0.379156 0.0373846
0.348058 0.387182 0.0265965
0.409659 0.395605 0.00901808
0.451759 0.399649 0.00582895
0.489601 0.402777 0.00285344
0.523751 0.404822 0.000228885
0.547784 0.40705 0.000457771
0.56968 0.409094 0.000701915
0.591211 0.410574 0.000701915
0.610086 0.410742 0.00047303
0.625849 0.409857 3.0518e-05
0.641611 0.409293 1.5259e-05
0.658015 0.4094 1.5259e-05
0.672557 0.409552 1.5259e-05
0.68719 0.409751 1.5259e-05
0.702159 0.41004 1.5259e-05
0.71606 0.41001 1.5259e-05
0.730953 0.410925 4.57771e-05
0.745388 0.412802 7.62951e-05
0.760281 0.414801 6.10361e-05
0.775341 0.419272 0
0.791501 0.424704 0
0.00340276 0.346944 0.0910353
0.0069276 0.350347 0.0881361
0.0139467 0.35404 0.0847944
0.0230106 0.358114 0.0813611
0.0370642 0.362356 0.0771038
0.0585031 0.366857 0.0730297
0.0885328 0.37258 0.0681926
0.121523 0.378729 0.062623
0.162234 0.384466 0.0576638
0.209369 0.390845 0.0532998
0.261082 0.39942 0.044892
0.305303 0.407523 0.0390326
0.350607 0.415152 0.0318914
0.400626 0.422889 0.0221714
0.452766 0.430167 0.00866712
0.493309 0.433829 0.0065919
0.528176 0.436271 0.00474556
0.561547 0.438163 0.00285344
0.584039 0.440009 0.0028687
0.60531 0.441871 0.00296025
0.624903 0.443366 0.00297551
0.643748 0.443671 0.00265507
0.660487 0.443153 0.002121
0.675624 0.442893 0.00144961
0.690959 0.442557 0.000534066
0.705989 0.442725 1.5259e-05
0.720241 0.442908 1.5259e-05
0.734234 0.443091 1.5259e-05
0.748074 0.443015 6.10361e-05
0.762661 0.444114 0.000137331
0.777188 0.445823 0.00015259
0.791089 0.448554 9.15541e-05
0.807004 0.453101 0
0.010132 0.378012 0.0948501
0.0160525 0.381353 0.0914473
0.0262303 0.384848 0.0869306
0.0357824 0.388022 0.0828107
0.0528725 0.39234 0.0783703
0.0742657 0.397482 0.0729686
0.100389 0.402777 0.0679484
0.133028 0.408606 0.0630961
0.172503 0.414755 0.0586557
0.220203 0.421225 0.0538186
0.266987 0.427604 0.0496376
0.31284 0.43592 0.0451514
0.35903 0.443748 0.0379034
0.400504 0.450797 0.0357214
0.446693 0.457176 0.0249485
0.495277 0.46424 0.0108644
0.531884 0.466468 0.00852979
0.565591 0.469352 0.00663767
0.596368 0.471031 0.00390631
0.61828 0.472511 0.00392157
0.638758 0.473976 0.00386053
0.657862 0.47541 0.00376898
0.676219 0.475639 0.00355535
0.693034 0.475395 0.0033875
0.707958 0.475212 0.00247196
0.722438 0.474113 0.00195315
0.737163 0.47396 0.00106813
0.751812 0.47451 0.000350958
0.765499 0.474586 0.000488289
0.779232 0.474739 0.000549325
0.793439 0.475807 0.000213626
0.807813 0.477974 0.000198367
0.822828 0.481498 4.57771e-05
0.018265 0.408286 0.0954604
0.0275883 0.411841 0.0901045
0.0388647 0.415274 0.0859388
0.0542153 0.418799 0.082414
0.0695048 0.422385 0.0790265
0.0907149 0.427085 0.074815
0.115145 0.432593 0.0702678
0.147387 0.43888 0.065507
0.187472 0.445136 0.0613565
0.230945 0.451011 0.0569619
0.277211 0.457328 0.0542
0.321386 0.463828 0.0495766
0.368994 0.472007 0.0439612
0.40943 0.478782 0.0402075
0.444083 0.484398 0.0379644
0.489082 0.49015 0.026215
0.534005 0.496925 0.0118257
0.56846 0.499336 0.00984207
0.599634 0.501076 0.0074464
0.629282 0.50312 0.00584421
0.651148 0.50454 0.00526436
0.670512 0.505272 0.00476081
0.689097 0.506539 0.0047303
0.707057 0.506844 0.00451667
0.723888 0.506783 0.00399786
0.739162 0.506661 0.00352483
0.753582 0.505943 0.0028687
0.767666 0.504829 0.00201419
0.781567 0.505013 0.00141909
0.795666 0.505196 0.00120546
0.809201 0.505867 0.000946059
0.823667 0.506966 0.000350958
0.838315 0.50988 0.00015259
0.0342718 0.439323 0.097612
0.0464942 0.442618 0.0948806
0.0588693 0.445869 0.091249
0.0729229 0.449241 0.0871901
0.0889601 0.453147 0.0829328
0.107378 0.45745 0.078584
0.132677 0.462669 0.0729076
0.164813 0.468956 0.0687114
0.205264 0.47512 0.064744
0.250523 0.481331 0.0604562
0.290547 0.48716 0.0577401
0.332723 0.49337 0.0559548
0.376043 0.500038 0.0518044
0.418891 0.506996 0.0469368
0.453269 0.512154 0.0442664
0.484337 0.516808 0.0431067
0.527428 0.522164 0.0270542
0.570092 0.52874 0.0113985
0.602502 0.530709 0.00843824
0.633265 0.532479 0.00627146
0.661158 0.534157 0.00531014
0.682155 0.535668 0.0049897
0.701213 0.536797 0.00514229
0.719387 0.537408 0.00515755
0.736248 0.537133 0.00463874
0.753338 0.537285 0.00454719
0.768719 0.536812 0.00408942
0.783551 0.535973 0.00329595
0.797742 0.535225 0.00239567
0.81146 0.534783 0.00164797
0.825422 0.535363 0.00138857
0.839597 0.536721 0.000946059
0.854383 0.538567 0.000198367
0.0532082 0.469871 0.103502
0.0677653 0.473274 0.0993973
0.0807507 0.476402 0.0955367
0.0917983 0.479133 0.0924239
0.108568 0.483467 0.0881361
0.12668 0.487709 0.0840772
0.150896 0.492546 0.079942
0.183124 0.498177 0.0757916
0.223041 0.504509 0.0719463
0.265263 0.510781 0.0689403
0.308675 0.517082 0.0656901
0.348272 0.522881 0.0636454
0.385901 0.528389 0.0613107
0.424353 0.534539 0.0568704
0.460563 0.540246 0.0545205
0.492943 0.544976 0.0538338
0.521569 0.54847 0.0552987
0.562936 0.553079 0.0310521
0.603204 0.559472 0.013962
0.634577 0.561502 0.0105135
0.663752 0.562676 0.00914015
0.692103 0.564279 0.00657664
0.711879 0.565499 0.00663767
0.730892 0.566629 0.00675975
0.748806 0.567376 0.00613413
0.765743 0.567163 0.00576791
0.782132 0.566888 0.00444038
0.797772 0.566125 0.00350958
0.811795 0.564538 0.00247196
0.826246 0.563851 0.00149538
0.840436 0.563729 0.000762951
0.854658 0.564416 0.000335698
0.86894 0.565896 0.000137331
0.0760815 0.501366 0.112169
0.0876326 0.504005 0.108614
0.100572 0.507301 0.105196
0.112856 0.51017 0.10251
0.127962 0.513558 0.0985733
0.148745 0.517983 0.0942855
0.172549 0.522499 0.0904402
0.205203 0.527962 0.0858167
0.241688 0.533578 0.0813458
0.282277 0.539864 0.0785077
0.325795 0.546456 0.0770123
0.364904 0.552529 0.0756237
0.399298 0.557443 0.0746929
0.432471 0.561883 0.0744793
0.465415 0.566842 0.0719005
0.499809 0.571786 0.0694896
0.528054 0.575372 0.0695201
0.555535 0.578363 0.072282
0.596384 0.583642 0.0420233
0.63473 0.58883 0.0168612
0.664851 0.591104 0.0143435
0.693446 0.591959 0.0117647
0.721065 0.59321 0.00907912
0.740658 0.594232 0.00885023
0.759136 0.595102 0.0087129
0.776638 0.595743 0.00886549
0.793988 0.596002 0.00827039
0.81001 0.594903 0.00650034
0.826368 0.593942 0.00428779
0.840146 0.592157 0.00215152
0.854948 0.592111 0.00117494
0.869871 0.592874 0.000396735
0.883467 0.592706 0.000213626
0.0971695 0.531868 0.123201
0.108858 0.534768 0.120043
0.120745 0.537331 0.117205
0.133776 0.540276 0.11397
0.150347 0.543542 0.109865
0.173083 0.547646 0.105531
0.197604 0.55201 0.102449
0.226307 0.556542 0.0995956
0.263264 0.562234 0.0964675
0.303426 0.568215 0.0946975
0.342458 0.57467 0.0935378
0.382528 0.580987 0.0915389
0.415274 0.586114 0.0919966
0.441993 0.589792 0.0957198
0.471305 0.592233 0.0940414
0.504387 0.597223 0.0926375
0.532998 0.60116 0.0922713
0.560449 0.604273 0.0932326
0.586023 0.607569 0.0962081
0.627512 0.612436 0.0542
0.663951 0.618326 0.0262455
0.693812 0.619989 0.0214542
0.721477 0.620066 0.017258
0.748867 0.621103 0.0120394
0.768002 0.622034 0.0112154
0.78645 0.622721 0.0112001
0.80415 0.623804 0.0102693
0.821241 0.623484 0.00839246
0.837537 0.622431 0.00738537
0.853956 0.620935 0.00540169
0.868833 0.619211 0.00143435
0.883818 0.619699 0.000701915
0.898589 0.62034 0.000381476
0.119905 0.561685 0.139193
0.132784 0.564584 0.135988
0.144137 0.566934 0.133577
0.159991 0.569955 0.130571
0.176562 0.572976 0.127871
0.197787 0.576669 0.124666
0.223667 0.580789 0.122103
0.25127 0.585153 0.119905
0.285863 0.590494 0.117433
0.323445 0.596216 0.115114
0.359228 0.601785 0.11281
0.394949 0.608103 0.112947
0.42681 0.613031 0.114
0.454658 0.617243 0.116976
0.479149 0.619181 0.120287
0.506401 0.621698 0.119173
0.536751 0.626245 0.118715
0.563912 0.629816 0.118212
0.589563 0.633127 0.120165
0.614374 0.635996 0.124712
0.655741 0.640314 0.0698711
0.691798 0.645747 0.0359808
0.721218 0.647761 0.0285496
0.748684 0.647929 0.0244755
0.776318 0.64863 0.0178988
0.794491 0.649363 0.0168917
0.812879 0.64979 0.0165255
0.831067 0.65095 0.0153353
0.847974 0.650324 0.0138857
0.86479 0.649393 0.0100557
0.881559 0.647608 0.00596628
0.896757 0.646891 0.00178531
0.912551 0.647395 0.000579843
0.145327 0.590906 0.161456
0.156466 0.593179 0.159472
0.17116 0.595926 0.156985
0.186236 0.598672 0.15433
0.201816 0.601144 0.152346
0.222797 0.60444 0.150179
0.247471 0.608438 0.147631
0.277836 0.613062 0.144503
0.308675 0.617853 0.141848
0.343435 0.623255 0.140551
0.376287 0.628443 0.139666
0.407828 0.633524 0.139391
0.43679 0.638315 0.141741
0.464012 0.643137 0.143221
0.489448 0.646525 0.146822
0.512123 0.647593 0.153613
0.538079 0.649775 0.151293
0.5664 0.654307 0.151644
0.592401 0.658396 0.151934
0.617075 0.661753 0.155962
0.641978 0.665141 0.155978
0.682872 0.668315 0.0919203
0.717998 0.673152 0.0509346
0.747402 0.674907 0.0408789
0.77499 0.675258 0.0348058
0.802045 0.675914 0.0248569
0.821073 0.676173 0.0231632
0.83975 0.677485 0.0223697
0.857939 0.677745 0.0204929
0.875395 0.676631 0.0165255
0.892851 0.675502 0.0123445
0.909056 0.673716 0.00590524
0.926024 0.67451 0.000885023
0.171923 0.618326 0.188846
0.184955 0.620493 0.187503
0.199054 0.622919 0.18613
0.211643 0.625101 0.184451
0.230655 0.628305 0.181765
0.251316 0.631647 0.179309
0.275776 0.63563 0.176364
0.302907 0.640024 0.174212
0.331792 0.644419 0.172396
0.362341 0.649439 0.171389
0.394995 0.654536 0.169574
0.42208 0.658839 0.16994
0.448341 0.663035 0.17055
0.472877 0.667323 0.173404
0.497414 0.671595 0.178195
0.519661 0.674311 0.183993
0.541283 0.675471 0.190311
0.567926 0.67834 0.188327
0.594049 0.682719 0.18967
0.61857 0.686595 0.190387
0.6439 0.69044 0.191501
0.668589 0.693339 0.188693
0.708721 0.695552 0.115541
0.743008 0.699733 0.0694591
0.77258 0.702007 0.0555428
0.801633 0.702602 0.0461433
0.828183 0.702602 0.0343328
0.84712 0.703151 0.0336461
0.866468 0.704158 0.0318914
0.884886 0.704463 0.0279698
0.903166 0.703593 0.0215457
0.921508 0.702617 0.0132296
0.938125 0.702281 0.00410468
0.200763 0.645411 0.218631
0.214206 0.647654 0.217258
0.22916 0.650126 0.215961
0.242893 0.652232 0.214435
0.261158 0.655238 0.212207
0.279332 0.658122 0.210651
0.30399 0.661875 0.209216
0.326986 0.665553 0.208026
0.354452 0.669871 0.207187
0.383337 0.674937 0.205905
0.408484 0.679301 0.205951
0.433722 0.683803 0.206744
0.457725 0.688151 0.207828
0.482887 0.692699 0.210773
0.505974 0.696849 0.215015
0.527001 0.699184 0.217716
0.548135 0.701823 0.222126
0.568521 0.704036 0.229541
0.593713 0.707057 0.228626
0.619257 0.711192 0.22884
0.644022 0.715389 0.229694
0.668421 0.719249 0.233204
0.694606 0.722438 0.227527
0.734051 0.723583 0.145418
0.768246 0.726909 0.0932021
0.798917 0.729747 0.0741283
0.828183 0.73051 0.0615091
0.854215 0.730663 0.0499123
0.874281 0.730999 0.0470741
0.893477 0.731517 0.0429389
0.912551 0.731533 0.0360723
0.931243 0.730556 0.0245823
0.949264 0.729427 0.0110933
0.233524 0.672541 0.248981
0.247807 0.674815 0.247471
0.260471 0.676783 0.246403
0.272923 0.678752 0.24538
0.290517 0.681605 0.243687
0.308049 0.684215 0.242329
0.33019 0.687861 0.241276
0.352087 0.691493 0.239963
0.375357 0.695155 0.239246
0.398978 0.69926 0.239048
0.421592 0.70312 0.239536
0.444205 0.707393 0.241627
0.467277 0.711681 0.242435
0.489891 0.716411 0.244617
0.513344 0.720638 0.246265
0.534432 0.724086 0.248936
0.555276 0.727138 0.253346
0.575082 0.729702 0.259205
0.594385 0.732006 0.265492
0.619333 0.73547 0.264515
0.643961 0.740291 0.266117
0.668391 0.744747 0.26865
0.693111 0.748806 0.269978
0.720027 0.752102 0.261402
0.759304 0.752743 0.179828
