public/luts/luxury-vlog.cube
TITLE "Generated by Resolve"
LUT_3D_SIZE 9
0.019791 0.0276799 0.0291447
0.0545205 0.0341039 0.0315099
0.103532 0.0454719 0.0271305
0.165942 0.0533913 0.0160372
0.251804 0.0600443 0.0011902
0.333165 0.0619364 0
0.403235 0.0632486 0
0.47332 0.0727245 0
0.546792 0.0825971 0
0.00619516 0.0601663 0.038941
0.0661784 0.0670481 0.0400854
0.139147 0.0767376 0.0335088
0.239841 0.0800183 0.0123903
0.336309 0.079057 3.0518e-05
0.404288 0.0789654 0
0.45919 0.0851148 0
0.520394 0.0993057 0
0.589029 0.133913 0
7.62951e-05 0.140597 0.0625315
0.0233768 0.146639 0.0599832
0.173098 0.172747 0.0427863
0.308675 0.185473 0.0105287
0.404181 0.187045 0.0037995
0.482246 0.18761 0.00415045
0.552697 0.190372 0.00196841
0.618341 0.207523 0
0.654047 0.225849 0
0.00015259 0.258244 0.082063
0.0123293 0.271885 0.0712902
0.155749 0.298009 0.0595102
0.359487 0.329137 0.0177768
0.493172 0.340612 0.00320439
0.569955 0.340963 0.000732433
0.633402 0.340108 0.000228885
0.694957 0.345068 0
0.75816 0.36495 0
0.010132 0.378012 0.0948501
0.0528725 0.39234 0.0783703
0.172503 0.414755 0.0586557
0.35903 0.443748 0.0379034
0.531884 0.466468 0.00852979
0.638758 0.473976 0.00386053
0.707958 0.475212 0.00247196
0.765499 0.474586 0.000488289
0.822828 0.481498 4.57771e-05
0.0760815 0.501366 0.112169
0.127962 0.513558 0.0985733
0.241688 0.533578 0.0813458
0.399298 0.557443 0.0746929
0.528054 0.575372 0.0695201
0.664851 0.591104 0.0143435
0.759136 0.595102 0.0087129
0.826368 0.593942 0.00428779
0.883467 0.592706 0.000213626
0.171923 0.618326 0.188846
0.230655 0.628305 0.181765
0.331792 0.644419 0.172396
0.448341 0.663035 0.17055
0.541283 0.675471 0.190311
0.6439 0.69044 0.191501
0.77258 0.702007 0.0555428
0.866468 0.704158 0.0318914
0.938125 0.702281 0.00410468
0.304448 0.725277 0.315267
0.348913 0.73254 0.312963
0.410452 0.743084 0.310567
0.487587 0.757748 0.314244
0.567575 0.774121 0.320226
0.644709 0.787991 0.339452
0.741741 0.805386 0.344991
0.882261 0.811887 0.141772
0.975311 0.810407 0.0628519
0.415 0.813138 0.475334
0.445182 0.817685 0.474662
0.482734 0.82385 0.475013
0.530968 0.83241 0.476127
0.590875 0.843626 0.478248
0.655055 0.856809 0.484657
0.730526 0.872297 0.495613
0.831006 0.891249 0.503304
0.988388 0.889067 0.281056
0.00140383 0.0278935 0.0798352
0.0603494 0.04094 0.0863661
0.128389 0.0521553 0.0792096
0.223056 0.0565347 0.06421
0.32137 0.0366979 0.0562753
0.386358 0.017319 0.0362554
0.443305 0.0123293 0.0162051
0.500908 0.0190127 0.00733959
0.561395 0.0612955 0
0.000167849 0.0732128 0.0973068
0.0471809 0.0759747 0.101717
0.152758 0.082948 0.088716
0.279454 0.0757 0.0711528
0.375357 0.0558633 0.0536965
0.435767 0.043183 0.0341039
0.489174 0.0404822 0.0207065
0.54963 0.0413214 0.00840772
0.607217 0.090135 6.10361e-05
0 0.177783 0.121279
0.0104372 0.178485 0.122148
0.160845 0.186419 0.115053
0.327855 0.189181 0.0870832
0.4215 0.178195 0.0719005
0.502998 0.164279 0.0495766
0.571923 0.152972 0.0305028
0.627146 0.152697 0.0154574
0.688304 0.188495 0.00265507
0 0.293538 0.14406
0.0145724 0.305547 0.134752
0.140215 0.314611 0.134127
0.349737 0.33463 0.104067
0.497047 0.337346 0.0590372
0.57911 0.33193 0.0504158
0.644633 0.323552 0.0388342
0.702678 0.318318 0.0249485
0.763775 0.333059 0.00451667
0.0141604 0.409751 0.16199
0.0654307 0.42121 0.153262
0.175769 0.436027 0.147036
0.347555 0.450584 0.148409
0.521584 0.464897 0.0775006
0.636042 0.468986 0.0441596
0.707851 0.464286 0.0397955
0.768154 0.457191 0.0268254
0.824964 0.462379 0.00689708
0.0853895 0.527352 0.202213
0.137545 0.537926 0.195819
0.247364 0.553079 0.191363
0.396612 0.568933 0.192218
0.514931 0.579019 0.202487
0.655024 0.589471 0.0976883
0.754421 0.590646 0.057145
0.821515 0.585153 0.0470741
0.883009 0.581598 0.00796521
0.17998 0.638041 0.271122
0.242847 0.647593 0.267399
0.338643 0.660685 0.26334
0.444282 0.675074 0.267597
0.535912 0.685161 0.282979
0.636316 0.697948 0.28986
0.766003 0.704189 0.152132
0.862577 0.702327 0.0942245
0.933669 0.69485 0.0328527
0.316167 0.738964 0.365148
0.352834 0.744915 0.364233
0.412985 0.755123 0.362966
0.488197 0.768063 0.363546
0.565927 0.78265 0.370245
0.642512 0.795514 0.38645
0.737575 0.811521 0.39237
0.878416 0.816571 0.225406
0.972259 0.810529 0.114275
0.412985 0.816968 0.49456
0.441047 0.821241 0.493919
0.481651 0.827573 0.493767
0.531472 0.836225 0.495445
0.589654 0.847044 0.498192
0.653559 0.860105 0.503975
0.729595 0.875441 0.513527
0.829755 0.894026 0.522408
0.988235 0.892348 0.316045
0 0.00357061 0.177508
0.0437171 0.0237583 0.194598
0.15349 0.0419928 0.215091
0.25034 0.043473 0.186664
0.347494 0.0206302 0.166567
0.420905 0.0081178 0.146029
0.493812 0.0052491 0.143404
0.560632 0.00759899 0.126085
0.603525 0.0037232 0.0471199
0 0.0697948 0.216602
0.0267491 0.0844129 0.22153
0.150088 0.0982223 0.220722
0.291814 0.0879377 0.197162
0.386267 0.0704356 0.179629
0.462531 0.0622263 0.173739
0.537331 0.0555428 0.168551
0.596048 0.0208743 0.11284
0.640192 0.0258335 0.0470283
0 0.190036 0.245014
0.000915541 0.194736 0.247364
0.128573 0.203647 0.251133
0.314443 0.208392 0.226337
0.424735 0.190631 0.206561
0.516152 0.172824 0.188251
0.593042 0.16173 0.169512
0.657572 0.145098 0.129122
0.701366 0.140917 0.0582132
0 0.317327 0.257282
0.00309758 0.327123 0.249897
0.108003 0.33695 0.259617
0.327184 0.350668 0.25182
0.497139 0.353841 0.222904
0.583261 0.345541 0.221286
0.652354 0.328984 0.207202
0.718547 0.311315 0.176135
0.770825 0.290715 0.10309
0.00250248 0.427482 0.277409
0.0495003 0.440803 0.282216
0.163058 0.455711 0.276158
0.333288 0.466651 0.291966
0.506035 0.47834 0.256992
0.631159 0.479026 0.232853
0.709117 0.468498 0.216266
0.768124 0.455253 0.200534
0.822446 0.433463 0.119951
0.0680705 0.544289 0.317067
0.129854 0.556008 0.312078
0.246693 0.570184 0.309789
0.390646 0.583856 0.317968
0.499397 0.589288 0.330709
0.641123 0.59971 0.282399
0.748959 0.597314 0.240375
0.82034 0.583307 0.210819
0.875944 0.563088 0.145281
0.168093 0.653666 0.362493
0.243565 0.663966 0.359197
0.339361 0.676173 0.358816
0.439078 0.689342 0.363058
0.531868 0.698955 0.376715
0.626795 0.707561 0.387259
0.758328 0.715846 0.311528
0.859525 0.709285 0.238788
0.926772 0.689113 0.165408
0.298726 0.750652 0.424552
0.351003 0.758404 0.423392
0.414282 0.768124 0.423087
0.485954 0.780163 0.424689
0.562707 0.793057 0.432288
0.641566 0.805417 0.446845
0.731685 0.819852 0.453788
0.874037 0.826108 0.341024
0.968978 0.813352 0.214664
0.40415 0.82208 0.524529
0.434806 0.826627 0.524666
0.479057 0.833539 0.52491
0.531868 0.842313 0.525658
0.589487 0.852811 0.527825
0.653788 0.865263 0.532006
0.728557 0.880415 0.541787
0.827085 0.898756 0.550927
0.988495 0.898253 0.367468
0 0.00077821 0.289967
0.0166476 0.00605783 0.305409
0.152972 0.0134127 0.318273
0.292729 0.0135348 0.334112
0.371527 0.0108644 0.311208
0.445701 0.00767529 0.297093
0.521508 0.00531014 0.286366
0.591257 0.00508125 0.271351
0.675792 0.0269474 0.271183
0 0.0380102 0.32401
0.00376898 0.0649882 0.34284
0.161898 0.103639 0.348547
0.298238 0.111543 0.353536
0.395789 0.0813153 0.327672
0.479484 0.0523079 0.310948
0.557855 0.0403754 0.299977
0.631418 0.0588083 0.298726
0.704005 0.101244 0.291447
0 0.203998 0.383246
0.00340276 0.214557 0.382208
0.125093 0.224125 0.38088
0.299672 0.235355 0.377951
0.447593 0.211048 0.352651
0.533883 0.206729 0.342458
0.60415 0.201801 0.335286
0.670192 0.210986 0.334539
0.737148 0.182391 0.28954
0 0.332586 0.397787
0.0033875 0.342443 0.398825
0.0645914 0.354635 0.399405
0.307774 0.371572 0.401968
0.477104 0.373571 0.385092
0.580423 0.363622 0.369863
0.657359 0.345098 0.356756
0.726253 0.320943 0.338354
0.788495 0.306294 0.301793
0.000427253 0.453391 0.405127
0.0165103 0.464256 0.400198
0.102968 0.475608 0.394766
0.324361 0.48539 0.409522
0.485481 0.494835 0.403021
0.62855 0.498665 0.382239
0.706554 0.491203 0.382208
0.774441 0.470817 0.368063
0.835294 0.442634 0.333135
0.0107729 0.558526 0.411261
0.0598917 0.569284 0.413184
0.215824 0.586023 0.427619
0.385046 0.600626 0.430289
0.487984 0.604669 0.444831
0.627756 0.613993 0.411093
0.741238 0.614603 0.393774
0.819837 0.60145 0.377844
0.87805 0.573739 0.345556
0.140871 0.667979 0.453849
0.223255 0.67924 0.455482
0.330632 0.692729 0.454795
0.439567 0.705165 0.456092
0.531121 0.714397 0.466072
0.618448 0.718547 0.473732
0.747906 0.730556 0.431678
0.855467 0.72781 0.395575
0.92665 0.700023 0.353353
0.284382 0.764462 0.492103
0.335698 0.772488 0.492454
0.408713 0.783307 0.492897
0.488807 0.794797 0.493538
0.565179 0.806928 0.498344
0.641138 0.81825 0.508507
0.727657 0.82977 0.516976
0.867445 0.839902 0.445441
0.968353 0.82533 0.351186
0.396735 0.829709 0.565072
0.428 0.834394 0.56614
0.47071 0.841016 0.567376
0.533165 0.850828 0.567697
0.590082 0.860777 0.568826
0.653391 0.872724 0.571633
0.727459 0.887205 0.578622
0.823682 0.905028 0.58912
0.989029 0.907652 0.43888
0 0.000747692 0.372702
0.0043946 0.0111696 0.385946
0.142687 0.0240787 0.403647
0.29099 0.0230716 0.408347
0.405005 0.0171054 0.422141
0.477089 0.0151675 0.405432
0.537255 0.00633249 0.390234
0.608957 0.00146487 0.382757
0.685832 0.0163577 0.37438
0 0.0343023 0.40528
0.000854505 0.0666819 0.423987
0.147677 0.111696 0.438102
0.316716 0.11696 0.441123
0.424033 0.126192 0.448493
0.501961 0.0881361 0.424674
0.569787 0.0585946 0.409308
0.640574 0.0583352 0.399985
0.715938 0.0892195 0.396689
0 0.210468 0.465766
0.00135805 0.226017 0.479316
0.115709 0.248798 0.482216
0.330816 0.264775 0.481163
0.446311 0.26862 0.481392
0.548226 0.23125 0.459846
0.625254 0.216831 0.443153
0.688273 0.19968 0.429404
0.754528 0.224826 0.428534
0 0.351751 0.50396
0.00480659 0.3617 0.504158
0.112169 0.375357 0.501015
0.317189 0.383673 0.508171
0.454612 0.393805 0.503136
0.581033 0.374807 0.481163
0.661006 0.368719 0.472969
0.72871 0.35996 0.464805
0.791424 0.348409 0.452949
0.00128176 0.464424 0.513313
0.0177157 0.472877 0.513222
0.0955367 0.485527 0.513436
0.281025 0.501274 0.515831
0.475212 0.509773 0.516304
0.610269 0.510811 0.502358
0.703029 0.502983 0.489143
0.773693 0.477791 0.472114
0.83856 0.445579 0.451713
0.0289311 0.581506 0.519677
0.0782788 0.591302 0.517281
0.166873 0.604776 0.513939
0.325643 0.61735 0.512734
0.483085 0.617212 0.527657
0.61471 0.625162 0.518578
0.739391 0.630014 0.501686
0.818586 0.619272 0.496254
0.883894 0.58291 0.471687
0.0673533 0.678752 0.525994
0.110353 0.687022 0.522332
0.217044 0.702037 0.523095
0.413321 0.717815 0.542596
0.528542 0.730678 0.547036
0.61413 0.734951 0.558633
0.740093 0.745983 0.524376
0.852064 0.745815 0.501488
0.927703 0.715984 0.474601
0.210193 0.769818 0.548394
0.283223 0.780926 0.554482
0.379782 0.794598 0.562905
0.474174 0.80795 0.562646
0.565637 0.821469 0.563729
0.641367 0.832151 0.573526
0.72253 0.840711 0.581643
0.861646 0.853803 0.53196
0.969238 0.841627 0.463645
0.394797 0.840192 0.615213
0.421515 0.844053 0.615854
0.465187 0.850401 0.617334
0.524239 0.8598 0.619577
0.591653 0.870893 0.619913
0.654551 0.882719 0.622995
0.726131 0.896513 0.628473
0.818433 0.913008 0.635721
0.989822 0.920256 0.513802
0 0.00910964 0.456443
0.00408942 0.0223239 0.469566
0.124193 0.0387121 0.485786
0.295125 0.0379644 0.500603
0.40589 0.0269017 0.498604
0.506676 0.0352483 0.515862
0.579828 0.0565957 0.504891
0.626459 0.0177462 0.476616
0.695811 0.0278935 0.465675
0 0.050782 0.489479
0.00300603 0.079057 0.506874
0.122545 0.110811 0.521309
0.312856 0.139712 0.537575
0.431983 0.133562 0.531838
0.531075 0.152911 0.545922
0.60412 0.15198 0.526253
0.652644 0.0821088 0.497032
0.72015 0.0899367 0.48365
0 0.213306 0.549508
0.00308232 0.225269 0.563165
0.103105 0.258213 0.575387
0.326421 0.286778 0.578897
0.466789 0.285176 0.574136
0.556893 0.295598 0.578332
0.637385 0.258518 0.553109
0.700603 0.228733 0.530404
0.759899 0.213428 0.510643
1.5259e-05 0.363104 0.595529
0.00561532 0.377127 0.599084
0.116823 0.394568 0.599756
0.331914 0.405966 0.602594
0.473106 0.413687 0.591989
0.569558 0.416266 0.592645
0.672038 0.381598 0.578775
0.745495 0.367544 0.558923
0.802625 0.347173 0.542473
0.00137331 0.48217 0.610819
0.0311131 0.491157 0.610086
0.141695 0.503624 0.611246
0.334005 0.514778 0.611231
0.476982 0.521035 0.617029
0.586145 0.529793 0.608408
0.694484 0.51017 0.587777
0.771786 0.4981 0.577447
0.838026 0.480354 0.562066
0.0265965 0.591012 0.616007
0.069688 0.599115 0.616114
0.153216 0.610956 0.616541
0.304631 0.624765 0.619471
0.459144 0.633799 0.621256
0.6094 0.638315 0.61912
0.725795 0.636942 0.603861
0.817746 0.625483 0.585672
0.885374 0.583062 0.559319
0.115938 0.702586 0.617639
0.161944 0.710903 0.616831
0.243885 0.722408 0.615839
0.359258 0.736355 0.614038
0.481758 0.747204 0.614847
0.608637 0.747951 0.630625
0.730358 0.758465 0.617975
0.853422 0.761471 0.594751
0.929641 0.731701 0.576623
0.15378 0.78088 0.619532
0.184955 0.786786 0.617594
0.244327 0.795621 0.614542
0.366888 0.811322 0.619455
0.534752 0.831479 0.639567
0.633829 0.84622 0.642588
0.717159 0.856458 0.655619
0.85539 0.868711 0.611749
0.969955 0.858961 0.56231
0.349355 0.846098 0.668406
0.386374 0.851804 0.672114
0.447166 0.860838 0.678233
0.512673 0.870268 0.682628
0.581125 0.881178 0.683803
0.654185 0.894072 0.684291
0.724102 0.907774 0.690089
0.814801 0.924636 0.701778
0.990524 0.935256 0.598642
0 0.0296483 0.542794
0.00369268 0.0481422 0.553643
0.110262 0.0592966 0.563516
0.282795 0.0762798 0.590173
0.414832 0.0708171 0.595178
0.505531 0.0598306 0.593957
0.599374 0.0740063 0.613367
0.673487 0.110048 0.611551
0.710948 0.0454566 0.569589
0 0.0830396 0.575906
0.00563058 0.102754 0.586999
0.10988 0.140124 0.601251
0.292271 0.166064 0.624384
0.434592 0.166278 0.629602
0.531029 0.161151 0.626719
0.621317 0.182528 0.641779
0.694347 0.202701 0.631693
0.730694 0.102296 0.587076
0 0.210758 0.629038
0.00633249 0.235157 0.639796
0.0937057 0.264027 0.652842
0.302037 0.278248 0.667475
0.458656 0.303716 0.673106
0.562646 0.295293 0.667124
0.646891 0.309529 0.675578
0.719753 0.300786 0.654414
0.766339 0.227436 0.618235
3.0518e-05 0.366629 0.678706
0.0115663 0.374502 0.685344
0.116716 0.394781 0.694621
0.325719 0.413794 0.703182
0.471534 0.430915 0.697337
0.586465 0.427634 0.692287
0.662821 0.432395 0.696666
0.747265 0.390082 0.676448
0.809903 0.356466 0.647532
0.00296025 0.493507 0.711696
0.0393378 0.504021 0.711757
0.156909 0.519677 0.713756
0.342184 0.53164 0.719554
0.479728 0.535958 0.719493
0.593912 0.54255 0.707698
0.676204 0.544289 0.708568
0.778576 0.504601 0.697337
0.849165 0.482277 0.672038
0.0364233 0.607431 0.724697
0.0854658 0.615946 0.725292
0.190539 0.627176 0.727428
0.347158 0.63592 0.731304
0.480568 0.64303 0.730388
0.603037 0.649897 0.734844
0.700221 0.658473 0.72517
0.805432 0.62948 0.700755
0.882231 0.60531 0.683314
0.0920729 0.713756 0.729168
0.130922 0.721355 0.729992
0.201068 0.731212 0.73109
0.31191 0.742855 0.733654
0.445258 0.756497 0.73817
0.579751 0.768063 0.739986
0.722194 0.774945 0.735775
0.845167 0.76791 0.711299
0.930907 0.729213 0.673945
0.196704 0.807584 0.72517
0.227024 0.812833 0.724895
0.276753 0.8206 0.724376
0.352743 0.831022 0.722744
0.462226 0.843641 0.720623
0.575494 0.856901 0.719585
0.703258 0.87155 0.740795
0.843915 0.884535 0.717372
0.97055 0.877119 0.675044
0.270512 0.848463 0.732677
0.290333 0.850996 0.732036
0.343587 0.859022 0.73611
0.421546 0.870512 0.742641
0.529656 0.88658 0.755184
0.621424 0.902861 0.766369
0.709468 0.918517 0.764248
0.807736 0.937041 0.776013
0.988418 0.952758 0.705135
0.000198367 0.0778668 0.622583
0.0136873 0.0918288 0.627283
0.111437 0.10045 0.631907
0.265919 0.112001 0.655528
0.402487 0.120119 0.674617
0.509773 0.109667 0.679637
0.5906 0.0960861 0.680293
0.676982 0.0996109 0.697215
0.756466 0.158404 0.709453
0.000442512 0.1308 0.650797
0.0152895 0.144274 0.654749
0.115801 0.167956 0.663096
0.269703 0.169238 0.678935
0.415305 0.202075 0.703639
0.526635 0.192477 0.707805
0.609003 0.172107 0.705928
0.695109 0.191455 0.722484
0.77174 0.231235 0.72723
0.00195315 0.228534 0.692149
0.0230259 0.247242 0.698497
0.111223 0.274296 0.709895
0.288212 0.2851 0.72575
0.432944 0.308049 0.743511
0.551293 0.304417 0.747829
0.638788 0.293095 0.745693
0.721263 0.305867 0.757244
0.79382 0.319265 0.749126
0.0052491 0.357671 0.742565
0.0325933 0.369238 0.746975
0.124025 0.386404 0.756222
0.300984 0.399283 0.769909
0.444785 0.410819 0.779446
0.572869 0.428748 0.785321
0.666651 0.419165 0.783017
0.745266 0.425849 0.789731
0.817807 0.398077 0.771038
0.00836194 0.485359 0.785779
0.048188 0.4925 0.788846
0.16466 0.505531 0.796368
0.333257 0.521675 0.806821
0.471138 0.531914 0.813092
0.590478 0.550668 0.811841
0.691447 0.547021 0.811139
0.765576 0.548516 0.816068
0.847807 0.49073 0.795789
0.0642405 0.612329 0.821286
0.113741 0.621134 0.823041
0.202075 0.631907 0.826123
0.347005 0.643 0.831922
0.485161 0.650568 0.838117
0.598932 0.655146 0.84007
0.7037 0.666453 0.833234
0.784848 0.663676 0.835828
0.885237 0.607202 0.821424
0.114199 0.730861 0.844831
0.15523 0.737041 0.846052
0.228443 0.744564 0.848356
0.340291 0.754681 0.852445
0.476951 0.765301 0.856504
0.594736 0.775418 0.859754
0.709834 0.781872 0.863523
0.810391 0.790967 0.857023
0.922591 0.732448 0.832029
0.133806 0.817319 0.851408
0.157336 0.82237 0.852277
0.19968 0.82977 0.853727
0.271077 0.840085 0.856077
0.379675 0.852872 0.859785
0.517235 0.867689 0.865385
0.649805 0.883955 0.871717
0.824399 0.90193 0.871
0.970901 0.885527 0.818357
0.341833 0.878386 0.849454
0.354971 0.880095 0.849775
0.380758 0.883513 0.850538
0.418769 0.888533 0.851637
0.472755 0.895674 0.852247
0.542214 0.905074 0.85008
0.649714 0.924254 0.862013
0.785733 0.949172 0.871611
0.986007 0.973083 0.833906
0.030518 0.201785 0.706035
0.0716411 0.209613 0.708019
0.156466 0.20557 0.710109
0.269093 0.19089 0.716243
0.385016 0.208545 0.738521
0.490517 0.20856 0.751263
0.583993 0.190448 0.757
0.666026 0.162692 0.758343
0.748898 0.157076 0.769558
0.0299992 0.246891 0.727611
0.0702525 0.253452 0.728481
0.165179 0.253864 0.731106
0.285847 0.243717 0.739452
0.393835 0.264576 0.760006
0.502007 0.263432 0.771023
0.597894 0.254932 0.778439
0.682017 0.225956 0.778256
0.7626 0.213794 0.786648
0.0317998 0.309056 0.755261
0.0716564 0.315389 0.756481
0.169039 0.320241 0.761059
0.303807 0.318837 0.771359
0.396765 0.319966 0.781308
0.518135 0.343374 0.800458
0.617319 0.336156 0.806958
0.705043 0.311238 0.806195
0.783871 0.297307 0.811231
0.0529946 0.388495 0.78909
0.104875 0.395392 0.791928
0.211948 0.40383 0.799603
0.323018 0.409979 0.809705
0.419165 0.409537 0.817517
0.537133 0.429389 0.83299
0.640299 0.427543 0.840452
0.734508 0.413169 0.841764
0.814206 0.406775 0.845914
0.104891 0.484703 0.827939
0.160906 0.490791 0.831525
0.246357 0.498024 0.837812
0.347463 0.504799 0.846281
0.447868 0.507515 0.854231
0.552132 0.5084 0.861524
0.667445 0.535714 0.875502
0.765148 0.527092 0.878126
0.84651 0.521096 0.881376
0.159442 0.593439 0.86714
0.21355 0.59733 0.869978
0.293065 0.603128 0.874708
0.378729 0.609934 0.881178
0.477729 0.617105 0.888991
0.587533 0.625666 0.897627
0.691875 0.653269 0.908278
0.79295 0.652628 0.912764
0.879515 0.643091 0.914763
0.220249 0.714427 0.904021
0.263294 0.71754 0.906203
0.331624 0.721325 0.909377
0.427726 0.728969 0.915206
0.52282 0.741405 0.922576
0.617044 0.755489 0.930373
0.710033 0.765805 0.937102
0.820081 0.786068 0.943389
0.912016 0.774685 0.94435
0.338582 0.8421 0.937743
0.364813 0.845289 0.939254
0.406134 0.85005 0.941649
0.468711 0.857435 0.94519
0.544732 0.867323 0.95024
0.627085 0.878874 0.956329
0.718883 0.89044 0.963088
0.827222 0.899611 0.969192
0.948348 0.904295 0.972412
0.429816 0.904234 0.955367
0.442985 0.906142 0.956176
0.463539 0.908949 0.957427
0.4925 0.913573 0.959304
0.537148 0.920333 0.962219
0.595987 0.929671 0.966217
0.668299 0.942672 0.971679
0.773053 0.961822 0.979263
0.977356 0.993622 0.989075
