public/luts/luxury-vlog.cube
TITLE "Generated by Resolve"
LUT_3D_SIZE 5
0.019791 0.0276799 0.0291447
0.103532 0.0454719 0.0271305
0.251804 0.0600443 0.0011902
0.403235 0.0632486 0
0.546792 0.0825971 0
7.62951e-05 0.140597 0.0625315
0.173098 0.172747 0.0427863
0.404181 0.187045 0.0037995
0.552697 0.190372 0.00196841
0.654047 0.225849 0
0.010132 0.378012 0.0948501
0.172503 0.414755 0.0586557
0.531884 0.466468 0.00852979
0.707958 0.475212 0.00247196
0.822828 0.481498 4.57771e-05
0.171923 0.618326 0.188846
0.331792 0.644419 0.172396
0.541283 0.675471 0.190311
0.77258 0.702007 0.0555428
0.938125 0.702281 0.00410468
0.415 0.813138 0.475334
0.482734 0.82385 0.475013
0.590875 0.843626 0.478248
0.730526 0.872297 0.495613
0.988388 0.889067 0.281056
0 0.00357061 0.177508
0.15349 0.0419928 0.215091
0.347494 0.0206302 0.166567
0.493812 0.0052491 0.143404
0.603525 0.0037232 0.0471199
0 0.190036 0.245014
0.128573 0.203647 0.251133
0.424735 0.190631 0.206561
0.593042 0.16173 0.169512
0.701366 0.140917 0.0582132
0.00250248 0.427482 0.277409
0.163058 0.455711 0.276158
0.506035 0.47834 0.256992
0.709117 0.468498 0.216266
0.822446 0.433463 0.119951
0.168093 0.653666 0.362493
0.339361 0.676173 0.358816
0.531868 0.698955 0.376715
0.758328 0.715846 0.311528
0.926772 0.689113 0.165408
0.40415 0.82208 0.524529
0.479057 0.833539 0.52491
0.589487 0.852811 0.527825
0.728557 0.880415 0.541787
0.988495 0.898253 0.367468
0 0.000747692 0.372702
0.142687 0.0240787 0.403647
0.405005 0.0171054 0.422141
0.537255 0.00633249 0.390234
0.685832 0.0163577 0.37438
0 0.210468 0.465766
0.115709 0.248798 0.482216
0.446311 0.26862 0.481392
0.625254 0.216831 0.443153
0.754528 0.224826 0.428534
0.00128176 0.464424 0.513313
0.0955367 0.485527 0.513436
0.475212 0.509773 0.516304
0.703029 0.502983 0.489143
0.83856 0.445579 0.451713
0.0673533 0.678752 0.525994
0.217044 0.702037 0.523095
0.528542 0.730678 0.547036
0.740093 0.745983 0.524376
0.927703 0.715984 0.474601
0.394797 0.840192 0.615213
0.465187 0.850401 0.617334
0.591653 0.870893 0.619913
0.726131 0.896513 0.628473
0.989822 0.920256 0.513802
0 0.0296483 0.542794
0.110262 0.0592966 0.563516
0.414832 0.0708171 0.595178
0.599374 0.0740063 0.613367
0.710948 0.0454566 0.569589
0 0.210758 0.629038
0.0937057 0.264027 0.652842
0.458656 0.303716 0.673106
0.646891 0.309529 0.675578
0.766339 0.227436 0.618235
0.00296025 0.493507 0.711696
0.156909 0.519677 0.713756
0.479728 0.535958 0.719493
0.676204 0.544289 0.708568
0.849165 0.482277 0.672038
0.0920729 0.713756 0.729168
0.201068 0.731212 0.73109
0.445258 0.756497 0.73817
0.722194 0.774945 0.735775
0.930907 0.729213 0.673945
0.270512 0.848463 0.732677
0.343587 0.859022 0.73611
0.529656 0.88658 0.755184
0.709468 0.918517 0.764248
0.988418 0.952758 0.705135
0.030518 0.201785 0.706035
0.156466 0.20557 0.710109
0.385016 0.208545 0.738521
0.583993 0.190448 0.757
0.748898 0.157076 0.769558
0.0317998 0.309056 0.755261
0.169039 0.320241 0.761059
0.396765 0.319966 0.781308
0.617319 0.336156 0.806958
0.783871 0.297307 0.811231
0.104891 0.484703 0.827939
0.246357 0.498024 0.837812
0.447868 0.507515 0.854231
0.667445 0.535714 0.875502
0.84651 0.521096 0.881376
0.220249 0.714427 0.904021
0.331624 0.721325 0.909377
0.52282 0.741405 0.922576
0.710033 0.765805 0.937102
0.912016 0.774685 0.94435
0.429816 0.904234 0.955367
0.463539 0.908949 0.957427
0.537148 0.920333 0.962219
0.668299 0.942672 0.971679
0.977356 0.993622 0.989075
