public/luts/pro-movie-03.cube
TITLE "17x17x17 Adobe/IRIDAS cube 3D LUT exported with GrossGrade v0.2.2 (beta) 64 bit"
DOMAIN_MIN 0 0 0
DOMAIN_MAX 1 1 1
LUT_3D_SIZE 5
0.000000000 0.000000000 0.000000000
0.194997504 0.036791001 0.017177751
0.483501017 0.095388502 0.040934499
0.743725538 0.150232002 0.054044001
0.986976027 0.202160999 0.068980001
0.073201254 0.235466003 0.086643502
0.158017740 0.202729002 0.070296749
0.483125776 0.227576002 0.045910001
0.734864056 0.255562246 0.054248001
0.986941755 0.293773770 0.066013247
0.199458003 0.548168540 0.225975007
0.231223509 0.549008787 0.236769021
0.491849542 0.458646029 0.169484496
0.756302714 0.513883770 0.105771251
0.987267017 0.508134007 0.100142002
0.298173755 0.785687566 0.320185512
0.334513009 0.787096739 0.337103754
0.526625514 0.769475520 0.218951494
0.770039797 0.690520048 0.277567744
0.983990014 0.735882998 0.228406265
0.378805995 0.948100984 0.391869992
0.405420005 0.948098540 0.408567011
0.391656041 0.948202014 0.383107990
0.856725514 0.945526004 0.324539483
0.980332017 0.860342026 0.374226004
0.034355752 0.087788254 0.216152757
0.152771249 0.017608998 0.236123756
0.491663009 0.040555004 0.170796499
0.763770282 0.079064503 0.123155758
0.987006247 0.153443009 0.133009762
0.024737500 0.233256251 0.238086522
0.159366757 0.238884494 0.246704996
0.484583527 0.253805757 0.197009012
0.743208766 0.292843997 0.203325257
0.986925006 0.330968738 0.212030753
0.163890004 0.541969538 0.195689753
0.213596508 0.546081960 0.185683995
0.496630013 0.490353763 0.290790766
0.746779084 0.508994341 0.217717260
0.987304747 0.509821475 0.208181769
0.269557267 0.780623019 0.263614774
0.317445487 0.784843504 0.304122984
0.476676553 0.774191737 0.270297259
0.772465289 0.707467258 0.366306990
0.985167742 0.749841452 0.306270003
0.356189489 0.948057532 0.349245995
0.390313268 0.948083758 0.380864501
0.367060304 0.948218226 0.401543021
0.841339052 0.947032750 0.369960248
0.980397224 0.871999025 0.439765513
0.088948503 0.228497013 0.470856011
0.130667746 0.116050258 0.481912255
0.492590517 0.034658000 0.512746036
0.768402517 0.056639999 0.487478256
0.985590994 0.086765997 0.432303011
0.077261254 0.355297744 0.496215284
0.198082745 0.358568281 0.487030268
0.493537515 0.235048249 0.513515532
0.768936813 0.241041765 0.472594798
0.986001968 0.253277004 0.419384032
0.032370500 0.534205496 0.514689028
0.168883756 0.535075486 0.515871525
0.490604043 0.540286541 0.528048515
0.744112253 0.531998515 0.479420274
0.987311482 0.562872052 0.485098511
0.158428758 0.768681526 0.514012456
0.184362754 0.770527244 0.511780500
0.439728796 0.777845979 0.471591294
0.778012753 0.739501297 0.553651273
0.987527013 0.761551023 0.505733013
0.258246481 0.948079467 0.505702019
0.290022731 0.948111236 0.494941026
0.365165532 0.948285997 0.412550032
0.787016749 0.948209524 0.495066047
0.982576013 0.897976041 0.592013478
0.135656744 0.351847261 0.680386007
0.182518482 0.268794000 0.672136784
0.487802505 0.044695999 0.723664999
0.769509494 0.063983001 0.726327300
0.985481501 0.090930752 0.727531254
0.125011504 0.470733762 0.698756218
0.243573755 0.469949007 0.691035450
0.456307530 0.243972510 0.716961026
0.768901527 0.242374271 0.725207269
0.985557020 0.252463281 0.723640978
0.094101250 0.600413024 0.718267798
0.227908999 0.609326005 0.716090798
0.522872269 0.621467233 0.706830502
0.771398067 0.538034737 0.726528764
0.986041725 0.542662501 0.705586493
0.050925754 0.765456319 0.727983057
0.189830765 0.764837086 0.728135765
0.507567763 0.765988588 0.728626966
0.764909506 0.768483996 0.738812327
0.987730265 0.775667429 0.721960723
0.136826739 0.948198497 0.735833764
0.171175241 0.948215961 0.736060023
0.475783795 0.948321462 0.730084717
0.739352226 0.948676229 0.699801028
0.985656261 0.925709248 0.752868295
0.181667000 0.460687995 0.857787013
0.229162753 0.384134501 0.845075488
0.377689064 0.104862988 0.887250006
0.772292495 0.073160499 0.908125997
0.985531986 0.097985998 0.908577979
0.179876000 0.567309499 0.873326004
0.290497482 0.563457787 0.866435230
0.340659499 0.347647995 0.858852029
0.773570776 0.245280504 0.908236742
0.985645771 0.254923522 0.908525229
0.170863509 0.687368512 0.890456975
0.301196992 0.695101023 0.887054265
0.554670036 0.701699018 0.875918031
0.756650031 0.541022301 0.903144777
0.985864520 0.542600989 0.908918500
0.124416240 0.806446552 0.904352248
0.250258744 0.810735285 0.902855515
0.547667742 0.823323786 0.899464488
0.789723277 0.827497721 0.891379237
0.986290514 0.768389285 0.909685731
0.099449001 0.948324978 0.910238981
0.221744746 0.948333740 0.910104752
0.522102535 0.948516011 0.910219550
0.783047020 0.948940754 0.910534739
0.988663971 0.949823022 0.910889983
