public/luts/pro-movie-05.cube
TITLE "17x17x17 Adobe/IRIDAS cube 3D LUT exported with GrossGrade v0.2.2 (beta) 64 bit"
DOMAIN_MIN 0 0 0
DOMAIN_MAX 1 1 1
LUT_3D_SIZE 5
0.021604000 0.020097001 0.020178000
0.225174010 0.035725500 0.021720750
0.447558016 0.037560999 0.016211500
0.609635532 0.056710005 0.016206000
0.738054991 0.141248003 0.017224999
0.041624248 0.291650742 0.044904001
0.247915745 0.230592996 0.028331498
0.311454266 0.116239250 0.028398499
0.470068753 0.115944505 0.020698000
0.657302260 0.158149257 0.019581500
0.231453001 0.582270503 0.055248503
0.401405036 0.580388248 0.028137755
0.558620453 0.497907996 0.016770499
0.635163546 0.388309538 0.017751999
0.686004043 0.302005023 0.028897000
0.483331531 0.753706515 0.219441518
0.574509978 0.765807271 0.203500763
0.708998799 0.754021525 0.124659017
0.789166212 0.702450752 0.050917011
0.900643766 0.705643535 0.073086262
0.754051983 0.868651986 0.483765990
0.795889974 0.874832273 0.481029987
0.875470519 0.880535007 0.461818993
0.926060975 0.874189258 0.404728234
0.957831025 0.855702996 0.334578991
0.018056000 0.022043251 0.142956004
0.155532241 0.036891498 0.081647009
0.395897508 0.023465499 0.041808747
0.586216807 0.020365752 0.034327753
0.726980031 0.089085743 0.077184245
0.025400000 0.152378500 0.151746750
0.237847000 0.245940268 0.225365490
0.474371254 0.280479491 0.217030242
0.654886007 0.308421254 0.206237733
0.828002751 0.367605746 0.222801998
0.159828022 0.580445528 0.324472278
0.383177251 0.582472265 0.339394271
0.550335050 0.520893753 0.264405519
0.624416530 0.401995003 0.213358253
0.706882715 0.355229735 0.184115753
0.487428516 0.789305210 0.428902507
0.618710041 0.814467549 0.482218742
0.750614762 0.812748730 0.444689751
0.803013563 0.744278312 0.334794760
0.895545006 0.722344041 0.309444249
0.757966042 0.885463715 0.592997730
0.815557480 0.896506727 0.621752501
0.894408226 0.906408489 0.620304763
0.943055034 0.900260985 0.572870493
0.959188759 0.877105236 0.483954251
0.018523000 0.018079501 0.287980020
0.194021761 0.019085500 0.398995042
0.367177010 0.036439002 0.242272004
0.493788272 0.029440753 0.124401748
0.657649517 0.032726500 0.143443510
0.018056000 0.101807013 0.236704260
0.197820246 0.233966500 0.413552225
0.470260024 0.264763236 0.416090757
0.591417670 0.243081525 0.271542013
0.790869772 0.288048029 0.313926250
0.047995001 0.280700028 0.297118515
0.282625258 0.454403996 0.450537264
0.542020500 0.547683001 0.515134990
0.753069997 0.598212481 0.525400758
0.903003991 0.639690995 0.528754532
0.282922000 0.662287712 0.507459998
0.449141532 0.715588272 0.554805994
0.648997307 0.766751766 0.597717285
0.778800249 0.760019779 0.566551805
0.898522973 0.749658227 0.548259020
0.696102977 0.881770968 0.704565525
0.762700200 0.893897474 0.721551001
0.862996459 0.912106991 0.733237982
0.925846756 0.912707806 0.711488485
0.951398492 0.897708535 0.651645005
0.018781500 0.023516752 0.394047499
0.168324754 0.027706251 0.481820494
0.474323243 0.023706755 0.543375552
0.540505290 0.038531002 0.388260514
0.642986536 0.061493002 0.282442510
0.018056000 0.133204505 0.410480767
0.179669768 0.227917016 0.511114240
0.498845041 0.308699489 0.605318487
0.644941032 0.264719486 0.535551250
0.702374816 0.240384758 0.371539503
0.022748001 0.160884500 0.252279997
0.155533254 0.340602994 0.471179008
0.524557471 0.545866787 0.645364463
0.759747267 0.590911746 0.670467973
0.844042718 0.535265267 0.551156044
0.140230760 0.434953749 0.439185530
0.316219509 0.558654010 0.540319264
0.616659582 0.729729712 0.670573711
0.784666061 0.772673488 0.697611690
0.922098756 0.809240997 0.708209693
0.495564997 0.785598218 0.658006787
0.582706451 0.815175056 0.684100747
0.730900288 0.861357212 0.725888252
0.862827301 0.896578729 0.754320741
0.932127237 0.897716999 0.736151755
0.021321001 0.069124997 0.506461024
0.189994499 0.092896253 0.571697950
0.523142517 0.129299492 0.657290518
0.714200497 0.103007495 0.659765780
0.717885017 0.105703004 0.550022006
0.018199250 0.188514501 0.542890489
0.210637003 0.269361764 0.621268034
0.523671746 0.338797748 0.690264225
0.773055434 0.383080751 0.727365017
0.800197780 0.309792519 0.645947754
0.018416500 0.274031490 0.485425502
0.142830491 0.380167007 0.591403961
0.475403994 0.510710537 0.703450441
0.784317017 0.613651514 0.765301466
0.895792007 0.595605016 0.753864527
0.072995760 0.255564541 0.328466266
0.171390027 0.380806744 0.462101251
0.459643513 0.610590816 0.663167477
0.761845231 0.768949747 0.783009231
0.923082471 0.809752226 0.801035762
0.323376000 0.617707014 0.590929985
0.431456506 0.687047482 0.640344262
0.625180006 0.790217042 0.720260024
0.829913020 0.875840247 0.791840494
0.933301985 0.904659986 0.811670005
