public/luts/pro-movie-05.cube
TITLE "17x17x17 Adobe/IRIDAS cube 3D LUT exported with GrossGrade v0.2.2 (beta) 64 bit"
DOMAIN_MIN 0 0 0
DOMAIN_MAX 1 1 1
LUT_3D_SIZE 17
0.021604000 0.020097001 0.020178000
0.062939316 0.025735125 0.023946749
0.111792624 0.029591750 0.024364250
0.164882258 0.034423690 0.023400001
0.225174010 0.035725500 0.021720750
0.284560323 0.034019940 0.019261813
0.342185616 0.033813376 0.017789625
0.396401256 0.035637751 0.016754251
0.447558016 0.037560999 0.016211500
0.494815320 0.038994689 0.016241875
0.535875738 0.041142873 0.016257249
0.573059499 0.046527248 0.016206000
0.609635532 0.056710005 0.016206000
0.642131746 0.070051774 0.016306687
0.672336698 0.089727402 0.016847251
0.703735054 0.114297718 0.017555000
0.738054991 0.141248003 0.017224999
0.022324938 0.047370750 0.027433312
0.039949939 0.040463250 0.026719874
0.057178125 0.031998124 0.026960624
0.096620008 0.034888815 0.027525062
0.152974129 0.041854128 0.026511187
0.217899814 0.047668308 0.024766376
0.287082523 0.050574623 0.021615561
0.353726655 0.052250627 0.018921187
0.412904799 0.052725248 0.017002063
0.466002703 0.053480376 0.016399812
0.514570177 0.056136690 0.016460313
0.559081078 0.061089441 0.016206000
0.599619687 0.068725571 0.016206000
0.633375883 0.078625016 0.016297312
0.665096045 0.095132150 0.016813751
0.699116111 0.118865959 0.017594688
0.734763443 0.143910497 0.017072188
0.025405750 0.116445005 0.035759628
0.052943628 0.104214884 0.034386437
0.093096375 0.090155125 0.032621250
0.109811634 0.064508185 0.030081499
0.132363752 0.054386627 0.029401375
0.173013628 0.056630313 0.028728874
0.225393653 0.060975999 0.027041623
0.282896340 0.064334869 0.023950934
0.342289388 0.067839123 0.020931624
0.398971796 0.071273126 0.018716812
0.453114122 0.074464999 0.017664749
0.505426884 0.078575626 0.017085314
0.553918540 0.084915884 0.016658500
0.598047554 0.092702329 0.016293375
0.639127553 0.106588766 0.016788250
0.677166760 0.125028580 0.017556814
0.717381716 0.147930130 0.017084749
0.030202128 0.201259643 0.043499436
0.065746754 0.196871027 0.040726315
0.119293943 0.172763139 0.037293062
0.166581646 0.157705009 0.033178560
0.185984135 0.124054953 0.031796314
0.194735080 0.095030524 0.031690560
0.219944090 0.083746701 0.030815184
0.258339584 0.081745878 0.028642999
0.303713381 0.082798749 0.025753688
0.353141695 0.085766695 0.022923000
0.402338147 0.089432314 0.020443313
0.452028185 0.093222633 0.019058125
0.501548707 0.098911762 0.018428938
0.549724042 0.106358692 0.017179437
0.596999288 0.116729267 0.017117312
0.640945315 0.130190209 0.017852752
0.686930418 0.149977252 0.018691061
0.041624248 0.291650742 0.044904001
0.079651497 0.290749997 0.041441251
0.146287501 0.275613368 0.035677753
0.198081449 0.248669118 0.031938624
0.247915745 0.230592996 0.028331498
0.276541442 0.198614001 0.027170187
0.282177627 0.158592492 0.028554372
0.290970922 0.131073743 0.029237188
0.311454266 0.116239250 0.028398499
0.344789118 0.110186376 0.026207436
0.384584129 0.109938629 0.023636624
0.425993890 0.112224817 0.021577001
0.470068753 0.115944505 0.020698000
0.515452623 0.121543385 0.019329499
0.561094046 0.129697517 0.017988252
0.606224895 0.140968010 0.018724000
0.657302260 0.158149257 0.019581500
0.068337619 0.377057016 0.041979626
0.103901871 0.378023058 0.038657751
0.173382878 0.371779442 0.033676751
0.235987753 0.352382839 0.028940937
0.283273429 0.323785633 0.024942750
0.332203627 0.304656118 0.022550249
0.366855800 0.277654231 0.021649312
0.376374930 0.233312026 0.022992939
0.376750588 0.193714291 0.024918500
0.383924901 0.165823877 0.025830064
0.403759629 0.150022000 0.025321750
0.430968702 0.143144503 0.024131749
0.464896202 0.141921431 0.022807501
0.504602373 0.144623995 0.021401873
0.546057463 0.150279135 0.019690502
0.588485360 0.158606380 0.020823251
0.638339341 0.172688872 0.022121375
0.113792017 0.454460770 0.042559002
0.142302006 0.456671089 0.040424000
0.205976248 0.455210537 0.032481626
0.270867139 0.443879008 0.026308937
0.325818419 0.422316790 0.023442999
0.369098932 0.395246774 0.019609625
0.413372427 0.374778658 0.017872125
0.451328576 0.353828311 0.017575875
0.465798646 0.312520891 0.018594000
0.465615034 0.267365605 0.020474311
0.465900421 0.229966298 0.022274500
0.474126846 0.204359233 0.023317998
0.490485013 0.188400283 0.023578875
0.516514897 0.180901200 0.023479873
0.550089538 0.180661395 0.022590624
0.588058054 0.185693964 0.023170190
0.635929346 0.198084518 0.022953251
0.169180274 0.522862852 0.047154065
0.191705599 0.525427639 0.045997564
0.244827136 0.527350962 0.037678819
0.308266103 0.523592532 0.029410005
0.364359528 0.508005738 0.020795127
0.410617292 0.485497534 0.019168001
0.449981421 0.459896743 0.017086877
0.489910632 0.438756824 0.016841061
0.524019837 0.419140041 0.016661063
0.545070946 0.388142139 0.017153937
0.550941646 0.346584171 0.017981499
0.550948083 0.305929124 0.019456124
0.553853035 0.272774935 0.020456251
0.562811852 0.248361662 0.021660749
0.581174254 0.233966738 0.022464253
0.608108461 0.230086669 0.023521941
0.648543060 0.236841351 0.024629502
0.231453001 0.582270503 0.055248503
0.248863205 0.584760785 0.053679880
0.292130888 0.587675691 0.046700876
0.347514212 0.587909579 0.037937187
0.401405036 0.580388248 0.028137755
0.450910509 0.565593243 0.021670502
0.490773410 0.543467522 0.019637875
0.523739696 0.518190503 0.017232437
0.558620453 0.497907996 0.016770499
0.588087797 0.478988141 0.016590500
0.617168009 0.459241867 0.016614001
0.631618023 0.427021503 0.016823811
0.635163546 0.388309538 0.017751999
0.637470841 0.353141844 0.018989250
0.643034756 0.323558748 0.021201629
0.656220794 0.304976374 0.024143318
0.686004043 0.302005023 0.028897000
0.296475440 0.633070827 0.074329875
0.308179736 0.634924114 0.071850814
0.343972802 0.638630211 0.066062503
0.391102105 0.641026676 0.056232687
0.441803813 0.639052868 0.044501938
0.489847869 0.631383717 0.032867812
0.530017376 0.616613090 0.023288250
0.563967526 0.596648574 0.019449500
0.591357052 0.573851347 0.017379312
0.621626258 0.554738224 0.017184688
0.650265217 0.538082600 0.016857687
0.683114767 0.525121629 0.016944125
0.703988016 0.502934456 0.017356062
0.711595833 0.470617712 0.018734189
0.717132449 0.437827736 0.020625690
0.724209368 0.410048485 0.024085505
0.748040617 0.400189012 0.029972062
0.358947992 0.677525759 0.112756126
0.367011458 0.678689599 0.110768810
0.396461099 0.682763875 0.106116876
0.439097822 0.687228560 0.096647561
0.485702991 0.688431382 0.081833750
0.529992819 0.685116470 0.065246001
0.568543732 0.676494658 0.047843244
0.601432323 0.662503958 0.032165248
0.630882502 0.645519853 0.023950376
0.655671179 0.626499951 0.019889373
0.682297111 0.609160900 0.018594874
0.708279610 0.593315303 0.017617064
0.740267992 0.585731745 0.017857624
0.764449656 0.571544647 0.018466065
0.779316604 0.548178256 0.019565377
0.791280389 0.525247276 0.021863881
0.814723849 0.515374720 0.028611375
0.420568645 0.717925131 0.164763302
0.427674562 0.719000101 0.164112359
0.452199250 0.722341180 0.160479814
0.489235550 0.727095723 0.153212622
0.530408621 0.729718328 0.140238434
0.570085287 0.729327440 0.123336002
0.606364071 0.724901497 0.102077231
0.639913499 0.716874361 0.080962300
0.668917716 0.704670191 0.060920931
0.693631709 0.689589381 0.045267440
0.715512753 0.672934949 0.033051439
0.737905204 0.658373117 0.025597375
0.759637475 0.644998193 0.021768687
0.789563894 0.640502334 0.020839689
0.819394886 0.635376513 0.022006880
0.841369629 0.626145959 0.027409449
0.867831349 0.623030066 0.040622935
0.483331531 0.753706515 0.219441518
0.488833815 0.754605889 0.218819067
0.509091616 0.757380128 0.216460526
0.539203823 0.762108862 0.211442083
0.574509978 0.765807271 0.203500763
0.611604691 0.767462373 0.189963832
0.647344887 0.766063392 0.169999272
0.679670155 0.761379361 0.146836951
0.708998799 0.754021525 0.124659017
0.732238054 0.743191004 0.101324901
0.751783252 0.729628623 0.080074027
0.770564914 0.715236306 0.062842332
0.789166212 0.702450752 0.050917011
0.808541059 0.692622542 0.041058823
0.838581443 0.691314876 0.039714023
0.869693935 0.697068632 0.051292408
0.900643766 0.705643535 0.073086262
0.547309577 0.786360264 0.282137811
0.551426113 0.787098408 0.281297058
0.566046417 0.788682401 0.281168312
0.592637241 0.793174088 0.279414445
0.624547303 0.797687948 0.274908811
0.658874452 0.800498843 0.265312374
0.692469597 0.801379263 0.249780759
0.722513497 0.799995482 0.230610192
0.748620450 0.795921564 0.207505018
0.772053897 0.789255500 0.180767596
0.790955842 0.779532850 0.149891615
0.808227122 0.767930031 0.124140784
0.825109482 0.756899893 0.106023706
0.840063334 0.745120764 0.092611060
0.858094990 0.738639951 0.086175494
0.884064496 0.739940524 0.089917332
0.915550590 0.755482018 0.111439057
0.612928331 0.815623641 0.345245689
0.616416633 0.816249430 0.345222563
0.629144311 0.818063974 0.344986320
0.652105391 0.821383834 0.344388813
0.679129124 0.824950993 0.339936942
0.708644927 0.827958584 0.335384518
0.737711072 0.830002129 0.326750308
0.765344083 0.830847979 0.314109385
0.790591419 0.829570532 0.296862215
0.812696159 0.826042831 0.275710642
0.831564426 0.820575595 0.251279354
0.846587658 0.813188970 0.223857284
0.859737039 0.804291129 0.197538093
0.872149646 0.794511080 0.171190709
0.884156764 0.784630299 0.149288595
0.901012838 0.781188726 0.142477363
0.926226020 0.790477574 0.167026967
0.680622399 0.841799140 0.407496691
0.683160484 0.842481196 0.407798141
0.691738665 0.843945384 0.407401890
0.708715856 0.845433056 0.404938847
0.731950879 0.848635256 0.403472573
0.757991791 0.852192163 0.401764333
0.784212708 0.854577065 0.395517886
0.809014916 0.855835259 0.386165887
0.831362188 0.855621278 0.374264121
0.850875020 0.854146242 0.360171646
0.867717206 0.851890326 0.344045788
0.881680489 0.848093808 0.324739784
0.892642558 0.842178166 0.303947270
0.901200354 0.834704399 0.278250694
0.909770846 0.827786744 0.257961273
0.920528829 0.820521474 0.240449399
0.942277908 0.825493038 0.254961878
0.754051983 0.868651986 0.483765990
0.755754530 0.869222939 0.483890682
0.762289643 0.870983899 0.484291881
0.775914490 0.872631609 0.483658195
0.795889974 0.874832273 0.481029987
0.816673338 0.878129601 0.479358613
0.837616742 0.879682720 0.476272374
0.857710004 0.880111575 0.470303863
0.875470519 0.880535007 0.461818993
0.890709698 0.880391479 0.451289266
0.904185891 0.879077256 0.438455999
0.916023076 0.876923859 0.422652245
0.926060975 0.874189258 0.404728234
0.935250163 0.870228708 0.387067020
0.942378640 0.865001023 0.368371606
0.950022578 0.860009909 0.351005852
0.957831025 0.855702996 0.334578991
0.019082125 0.021494811 0.037373625
0.039440874 0.023974501 0.028223626
0.093241438 0.028651875 0.027517626
0.160912961 0.031507939 0.026447937
0.233953685 0.032493003 0.024238313
0.301671833 0.032501128 0.021550125
0.362800002 0.035494313 0.019481188
0.417727172 0.037599940 0.018237188
0.467138499 0.039564937 0.017687939
0.512268662 0.041935310 0.017139500
0.552251220 0.046559751 0.016431624
0.587884247 0.054775693 0.016326938
0.622038960 0.065159567 0.016876312
0.653098285 0.081115022 0.018034501
0.682558775 0.100967400 0.019259188
0.711739838 0.122743152 0.018920563
0.746445596 0.150723308 0.018808438
0.020612124 0.037290752 0.037573315
0.041131191 0.044884503 0.043857373
0.084721379 0.053828374 0.045719501
0.134196460 0.061718751 0.045437753
0.193107948 0.070559435 0.044152126
0.258155316 0.076607935 0.041409746
0.324124396 0.082135253 0.037682436
0.384179115 0.086674877 0.033906370
0.438354701 0.089524001 0.030097624
0.489014894 0.092820562 0.027104877
0.535814047 0.097545125 0.024869125
0.579024196 0.103191316 0.022831626
0.619051695 0.110674068 0.021936499
0.653085887 0.119908571 0.022454061
0.683526933 0.132710218 0.022034878
0.714470029 0.149408519 0.023579378
0.748705924 0.170118302 0.025795626
0.022545813 0.102508001 0.056863375
0.052264620 0.097742371 0.057868563
0.091373496 0.090285376 0.052477375
0.119230993 0.076918937 0.047988065
0.148289800 0.072280064 0.044741809
0.192960680 0.076525442 0.043665998
0.250636160 0.084338754 0.041199751
0.313504547 0.091425687 0.037703123
0.375153691 0.097261876 0.033736937
0.431921393 0.101881683 0.029707124
0.484650135 0.106214814 0.026213188
0.534513175 0.111491874 0.023401499
0.580834985 0.118630245 0.022178750
0.622856736 0.126782566 0.022324814
0.659741402 0.137856826 0.021908252
0.694728255 0.153381079 0.022228187
0.733520567 0.172506049 0.022561938
0.028545629 0.201052204 0.070726067
0.074277818 0.192511275 0.076446123
0.121737957 0.175619587 0.066781193
0.162884146 0.154885694 0.057363681
0.181025371 0.123721145 0.051323436
0.192848206 0.100868896 0.046978060
0.220538333 0.093787566 0.044042561
0.265494764 0.096908562 0.041673310
0.317122072 0.101596065 0.038319372
0.371077061 0.106632948 0.034275938
0.423265874 0.111902937 0.030315377
0.474168539 0.117076382 0.026490062
0.524409890 0.123255387 0.023209874
0.572594166 0.130983204 0.021556376
0.617369235 0.141429514 0.021949375
0.660785198 0.154158384 0.021663625
0.704146683 0.172924563 0.020519812
0.039745502 0.297586441 0.074752875
0.099021941 0.299123734 0.085926563
0.157403201 0.287469000 0.076964185
0.203614950 0.255520910 0.064672872
0.247123390 0.230881557 0.054241002
0.268247992 0.194575697 0.049892936
0.268244773 0.153315231 0.047235124
0.279009551 0.130108491 0.044992432
0.307671815 0.122257434 0.042069685
0.347891629 0.121723190 0.038627561
0.392704755 0.124730498 0.035205938
0.437156141 0.128471375 0.031501625
0.483045399 0.133173749 0.027963564
0.529918790 0.139955699 0.025440125
0.575597048 0.147965133 0.024867812
0.621870637 0.159780458 0.024372309
0.672355354 0.176629439 0.022125125
0.064211622 0.384416759 0.070172191
0.129706562 0.393939823 0.088685125
0.193009436 0.390738964 0.081126630
0.250016391 0.366122872 0.066205367
0.291198015 0.332231194 0.053053126
0.332776129 0.306950122 0.043149315
0.360790431 0.273916990 0.039177254
0.364068359 0.228791103 0.040938877
0.362332046 0.189370230 0.041668311
0.374298513 0.165974304 0.040206689
0.399691522 0.155266687 0.038035750
0.432310283 0.152269304 0.035257563
0.470259339 0.153479502 0.032231815
0.511716127 0.157495126 0.030014183
0.553743780 0.162945271 0.028346436
0.597352982 0.172030762 0.027250309
0.648164630 0.186969250 0.024018811
0.111530766 0.461130142 0.066095568
0.170169204 0.473365456 0.090905875
0.227150068 0.474058568 0.081771627
0.289694130 0.463155448 0.067318745
0.338251263 0.434453845 0.049054071
0.374337196 0.401840538 0.039295815
0.414291769 0.377616793 0.031763684
0.449870974 0.353467017 0.028526938
0.458674490 0.309378713 0.029765686
0.454174817 0.262300998 0.032606058
0.455854028 0.227383852 0.035033248
0.466616243 0.204486728 0.035984561
0.487251908 0.192229584 0.034988433
0.516758204 0.187695339 0.033518121
0.552787423 0.188917771 0.031521060
0.592742443 0.194992706 0.029835001
0.642105579 0.208170131 0.026809191
0.168695971 0.528224587 0.069953889
0.217561468 0.540041924 0.094894007
0.268153459 0.545118272 0.086974315
0.325232714 0.540216148 0.071416624
0.379093468 0.523071706 0.056098379
0.420574158 0.495246202 0.039753944
0.454090834 0.466363162 0.028945502
0.491489232 0.442741573 0.025913812
0.524050593 0.421753913 0.022426438
0.540953934 0.387279838 0.022866249
0.543204069 0.343222320 0.026451435
0.541953504 0.301856577 0.030132122
0.545510888 0.270202249 0.031876497
0.556961536 0.249085039 0.032471061
0.577993035 0.237043723 0.032514565
0.607588649 0.234606355 0.033038445
0.650942147 0.243353769 0.034402378
0.230383098 0.585937917 0.077377319
0.270695210 0.597645104 0.104806438
0.310587883 0.602049887 0.096823946
0.362688065 0.601622939 0.081863061
0.415837407 0.594633222 0.065534003
0.462383151 0.577142656 0.050890312
0.499032527 0.553266168 0.037403189
0.527568579 0.524303436 0.028998187
0.560100615 0.502387881 0.026179876
0.588149965 0.481961727 0.022226438
0.615033329 0.460308999 0.021350186
0.626007020 0.424001366 0.022640876
0.627509594 0.383827806 0.025043376
0.629382133 0.349521786 0.027702941
0.635719955 0.321591407 0.031012066
0.651183128 0.305130035 0.035173446
0.684535921 0.304418325 0.041259751
0.295379668 0.636238992 0.097312689
0.325331807 0.646688402 0.127890497
0.356470734 0.649851203 0.120808944
0.403564245 0.652773738 0.109210998
0.455031455 0.651646614 0.092427246
0.501085460 0.643434525 0.074218437
0.539324284 0.627553701 0.056024492
0.570154965 0.605658233 0.039556436
0.595035553 0.579438925 0.029818375
0.623001337 0.558697939 0.026779126
0.650609910 0.540649951 0.024885625
0.681540310 0.526732683 0.022873249
0.699965537 0.501753867 0.023041563
0.705690265 0.468008220 0.025729442
0.710290909 0.434377551 0.030495692
0.718394816 0.407994658 0.036907196
0.744623065 0.399563015 0.045990128
0.358478487 0.680789173 0.135502309
0.380452394 0.688770473 0.164936259
0.407572955 0.692860901 0.160568058
0.449854314 0.697786093 0.152552754
0.496486872 0.699601710 0.138459310
0.540054500 0.695874929 0.118609376
0.577674747 0.687209904 0.096267365
0.608925462 0.672290862 0.072464801
0.636263430 0.653523564 0.051125810
0.659303725 0.631888390 0.033675186
0.683526158 0.612767816 0.027267687
0.708294392 0.596385896 0.026451126
0.739236653 0.588383138 0.025822125
0.762429178 0.572932720 0.026286691
0.776122093 0.547905743 0.029564630
0.787886322 0.523643017 0.035354137
0.812057436 0.514563620 0.047002316
0.420273006 0.720512986 0.182593942
0.440101445 0.727555156 0.210447386
0.462677389 0.731534958 0.206907511
0.498509228 0.736178696 0.201575309
0.538718224 0.739668012 0.191661313
0.578741908 0.738749087 0.174926758
0.615225315 0.734136522 0.152242243
0.647673547 0.725836635 0.128582850
0.675085843 0.712861538 0.103520989
0.698630929 0.696717858 0.079796620
0.718563259 0.678042352 0.055855624
0.738715887 0.662268102 0.041810188
0.760272205 0.648641467 0.036311500
0.790013969 0.643166065 0.035695188
0.818936288 0.637371659 0.037106760
0.840982914 0.627315521 0.044114016
0.866907299 0.623674750 0.058919501
0.483694613 0.756041586 0.234253883
0.500346959 0.762501121 0.260095209
0.518036664 0.765430748 0.257062256
0.547092199 0.769697785 0.254368782
0.582481682 0.774153173 0.249346197
0.619885623 0.775901973 0.237019837
0.655764163 0.774223804 0.217702746
0.687490880 0.769404650 0.193518758
0.715258300 0.761461437 0.168404952
0.737246275 0.750009477 0.142124459
0.756085038 0.735950530 0.118355326
0.773408175 0.720306993 0.095743023
0.790629566 0.706824362 0.079237200
0.809905469 0.695964396 0.068366826
0.839416385 0.694157243 0.065903649
0.870332360 0.699770629 0.076811470
0.900546789 0.707763493 0.098506197
0.546712577 0.788023174 0.292948127
0.558685899 0.792808115 0.312556148
0.573844135 0.795084894 0.313002527
0.599583685 0.799530327 0.311339855
0.632522762 0.804321706 0.308764547
0.666792274 0.807462156 0.300479919
0.699233532 0.808165133 0.286732256
0.728719890 0.806755245 0.269711614
0.754506171 0.802510977 0.247793138
0.777304053 0.795585752 0.221887469
0.795825779 0.785568893 0.192931101
0.812224150 0.773413062 0.165977404
0.827457368 0.761188507 0.141049400
0.841289341 0.749143898 0.120986000
0.859030008 0.741712451 0.111532807
0.884169817 0.742417932 0.112972647
0.916348577 0.758247614 0.138136998
0.612825632 0.816916227 0.353560001
0.622473538 0.820693493 0.367991388
0.636016250 0.822842658 0.368391752
0.658806443 0.826302946 0.367959380
0.685231507 0.830362082 0.365689248
0.714586377 0.833454490 0.362735212
0.743092597 0.835025370 0.354117513
0.770367146 0.835590482 0.341911554
0.795320332 0.834221363 0.325942338
0.816755831 0.830861449 0.306076884
0.834993482 0.825737655 0.283434212
0.849782467 0.818105698 0.258962125
0.862178922 0.808603942 0.233893454
0.874064863 0.798717380 0.206508264
0.885054827 0.787648499 0.180942267
0.901065588 0.783950329 0.173267916
0.927410364 0.793186426 0.195825011
0.680894494 0.842612803 0.413884103
0.688541174 0.845724165 0.426487237
0.697057843 0.847202063 0.426334113
0.713426292 0.849152923 0.424601585
0.735966742 0.852340937 0.423274785
0.762295783 0.855836749 0.422758013
0.788574278 0.858479917 0.417497903
0.813150525 0.859776139 0.408299536
0.835021555 0.859328628 0.395996392
0.854041636 0.857714951 0.381797045
0.870478511 0.855535686 0.366037697
0.883847594 0.851559639 0.346595585
0.894291937 0.845644534 0.325936168
0.902916193 0.838571608 0.302803963
0.911542654 0.830938816 0.280884147
0.920970798 0.822816491 0.262731224
0.942420602 0.827164173 0.273930103
0.754234791 0.869778872 0.489316016
0.759367585 0.872007370 0.498039454
0.766566873 0.873198628 0.498102009
0.778996110 0.875362158 0.497128069
0.798236549 0.878081203 0.496891737
0.819382310 0.880989075 0.495814681
0.840570152 0.882726848 0.493392080
0.860746741 0.883240581 0.488129497
0.878101766 0.883606732 0.480048627
0.892662823 0.883244395 0.469386756
0.905651748 0.881881118 0.455796748
0.917053103 0.879912853 0.439265072
0.926977754 0.876884818 0.421546459
0.936789870 0.872864962 0.404512793
0.943125546 0.867718935 0.384696454
0.950970352 0.862120271 0.366137147
0.958462834 0.857564926 0.349619299
0.018931501 0.022210125 0.064238876
0.039768875 0.025507063 0.069577128
0.068824247 0.027867751 0.038120747
0.123062633 0.031110689 0.032784812
0.198350638 0.033681996 0.030618001
0.277003109 0.030713188 0.027731188
0.347661495 0.027835498 0.023940124
0.410087615 0.025942374 0.021415187
0.464327991 0.024703374 0.020099126
0.512502491 0.028727815 0.019765688
0.556191266 0.037516750 0.020065499
0.595241666 0.050115813 0.020989375
0.631948411 0.067066133 0.022597875
0.667122781 0.088353708 0.024688814
0.696989357 0.107562527 0.025702000
0.725382090 0.131020278 0.026790762
0.759619832 0.162358120 0.037644252
0.019215500 0.031251937 0.051022187
0.038459688 0.048819810 0.078321993
0.079725690 0.051810503 0.061583124
0.138458312 0.061318688 0.058251437
0.211458996 0.072434321 0.058522686
0.287131816 0.081651434 0.057451937
0.357632279 0.088703804 0.054583624
0.418588668 0.093579695 0.050914682
0.474539846 0.099530563 0.048084188
0.525098741 0.106161870 0.045638125
0.571014464 0.115078621 0.044068623
0.614208579 0.126509994 0.042748809
0.652543008 0.137273252 0.040860936
0.683547318 0.148995876 0.040532000
0.708112299 0.154486328 0.038096569
0.736030281 0.169903398 0.041657072
0.769014955 0.193005621 0.052253559
0.022085126 0.073155254 0.070453495
0.044655185 0.090620756 0.087429181
0.095111504 0.100759879 0.089355752
0.149185568 0.108891748 0.089484312
0.202130869 0.117712125 0.087873131
0.257891774 0.125660628 0.085595816
0.316430151 0.134580880 0.081878625
0.373409331 0.141068131 0.078445002
0.428400040 0.146643251 0.075051129
0.481997311 0.152578071 0.071113750
0.532790780 0.159302875 0.067084625
0.580106199 0.166149318 0.063377626
0.624216557 0.173713505 0.060973622
0.664126754 0.183602214 0.060661875
0.700038970 0.194478020 0.061371751
0.732559025 0.207067654 0.064343072
0.771973491 0.227218747 0.071881875
0.024940688 0.156062827 0.099999756
0.056119818 0.164325520 0.106251195
0.110549890 0.162940532 0.104497880
0.163179323 0.160005644 0.099164188
0.201183885 0.143733397 0.092260621
0.233124495 0.134174317 0.084996812
0.268183649 0.132619947 0.079720125
0.309823513 0.135244444 0.074644871
0.359045446 0.140300572 0.071068250
0.412912816 0.146941438 0.067721188
0.467418015 0.154539376 0.064478934
0.520463467 0.162454873 0.061420623
0.569889724 0.170352682 0.058221623
0.615945280 0.179570079 0.055746935
0.658648610 0.190287396 0.055370819
0.701308310 0.204559088 0.057844691
0.746652424 0.226072818 0.065426752
0.033308376 0.276718497 0.125730753
0.076817937 0.274466932 0.128567427
0.144959629 0.263848633 0.129610494
0.195389956 0.249382243 0.116994306
0.244020998 0.231599882 0.101858497
0.272599071 0.201014131 0.093240499
0.286457509 0.171167627 0.084915504
0.301291168 0.153221130 0.077323556
0.328426242 0.147628874 0.072318375
0.366392910 0.148002818 0.068161622
0.412155867 0.152658254 0.064723879
0.461780399 0.160054803 0.061904561
0.511586428 0.167765260 0.058512874
0.560114980 0.176602960 0.055477686
0.609401047 0.187351763 0.054917626
0.658011138 0.200829327 0.054748133
