public/luts/pro-movie-03.cube
TITLE "17x17x17 Adobe/IRIDAS cube 3D LUT exported with GrossGrade v0.2.2 (beta) 64 bit"
DOMAIN_MIN 0 0 0
DOMAIN_MAX 1 1 1
LUT_3D_SIZE 17
0.000000000 0.000000000 0.000000000
0.024341250 0.004985625 0.006676875
0.058673248 0.010483125 0.011899500
0.122741386 0.021881003 0.014540939
0.194997504 0.036791001 0.017177751
0.266875386 0.050682873 0.022909626
0.340712875 0.064257883 0.030844625
0.414009273 0.079241574 0.037496753
0.483501017 0.095388502 0.040934499
0.550317824 0.110075936 0.042165063
0.615173757 0.122810751 0.044278748
0.678070009 0.135888562 0.049042501
0.743725538 0.150232002 0.054044001
0.816033602 0.165942460 0.056924377
0.891817689 0.179707766 0.060281254
0.962035656 0.194083512 0.063989699
0.986976027 0.202160999 0.068980001
0.007476563 0.037864689 0.016133439
0.023953125 0.035794687 0.016667813
0.064233370 0.042652812 0.015920311
0.136036456 0.054237254 0.016916562
0.207950935 0.066019252 0.018435875
0.276321054 0.077173874 0.024771251
0.345711350 0.088653497 0.031929001
0.415222198 0.100576259 0.036157813
0.483293951 0.112853937 0.038212940
0.548944473 0.124899752 0.040389813
0.612506568 0.136264071 0.044142623
0.675862193 0.147915110 0.049777187
0.742407680 0.160782814 0.055267438
0.815063894 0.174851701 0.058305126
0.891322374 0.188063771 0.061832882
0.962346375 0.202271000 0.065221757
0.986990035 0.209604740 0.069912814
0.024732124 0.096025877 0.032004375
0.035553560 0.095245622 0.031972624
0.049203873 0.088931873 0.033094998
0.110989586 0.094757006 0.027714062
0.200073630 0.104943380 0.024728626
0.278195262 0.114914060 0.025739938
0.349310756 0.124617130 0.030686250
0.417438596 0.134718552 0.033950876
0.482535779 0.144715369 0.035690501
0.545922041 0.154588491 0.040222377
0.608192444 0.164258122 0.046616875
0.670885086 0.173926443 0.051718187
0.737651110 0.184687629 0.055482626
0.811212540 0.197372019 0.058122627
0.888834178 0.210200250 0.061564632
0.962326288 0.223953307 0.065187186
0.986968279 0.229754373 0.068366751
0.047254071 0.163282454 0.057071943
0.056808691 0.163035512 0.055930503
0.069297008 0.160234511 0.049290448
0.089169078 0.145552754 0.048072569
0.166779637 0.148799136 0.047072627
0.261314422 0.158516645 0.038212322
0.345036179 0.166077957 0.035213001
0.417190522 0.173877001 0.036634065
0.482390076 0.181860581 0.038121816
0.544755161 0.190147698 0.039917376
0.606266201 0.198709324 0.044887625
0.668968022 0.207378834 0.050313689
0.735884726 0.216847017 0.053805504
0.808534443 0.228147656 0.056091126
0.887569427 0.240746647 0.058280755
0.961340904 0.252199173 0.064924814
0.986891866 0.257650375 0.067940377
0.073201254 0.235466003 0.086643502
0.081621125 0.235514939 0.086695813
0.095771998 0.234172761 0.083922252
0.106434450 0.230077758 0.075471386
0.158017740 0.202729002 0.070296749
0.236521438 0.206975386 0.068585001
0.332300514 0.219780877 0.054446749
0.414643884 0.224229947 0.047439124
0.483125776 0.227576002 0.045910001
0.545067310 0.232501686 0.046679813
0.606070995 0.239349753 0.048224375
0.668067038 0.246912748 0.050935436
0.734864056 0.255562246 0.054248001
0.808102846 0.266160429 0.058778375
0.887225568 0.278034002 0.060552124
0.962221622 0.288924456 0.062984124
0.986941755 0.293773770 0.066013247
0.103587627 0.314548582 0.122570500
0.110628128 0.314563066 0.122688755
0.125912562 0.314435869 0.122004434
0.133306012 0.314217746 0.122306496
0.173831880 0.303806484 0.094453871
0.238008797 0.262842506 0.096896373
0.318712920 0.269907504 0.091257617
0.411026061 0.287591696 0.073083311
0.487078160 0.291856736 0.061984308
0.550472796 0.291082144 0.058380872
0.609307051 0.291583329 0.058347311
0.669481695 0.295278311 0.059288248
0.734373152 0.301560193 0.060941685
0.807343900 0.310450941 0.064430378
0.886437178 0.320861101 0.066914380
0.962772012 0.331322879 0.069292001
0.986976385 0.335538179 0.072856374
0.136658251 0.396433890 0.159359887
0.142734513 0.396772027 0.159539253
0.157487631 0.396473020 0.159955636
0.169916198 0.397381872 0.164634690
0.168095514 0.394285142 0.154040888
0.273080051 0.378191262 0.112373888
0.324579149 0.328786254 0.122092009
0.403692931 0.335202873 0.114458874
0.489360392 0.357913017 0.095062628
0.559351683 0.366368592 0.079583257
0.618623674 0.364811391 0.072955884
0.676060796 0.361804277 0.071257010
0.737996757 0.361382902 0.071754128
0.808339119 0.364475340 0.073121376
0.886872053 0.371395648 0.075306505
0.962543190 0.379920781 0.078686953
0.987052619 0.383557886 0.082580753
0.168867767 0.475015342 0.194360882
0.174251437 0.475716412 0.194405705
0.188784897 0.475336879 0.194912389
0.204710007 0.476510465 0.201869577
0.193687648 0.475515604 0.200754702
0.249475986 0.468860656 0.164957732
0.375309318 0.449400336 0.137290582
0.410540223 0.395115912 0.145493329
0.485659957 0.399823636 0.138552949
0.564172506 0.425842017 0.121298514
0.629272342 0.439886242 0.100543156
0.686761200 0.441238403 0.088675834
0.746526420 0.437826157 0.084523946
0.813237190 0.434129715 0.083700322
0.888969660 0.433999658 0.084584199
0.962876499 0.437744111 0.087010011
0.987194598 0.440653354 0.091032699
0.199458003 0.548168540 0.225975007
0.204125077 0.548899591 0.226089060
0.217641011 0.548688531 0.226853892
0.235203758 0.549293160 0.233879566
0.231223509 0.549008787 0.236769021
0.231615871 0.545338571 0.220351279
0.363854408 0.536029041 0.150496900
0.466740608 0.513841808 0.167647630
0.491849542 0.458646029 0.169484496
0.561637461 0.462400883 0.164112121
0.633299708 0.488658905 0.148602009
0.696475148 0.507645488 0.123060957
0.756302714 0.513883770 0.105771251
0.820888460 0.511850119 0.097967692
0.892270207 0.507095993 0.095886506
0.963588119 0.505955398 0.096492946
0.987267017 0.508134007 0.100142002
0.227076307 0.614169419 0.253137112
0.231006175 0.614401281 0.253332555
0.244097307 0.615163028 0.255393505
0.261189938 0.615635693 0.261828452
0.264212370 0.615658879 0.266398460
0.228428870 0.613244772 0.262310624
0.327660471 0.605729699 0.210347801
0.475840747 0.596180856 0.155571967
0.547042787 0.572386146 0.198115140
0.567900121 0.520792305 0.194763690
0.630510628 0.523039699 0.190167695
0.698348999 0.547586262 0.174712822
0.763721883 0.570100546 0.147713363
0.827882051 0.579815984 0.124095298
0.896471381 0.579688013 0.112223625
0.964074612 0.578018725 0.109118000
0.987319767 0.579840481 0.112424940
0.251400113 0.673278213 0.276740372
0.255020380 0.673139155 0.276997447
0.268097758 0.674390137 0.280111223
0.284187764 0.675514579 0.286675930
0.290094376 0.675810218 0.291769773
0.253058493 0.674329460 0.292595446
0.292059302 0.668202281 0.264275968
0.450400442 0.659658790 0.189719617
0.567305982 0.651936948 0.193022653
0.617162466 0.625928640 0.226597801
0.637998641 0.581092894 0.221080258
0.695768595 0.581470370 0.216328070
0.763738394 0.604048610 0.201392621
0.831998944 0.627648175 0.172381237
0.899881780 0.639782906 0.142706737
0.964456379 0.643614411 0.128776625
0.987074494 0.645794392 0.131291002
0.274858236 0.729652286 0.298542887
0.278461665 0.729758859 0.299078494
0.290731877 0.730286360 0.302606434
0.305804998 0.731249630 0.309166491
0.312639296 0.731517553 0.314764529
0.288466305 0.730708182 0.317062318
0.278162003 0.726340353 0.303168207
0.410588562 0.718379915 0.241815716
0.553407431 0.711722732 0.174809948
0.642655551 0.704625309 0.234415993
0.681760490 0.675556600 0.254560858
0.704049230 0.637355387 0.248638690
0.761285722 0.637002647 0.243617982
0.830598950 0.658038020 0.227296963
0.900462389 0.681546688 0.196113348
0.964002848 0.695358574 0.167604819
0.986009479 0.698822200 0.167743191
0.298173755 0.785687566 0.320185512
0.301442921 0.785948694 0.320853889
0.313057005 0.786258876 0.324939877
0.327532113 0.786902666 0.331271559
0.334513009 0.787096739 0.337103754
0.316925406 0.786574721 0.340225577
0.272505909 0.784158468 0.334399998
0.362606615 0.777279019 0.296004236
0.526625514 0.769475520 0.218951494
0.636614382 0.764465690 0.189031422
0.712518513 0.756861210 0.269464225
0.747048378 0.726539850 0.283959836
0.770039797 0.690520048 0.277567744
0.827831209 0.690418243 0.272013038
0.898010075 0.710047245 0.254298866
0.961191714 0.731027722 0.228613257
0.983990014 0.735882998 0.228406265
0.322499841 0.842426419 0.343038023
0.325695038 0.842661858 0.344065517
0.336889386 0.843492270 0.348381698
0.350831091 0.844562888 0.354965419
0.357888579 0.844895720 0.360635966
0.343509853 0.844169319 0.363756031
0.289929748 0.842407286 0.362522602
0.336724669 0.837824762 0.340039492
0.489741743 0.830323219 0.280292004
0.616468728 0.824044108 0.211060122
0.710644245 0.820119679 0.228948474
0.781090796 0.812118053 0.302666843
0.814417720 0.781473100 0.315705091
0.837302744 0.743216574 0.308370262
0.895189226 0.742078960 0.302700818
0.957193613 0.758596122 0.289670557
0.980854809 0.762728214 0.291042179
0.349702656 0.899134815 0.367386520
0.352790207 0.899414778 0.368511766
0.362535238 0.899722159 0.372276664
0.374795079 0.900278926 0.378509462
0.382204294 0.900266409 0.384393781
0.369810641 0.899979770 0.387711346
0.317985117 0.898404181 0.388466299
0.315468729 0.895187616 0.376200378
0.440000623 0.890171647 0.338755906
0.584846914 0.884388030 0.269532293
0.692897201 0.880100429 0.213330284
0.781622291 0.876714230 0.270180583
0.849764884 0.867782176 0.335973740
0.881826639 0.834837437 0.347577214
0.903789520 0.795298040 0.339302510
0.954526961 0.792536139 0.336457103
0.978457093 0.794731915 0.337620884
0.373496920 0.931521297 0.388535321
0.376309931 0.931525052 0.389462292
0.385132909 0.931537092 0.392685711
0.396125078 0.931570351 0.398743153
0.403209865 0.931606591 0.405071825
0.392021984 0.931589365 0.408859909
0.346958131 0.931608975 0.410816848
0.301411808 0.931540847 0.403461725
0.389164984 0.931232631 0.377407908
0.553986251 0.930684328 0.326763362
0.670666277 0.929974914 0.251737952
0.769638360 0.928851008 0.227268621
0.853780508 0.926170349 0.318369061
0.915042937 0.914164901 0.369911939
0.939946532 0.874408722 0.373483568
0.959770739 0.839355171 0.365769774
0.979651332 0.838285446 0.367175072
0.378805995 0.948100984 0.391869992
0.381153494 0.948104739 0.392728746
0.389381021 0.948054254 0.395877361
0.398914129 0.948068142 0.401695311
0.405420005 0.948098540 0.408567011
0.392223239 0.948098779 0.412190259
0.342942625 0.948096275 0.414240241
0.302126199 0.948161125 0.407572359
0.391656041 0.948202014 0.383107990
0.552777052 0.948240697 0.333557814
0.671653748 0.948289633 0.255578250
0.771666288 0.947718084 0.227732301
0.856725514 0.945526004 0.324539483
0.919842899 0.935239851 0.378455490
0.943912268 0.898323536 0.381857365
0.962215781 0.862590134 0.373461932
0.980332017 0.860342026 0.374226004
0.006073125 0.016339688 0.052099690
0.024750937 0.017709376 0.054291565
0.046710435 0.017118625 0.051262937
0.099784091 0.014436503 0.046647619
0.173772693 0.022193003 0.038162187
0.253166735 0.036599874 0.038656376
0.334621638 0.053637877 0.043392126
0.412760735 0.071153574 0.047528937
0.485332727 0.089579754 0.049619313
0.553068280 0.106554002 0.051221315
0.617502689 0.121141814 0.053211249
0.680224717 0.135302946 0.056201875
0.745013654 0.149344012 0.060277376
0.816761494 0.164878398 0.062378567
0.892317951 0.179744959 0.065326437
0.961772561 0.194406018 0.068911508
0.986979783 0.202837884 0.074517816
0.009507188 0.047265932 0.056324065
0.026517188 0.046664998 0.056277189
0.063892439 0.048146252 0.051552814
0.125821710 0.054414753 0.047961183
0.193861812 0.063048504 0.044877127
0.265714079 0.074192189 0.044647440
0.340771943 0.086792573 0.046376809
0.414760619 0.100631572 0.048828311
0.484127223 0.113784760 0.050024685
0.550117612 0.127188995 0.051537439
0.614650607 0.139601558 0.054698501
0.678043485 0.150251701 0.059030939
0.743626714 0.162685260 0.063693434
0.815761566 0.176257193 0.066132493
0.891791880 0.190162376 0.068774253
0.962305367 0.204368681 0.071795814
0.986991942 0.211473182 0.076963753
0.017799251 0.097492620 0.059470750
0.031249750 0.097631060 0.062200248
0.053348187 0.093994819 0.062520251
0.122645125 0.100206129 0.052267060
0.205094129 0.109065875 0.048183624
0.277830184 0.118143752 0.046878688
0.347944260 0.127512321 0.047772564
0.416836143 0.137785077 0.048498504
0.482381016 0.147604927 0.049500003
0.545944571 0.157407552 0.052063439
0.609088540 0.167400375 0.056586996
0.672427833 0.177054748 0.061390944
0.739040673 0.188368067 0.065073878
0.812718928 0.201159447 0.067222878
0.889784276 0.214131892 0.068878256
0.962294281 0.227150753 0.071480259
0.986971021 0.232277319 0.076511435
0.041069504 0.161879838 0.063811757
0.051795758 0.162670702 0.064972386
0.066227317 0.161136702 0.063832507
0.089690387 0.150479570 0.068374813
0.174093932 0.153488949 0.065352008
0.266760975 0.161121204 0.056354880
0.346809506 0.168588638 0.052514941
0.417264998 0.175978258 0.051879629
0.482377589 0.184508190 0.051302128
0.544680953 0.192733213 0.051958069
0.606273592 0.201064318 0.055558685
0.669184327 0.209797621 0.059913121
0.735883057 0.219489962 0.062686190
0.808843613 0.230725840 0.064148754
0.888324261 0.243198842 0.064820006
0.961626768 0.254654855 0.070145138
0.986893892 0.260220051 0.075563565
0.068808310 0.234188378 0.083412692
0.077731058 0.234473005 0.083165191
0.093004562 0.234233826 0.083275370
0.103900887 0.231337681 0.080971248
0.157287076 0.207478940 0.084361874
0.239641011 0.211592451 0.083022125
0.334935695 0.221365318 0.068910941
0.415435731 0.224876255 0.062067874
0.482448757 0.228219494 0.059138186
0.544568121 0.234260827 0.058863439
0.605961323 0.241395012 0.060166441
0.668075562 0.249072999 0.062749811
0.734889984 0.257904202 0.065458804
0.808315635 0.268322885 0.067737684
0.887294888 0.279890060 0.067741998
0.962309480 0.290712714 0.069969378
0.986944437 0.295416445 0.075139433
0.100605994 0.313868552 0.119480625
0.107813001 0.313921064 0.119405568
0.123672374 0.314195991 0.119804554
0.132773638 0.313924074 0.124668129
0.166878134 0.306478441 0.105765194
0.238415062 0.267160058 0.108969562
0.319392800 0.273987800 0.102726430
0.411569655 0.289466500 0.084521748
0.486848146 0.291988313 0.074178874
0.549432993 0.290919393 0.069898814
0.608566880 0.292217702 0.069361247
0.669008791 0.296399713 0.069907561
0.734071195 0.303069443 0.071515247
0.807283700 0.312023818 0.073937058
0.886252999 0.322279900 0.075562313
0.962607682 0.332845718 0.077432312
0.986979246 0.336845994 0.081613436
0.134423256 0.396342039 0.158553630
0.140819520 0.396802664 0.158647701
0.155501500 0.396126509 0.159142315
0.169979066 0.397400439 0.166724592
0.163549393 0.394782722 0.160454005
0.268067658 0.380338103 0.122345082
0.325169146 0.332717210 0.132975444
0.404304653 0.339373082 0.124690443
0.489710987 0.360601723 0.104800075
0.558816910 0.366686374 0.089734882
0.617600143 0.364337504 0.082939573
0.675178289 0.361623943 0.080730759
0.737405360 0.361620516 0.080722325
0.808083236 0.365224093 0.081739694
0.886874378 0.372475773 0.083762564
0.962300837 0.380941093 0.086546443
0.987055421 0.384726316 0.090347312
0.167068139 0.474941671 0.194140211
0.172850639 0.475633740 0.194119960
0.187309265 0.475638121 0.194901332
0.204249769 0.476413518 0.203163207
0.194232896 0.475668401 0.204710752
0.242639601 0.469324231 0.172336087
0.373361707 0.450659394 0.144625336
0.411740035 0.398602664 0.155076638
0.486417353 0.403622121 0.147634640
0.564412415 0.428639889 0.129266769
0.628856599 0.440603971 0.108550526
0.686112881 0.441024721 0.097160764
0.745739937 0.437302202 0.092873260
0.812560320 0.433802903 0.091641322
0.888937593 0.434425980 0.092225067
0.962876678 0.438242525 0.094091199
0.987197399 0.441340536 0.097853005
0.197625518 0.547510862 0.225892827
0.202859759 0.548371673 0.225941315
0.216484442 0.548801124 0.227440000
0.234110877 0.549046338 0.235037073
0.232860252 0.549205780 0.239722624
0.227779642 0.544977903 0.225361273
0.358828038 0.536540508 0.156523168
0.466247350 0.515202045 0.174242824
0.492922485 0.461739808 0.177753568
0.562121928 0.465392292 0.171778336
0.633541822 0.491252512 0.155223757
0.696409822 0.508867860 0.129922062
0.755826533 0.513987303 0.113486938
0.820042908 0.511207044 0.105584443
0.891965389 0.506769478 0.103171252
0.963654757 0.505978048 0.103197195
0.987269342 0.508361816 0.106483564
0.225487068 0.613507807 0.253366858
0.230029181 0.613974452 0.253517300
0.243087932 0.614713013 0.255991697
0.260264486 0.615432739 0.263084829
0.264632583 0.615697920 0.268681198
0.229466692 0.613250077 0.265848368
0.322637796 0.605800033 0.215902537
0.472572982 0.596898675 0.159550637
0.546913505 0.573809087 0.204784259
0.568356574 0.523052633 0.202005073
0.631014109 0.525353491 0.197041318
0.698785305 0.549815357 0.180844367
0.763786316 0.571436524 0.153928563
0.827374816 0.579979897 0.130565926
0.896043658 0.579273045 0.118907496
0.964048386 0.577711761 0.115731001
0.987321615 0.579752922 0.118782684
0.250177234 0.673156023 0.276754975
0.254199117 0.673063040 0.277079940
0.267155111 0.673974812 0.280276239
0.283556551 0.675475001 0.287458062
0.289958060 0.675845325 0.293485761
0.255027175 0.674379230 0.294968694
0.290066719 0.668600142 0.268825591
0.446655691 0.660083711 0.194868937
0.564954638 0.652346253 0.196457580
0.617077470 0.626989961 0.232843310
0.638331234 0.582486928 0.227500632
0.696251094 0.583372951 0.222553805
0.764181793 0.605725050 0.206964925
0.832062900 0.628850400 0.177432477
0.899461865 0.639984667 0.148128480
0.964473009 0.643525004 0.134837314
0.987112403 0.645707011 0.137303755
0.273662627 0.729655802 0.298204422
0.277547300 0.729805768 0.298806310
0.289863229 0.730243742 0.302746624
0.305104673 0.731061518 0.309647739
0.312343180 0.731510639 0.316241622
0.289190590 0.730695248 0.318899512
0.274880737 0.726643860 0.306407928
0.406825006 0.718729019 0.246398658
0.551284134 0.711792827 0.178837836
0.641249955 0.704879999 0.238205999
0.681567013 0.676624238 0.260014176
0.704192698 0.638568223 0.254309326
0.761630714 0.638455689 0.248904616
0.830793500 0.659372509 0.232357845
0.900390506 0.682484329 0.200689718
0.964064837 0.695878208 0.172469124
0.986105084 0.699288428 0.172647879
0.297316730 0.785669923 0.319973558
0.300853074 0.786095560 0.320671797
0.312537521 0.786399305 0.325209826
0.326971591 0.786600232 0.331773430
0.334193200 0.786978185 0.338402778
0.317008644 0.786586165 0.341817379
0.270422429 0.784394860 0.336832166
0.357678324 0.777519763 0.299749315
0.523879051 0.769535720 0.222950682
0.635040224 0.764431894 0.191997066
0.711632729 0.757400692 0.273327857
0.747034609 0.727674961 0.289051682
0.769991398 0.691612124 0.282723397
0.827979028 0.691397905 0.276868671
0.898051858 0.711148977 0.258920014
0.961301982 0.731988907 0.232576087
0.984072387 0.736945987 0.232475832
0.321525037 0.842342138 0.342720240
0.325059205 0.842563450 0.343857050
0.336255014 0.843257666 0.348165154
0.350117266 0.844394147 0.354881287
0.357444376 0.844873726 0.361278325
0.343117684 0.844213605 0.364782959
0.290283561 0.842548728 0.364187479
0.334640950 0.837864220 0.342811078
0.486256421 0.830341458 0.284026444
0.614295304 0.824121296 0.214713424
0.709362149 0.820275307 0.231462121
0.780363202 0.812733293 0.306103200
0.814549327 0.782476127 0.320016444
0.837422013 0.744200945 0.312853038
0.895271361 0.742921531 0.306949705
0.957197309 0.759597301 0.293875039
0.980880558 0.763860881 0.295138299
0.348765224 0.898971677 0.367043197
0.352184415 0.898991883 0.368202418
0.361896932 0.899307311 0.372231156
0.374140382 0.900074482 0.378344357
0.381784081 0.900083840 0.385035157
0.369449317 0.899840772 0.388667256
0.317911476 0.898504674 0.389849365
0.313816518 0.895364165 0.378370911
0.437356651 0.890312076 0.341560394
0.582783520 0.884491026 0.272726357
0.691286325 0.880142331 0.216217965
0.780779243 0.876788735 0.272458225
0.849384665 0.868229806 0.339175075
0.882143259 0.835737646 0.351479352
0.904134452 0.796241045 0.343362272
0.954736352 0.793334842 0.340252697
0.978500843 0.795491219 0.341402650
0.372776300 0.931522250 0.388269335
0.375809133 0.931523144 0.389215142
0.384716302 0.931539059 0.392811984
0.395614266 0.931572258 0.398873508
0.402931035 0.931608438 0.405785024
0.391771734 0.931591272 0.409787506
0.346959829 0.931610882 0.411847860
0.300593734 0.931545377 0.405020028
0.386914343 0.931276500 0.379653960
0.551631212 0.930727243 0.329446256
0.668953300 0.929971516 0.253952622
0.768330693 0.928840876 0.228797168
0.852948546 0.926228523 0.320589811
0.915055454 0.914599001 0.373039275
0.940394282 0.875126243 0.377016246
0.959866226 0.840004802 0.369368404
0.979794085 0.838701487 0.370750070
0.378129125 0.948101938 0.391253114
0.380689442 0.948036313 0.392157793
0.388821572 0.948051453 0.395359814
0.398543715 0.948069990 0.401459426
0.405159175 0.948100388 0.408941627
0.391933501 0.948100626 0.412748039
0.342741370 0.948098123 0.414995581
0.303064227 0.948164165 0.408795804
0.391496241 0.948204756 0.384898186
0.550937235 0.948242545 0.336012572
0.670117199 0.948291123 0.257876247
0.770763099 0.947719932 0.229186356
0.856121242 0.945623517 0.326572925
0.919962525 0.935630620 0.381741822
0.944280863 0.898851454 0.385049045
0.962238550 0.863098025 0.376722813
0.980359197 0.860991657 0.377647877
0.013676625 0.034674376 0.105078749
0.029796813 0.033819810 0.105772629
0.049801126 0.033064127 0.108376622
0.089813262 0.014524250 0.108658746
0.156612366 0.015754750 0.098827004
0.237253755 0.025434624 0.081323691
0.324602753 0.036016881 0.067682751
0.410743028 0.050207820 0.065418243
0.488416016 0.066603750 0.067749500
0.558430672 0.085606873 0.071156874
0.623389006 0.104657754 0.074785501
0.685839534 0.122466683 0.076793000
0.750114262 0.140143871 0.078846008
0.820006430 0.157928690 0.082196385
0.892225146 0.174499631 0.087874010
0.962227702 0.190383449 0.092806756
0.986984372 0.197989136 0.098448128
0.017584063 0.067242123 0.108635500
0.031785309 0.065529063 0.108549252
0.052468628 0.060355499 0.108957008
0.093391769 0.044408433 0.107638434
0.163744241 0.044864628 0.096878693
0.244331837 0.052260436 0.082350627
0.328892589 0.064211197 0.072467558
0.411292970 0.080278628 0.070730999
0.487450927 0.097561002 0.073645249
0.556774974 0.114518940 0.076949194
0.621056557 0.130116239 0.079924628
0.683724463 0.143988326 0.082652122
0.748765051 0.158109874 0.086083062
0.819044113 0.173528582 0.090209566
0.892875075 0.189083576 0.095153809
0.961936653 0.203131944 0.098380499
0.986996531 0.209498808 0.102965184
0.015890624 0.103843622 0.113463625
0.028878249 0.105210565 0.115165874
0.054373998 0.105271131 0.115636125
0.118698940 0.104794189 0.101843998
0.191832125 0.109121382 0.094515130
0.265581131 0.117844559 0.089867875
0.340754509 0.129370123 0.088759251
0.414080948 0.141740382 0.089506999
0.484609008 0.154037252 0.091553375
0.551029444 0.164955989 0.093014881
0.614618123 0.175287873 0.094809003
0.677976668 0.185484380 0.097531065
0.743599236 0.197029874 0.100313246
0.814950228 0.208974764 0.102147818
0.891407549 0.222176388 0.104741998
0.962513387 0.234483808 0.107113503
0.986894965 0.238929376 0.110363625
0.025996756 0.161038145 0.113756254
0.036972694 0.161339894 0.114146367
0.055437133 0.162090272 0.123111382
0.098086320 0.156904832 0.118237197
0.187763870 0.159305513 0.101780072
0.273720264 0.165200561 0.091886193
0.347915381 0.172980636 0.088858694
0.417255819 0.182427764 0.088959061
0.482468843 0.191359013 0.089275807
0.545578599 0.199825510 0.090396315
0.608033776 0.208825141 0.092381559
0.671120107 0.218144760 0.094667062
0.737344265 0.228415251 0.096655630
0.810163796 0.239645213 0.098934002
0.889348328 0.251952946 0.101966314
0.962141395 0.264006495 0.104961380
0.986877263 0.268853426 0.108845502
0.056163251 0.231906146 0.106519498
0.064836249 0.232533261 0.107392505
0.081763625 0.232792258 0.110165998
0.098901704 0.231776312 0.110089436
0.156464890 0.217258632 0.120880120
0.248267740 0.218974501 0.115779623
0.340340793 0.223007888 0.100427754
0.416414440 0.226400062 0.093698934
0.482638776 0.232601881 0.092060745
0.544585764 0.239567444 0.091982439
0.605926573 0.246944264 0.093217999
0.668344378 0.255061209 0.095378190
0.734991312 0.263767272 0.096873000
0.808021963 0.273870349 0.098094314
0.887162566 0.285967886 0.100142621
0.962338507 0.296938628 0.103004068
