public/luts/screen-style-03.cube
TITLE "Generated by Resolve"
LUT_3D_SIZE 33
0.00485237 0.0260166 0.02533
0.0181735 0.0296483 0.0270237
0.0428016 0.033051 0.0276951
0.0585946 0.036347 0.0277562
0.0715953 0.0396582 0.0275578
0.0893873 0.0427558 0.0272984
0.110552 0.0451362 0.0267185
0.13753 0.0466163 0.0250706
0.162356 0.0482338 0.0233463
0.185168 0.0498054 0.0216526
0.207202 0.050782 0.0189364
0.228428 0.051545 0.016144
0.250477 0.0502174 0.0115663
0.272358 0.0484932 0.00679026
0.294957 0.0445106 0.00030518
0.318303 0.0396429 0
0.340871 0.0330968 0
0.364691 0.0276188 0
0.387503 0.0190585 0
0.408713 0.00537118 0
0.429831 0 0
0.450324 0 0
0.469505 0 0
0.48954 0 0
0.509682 0 0
0.530785 0 0
0.5523 0 0
0.575189 0 0
0.597299 0 0
0.619715 0 0
0.64239 0 0
0.666224 0 0
0.694682 0 0
0.00292973 0.0364691 0.0305486
0.0139773 0.0401617 0.0314488
0.0445869 0.0435035 0.0316167
0.0637217 0.0470436 0.0316777
0.0787213 0.0510262 0.031693
0.100053 0.0542306 0.0310063
0.125124 0.0568856 0.0300145
0.153628 0.0586252 0.0284123
0.179889 0.0602884 0.0260929
0.204044 0.0620127 0.0238499
0.227771 0.0633097 0.0208896
0.249744 0.0637217 0.0171511
0.273335 0.0626078 0.0114748
0.295323 0.0612345 0.00646983
0.320104 0.0578317 0
0.34342 0.053254 0
0.367864 0.0495155 0
0.39147 0.0448615 0
0.414038 0.040238 0
0.435325 0.0348516 0
0.456764 0.029099 0
0.475746 0.0171054 0
0.494652 0.0040589 0
0.51397 0 0
0.533761 0 0
0.554284 0 0
0.575586 0 0
0.597375 0 0
0.619318 0 0
0.640528 0 0
0.662272 0 0
0.685359 0 0
0.71191 0 0
0 0.0524758 0.0350195
0.00112917 0.0565347 0.0358892
0.0335546 0.0605631 0.0360418
0.0612802 0.0647135 0.035172
0.0792554 0.0689555 0.0349432
0.102892 0.0723278 0.0339971
0.131426 0.0748455 0.0324407
0.162936 0.0766461 0.0303807
0.191516 0.0784009 0.0276646
0.21738 0.0795911 0.0249332
0.242496 0.0808118 0.021622
0.265888 0.0808728 0.016907
0.290181 0.0798352 0.0105592
0.313726 0.0780041 0.00334173
0.338842 0.0750439 0
0.362737 0.071519 0
0.387884 0.0687877 0
0.411536 0.0648966 0
0.434165 0.0619059 0
0.455879 0.0573281 0
0.477165 0.0529488 0
0.49575 0.0472877 0
0.514549 0.0404364 0
0.533211 0.0271153 0
0.552087 0.0115511 0
0.571969 0 0
0.592401 0 0
0.613169 0 0
0.634806 0 0
0.654994 0 0
0.67602 0 0
0.69836 0 0
0.723842 0 0
0 0.064683 0.0394751
0 0.0689555 0.0400549
0.0261387 0.0731975 0.0401617
0.0530861 0.0774853 0.0398871
0.0786908 0.0826276 0.0381933
0.102815 0.0871138 0.037171
0.133043 0.0907149 0.0355688
0.168185 0.0934462 0.0331273
0.199405 0.0958572 0.0295415
0.227375 0.0975052 0.0261387
0.253742 0.0988174 0.0218814
0.278828 0.0992294 0.0163119
0.304036 0.0986191 0.00910964
0.328847 0.0974136 0
0.35462 0.0949722 0
0.379416 0.0925917 0
0.404517 0.0905165 0
0.428763 0.0882734 0
0.451453 0.0861524 0
0.473518 0.0838331 0
0.494438 0.0809033 0
0.513161 0.0775464 0
0.532326 0.0732738 0
0.550454 0.0674907 0
0.569268 0.0583658 0
0.588006 0.044831 0
0.607797 0.030518 0
0.627146 0.0131533 0
0.647761 0.000503548 0
0.666712 0 0
0.686656 0 0
0.708247 0 0
0.732616 0 0
0 0.0760662 0.0446479
0 0.0804761 0.0447395
0.0207218 0.0847486 0.0443732
0.0498817 0.0892042 0.0441749
0.0713054 0.0941176 0.0434577
0.101183 0.100023 0.0409552
0.132921 0.104753 0.0389258
0.170733 0.108446 0.0357061
0.204868 0.111711 0.0320592
0.235477 0.114382 0.0280156
0.263722 0.11632 0.0230869
0.290822 0.117342 0.0164645
0.317098 0.117144 0.00773632
0.343496 0.116457 0
0.370077 0.114778 0
0.395758 0.113558 0
0.421592 0.112444 0
0.446815 0.111498 0
0.469749 0.11017 0
0.492256 0.108721 0
0.512505 0.106294 0
0.531411 0.103975 0
0.550256 0.100511 0
0.568429 0.0966964 0
0.587274 0.0912184 0
0.605524 0.0860914 0
0.624933 0.0757153 0
0.643 0.0654307 0
0.662013 0.0472267 0
0.680323 0.035996 0
0.699046 0.0242924 0
0.719402 0.0140688 0
0.74226 0 0
0 0.0906539 0.0493019
0 0.095491 0.049134
0.00276188 0.100145 0.0480964
0.045304 0.105241 0.0475471
0.0678569 0.110613 0.0469368
0.08748 0.116411 0.0458839
0.128985 0.121981 0.0422827
0.170901 0.12636 0.0380102
0.208087 0.130175 0.033463
0.240864 0.133013 0.0293889
0.271687 0.135225 0.0237888
0.300847 0.136416 0.0159915
0.328908 0.136233 0.00581369
0.357061 0.135409 0
0.385092 0.134249 0
0.411994 0.133883 0
0.439139 0.133822 0
0.464988 0.133455 0
0.488487 0.132784 0
0.511299 0.131594 0
0.531243 0.1299 0
0.550301 0.127764 0
0.568933 0.125292 0
0.587152 0.121965 0
0.605722 0.117983 0
0.623911 0.11368 0
0.642954 0.108492 0
0.66041 0.102602 0
0.67863 0.0956741 0
0.696239 0.0879835 0
0.71368 0.0767529 0
0.732692 0.0658579 0
0.754726 0.0545815 0
0 0.107713 0.0534218
0 0.113329 0.0531777
0 0.118502 0.051545
0.0279088 0.124056 0.0502632
0.0633249 0.130266 0.0494087
0.0826276 0.136645 0.0483864
0.113771 0.143069 0.0461738
0.164126 0.148104 0.040528
0.208194 0.152407 0.0343175
0.243824 0.155932 0.0291752
0.27686 0.158556 0.021912
0.308019 0.160235 0.0133059
0.338567 0.161242 0
0.368917 0.161807 0
0.398978 0.162234 0
0.427405 0.161837 0
0.456123 0.161852 0
0.482689 0.160998 0
0.507118 0.159991 0
0.530449 0.158206 0
0.550393 0.156237 0
0.56968 0.153368 0
0.588159 0.150332 0
0.606256 0.146456 0
0.624567 0.142428 0
0.642603 0.138247 0
0.66128 0.133959 0
0.678645 0.129122 0
0.695872 0.123552 0
0.713069 0.117617 0
0.729778 0.110964 0
0.74786 0.103212 0
0.769177 0.0961624 0
0 0.128298 0.0573281
0 0.134691 0.0565957
0 0.1402 0.0543832
0.0119326 0.146044 0.0525216
0.0490883 0.152483 0.0509804
0.0772106 0.159594 0.0495308
0.107027 0.166369 0.0475013
0.143648 0.172854 0.0435492
0.199298 0.178286 0.0353552
0.244907 0.183551 0.025864
0.28043 0.187533 0.0115358
0.313237 0.190524 0
0.346975 0.193393 0
0.378729 0.194461 0
0.41091 0.195758 0
0.441276 0.195834 0
0.47155 0.195727 0
0.499306 0.194705 0
0.524788 0.19321 0
0.549111 0.191043 0
0.569207 0.188281 0
0.588891 0.185061 0
0.607614 0.181979 0
0.625986 0.178805 0
0.64419 0.174868 0
0.662181 0.17052 0
0.679957 0.165499 0
0.697337 0.16054 0
0.71368 0.155245 0
0.730007 0.149294 0
0.746242 0.142977 0
0.76321 0.136294 0
0.783719 0.132342 0
0 0.148104 0.0604562
0 0.155337 0.0597543
0 0.161547 0.0572061
0 0.167712 0.0542763
0.0222782 0.174624 0.0522469
0.0666361 0.182269 0.0502327
0.103487 0.189899 0.0474556
0.136431 0.196857 0.044007
0.181964 0.203494 0.0370947
0.23621 0.209644 0.0240787
0.282032 0.215274 0.00173953
0.317449 0.219532 0
0.353628 0.224247 0
0.387152 0.227085 0
0.42089 0.22945 0
0.453269 0.230945 0
0.485023 0.231662 0
0.514656 0.231785 0
0.541253 0.231052 0
0.56672 0.229953 0
0.58764 0.227909 0
0.608179 0.225391 0
0.627161 0.221836 0
0.645914 0.217716 0
0.663828 0.21297 0
0.681941 0.207645 0
0.699199 0.202075 0
0.716411 0.196109 0
0.731762 0.190005 0
0.747204 0.183413 0
0.762615 0.176577 0
0.778881 0.170901 0
0.798428 0.167514 0
0 0.166812 0.0633402
0 0.175097 0.062623
0 0.181888 0.0595865
0 0.188495 0.0563211
0 0.195834 0.0530556
0.0515145 0.203937 0.0505684
0.0964218 0.2121 0.046952
0.135012 0.21973 0.0425422
0.175677 0.226947 0.0362402
0.22031 0.233906 0.0207675
0.272526 0.240726 0.00445563
0.318608 0.246876 0
0.358511 0.252857 0
0.39408 0.257771 0
0.429267 0.260945 0
0.463371 0.263706 0
0.497032 0.265644 0
0.528298 0.266712 0
0.556603 0.267063 0
0.583169 0.266636 0
0.605234 0.265324 0
0.62649 0.263249 0
0.645899 0.260243 0
0.665095 0.256443 0
0.683299 0.25214 0
0.701656 0.247272 0
0.718456 0.241993 0
0.735622 0.236408 0
0.750423 0.23032 0
0.765148 0.223529 0
0.779736 0.216388 0
0.795163 0.209842 0
0.813458 0.205005 0
0 0.185687 0.0664836
0 0.19472 0.0654154
0 0.202243 0.0615854
0 0.209308 0.0576181
0 0.216953 0.0539559
0.0335241 0.22536 0.0504158
0.0860914 0.233951 0.0458534
0.131655 0.242039 0.0407111
0.175723 0.24976 0.0334783
0.21471 0.256901 0.0196231
0.258747 0.264469 0
0.310094 0.272984 0
0.358892 0.280659 0
0.398886 0.286931 0
0.436835 0.291691 0
0.471824 0.295125 0
0.507362 0.298116 0
0.5402 0.299977 0
0.569924 0.301106 0
0.597971 0.301411 0
0.621164 0.300694 0
0.643412 0.299153 0
0.663752 0.29662 0
0.683635 0.293339 0
0.702159 0.289281 0
0.721172 0.285023 0
0.737957 0.279911 0
0.755413 0.274464 0
0.769467 0.268605 0
0.783383 0.261799 0
0.797101 0.254597 0
0.811566 0.247379 0
0.82855 0.242695 0
0 0.204166 0.069337
0 0.214054 0.0676432
0 0.222293 0.0633402
0 0.230182 0.0587015
0 0.2383 0.0535286
0.00563058 0.246891 0.0494698
0.074876 0.256016 0.0425727
0.127016 0.264714 0.0342412
0.17435 0.272892 0.0218814
0.21619 0.281224 0.0080415
0.25449 0.289357 0
0.298024 0.298604 0
0.348257 0.307561 0
0.397665 0.31519 0
0.44097 0.32108 0
0.478416 0.32546 0
0.515465 0.329107 0
0.550378 0.331762 0
0.581399 0.33341 0
0.611215 0.334356 0
0.635401 0.33431 0
0.658961 0.333791 0
0.680232 0.331991 0
0.701167 0.32958 0
0.720607 0.326101 0
0.739925 0.321782 0
0.756924 0.317006 0
0.774121 0.311528 0
0.788235 0.305516 0
0.801617 0.298421 0
0.814694 0.290562 0
0.828428 0.282948 0
0.844236 0.277745 0
0 0.223362 0.0712444
0 0.234119 0.0691997
0 0.243 0.0647288
0 0.25124 0.0595254
0 0.259663 0.0538643
0 0.26865 0.0476081
0.0509804 0.278111 0.0395361
0.119112 0.287083 0.0292668
0.170977 0.295735 0.0104372
0.215839 0.304509 0
0.255863 0.313817 0
0.293645 0.323171 0
0.336919 0.333501 0
0.387533 0.342565 0
0.437232 0.350072 0
0.481666 0.355734 0
0.521691 0.360586 0
0.558419 0.364309 0
0.591028 0.367132 0
0.62208 0.368902 0
0.648005 0.369757 0
0.672541 0.369421 0
0.69514 0.368154 0
0.716838 0.365667 0
0.737255 0.362448 0
0.757504 0.358251 0
0.774914 0.35317 0
0.79234 0.347784 0
0.806745 0.341894 0
0.819791 0.3346 0
0.832364 0.326482 0
0.845472 0.318364 0
0.859937 0.311986 0
0 0.242618 0.0730755
0 0.254276 0.0705425
0 0.26389 0.0654307
0 0.272877 0.059556
0 0.2822 0.0522927
0 0.291432 0.0450294
0.0217288 0.301396 0.0293736
0.10425 0.311055 0.0160067
0.167636 0.320729 0
0.216083 0.331014 0
0.257572 0.341207 0
0.295903 0.351522 0
0.333211 0.361715 0
0.376455 0.371481 0
0.425055 0.380102 0
0.477043 0.386664 0
0.523857 0.39234 0
0.56437 0.396689 0
0.59913 0.400198 0
0.631495 0.402564 0
0.658808 0.403708 0
0.684672 0.403998 0
0.708202 0.402914 0
0.731151 0.401266 0
0.752377 0.398795 0
0.773526 0.395483 0
0.791867 0.391409 0
0.809476 0.386221 0
0.824323 0.379965 0
0.837324 0.371954 0
0.849638 0.362661 0
0.862364 0.352956 0
0.875807 0.345907 0
0 0.262989 0.0745098
0 0.275181 0.0710613
0 0.285389 0.0648508
0 0.294911 0.0584115
0 0.30454 0.0511482
0 0.314702 0.0411078
0.0102541 0.324636 0.0221408
0.0784619 0.334401 0.00259403
0.157275 0.345357 0
0.213809 0.356008 0
0.258 0.367559 0
0.297841 0.378576 0
0.334554 0.389075 0
0.372366 0.399023 0
0.414557 0.408255 0
0.465141 0.416449 0
0.517403 0.423117 0
0.565805 0.429084 0
0.604898 0.433356 0
0.639628 0.437201 0
0.668299 0.439231 0
0.695445 0.44065 0
0.720043 0.440452 0
0.74406 0.439429 0
0.766262 0.43711 0
0.788327 0.433814 0
0.807294 0.429526 0
0.825544 0.42417 0
0.841108 0.41767 0
0.854276 0.409384 0
0.866377 0.400107 0
0.878782 0.390372 0
0.891493 0.381491 0
0 0.282887 0.0759594
0 0.295888 0.0716564
0 0.306722 0.0645609
0 0.31693 0.0574044
0 0.327596 0.048127
0 0.337835 0.0364996
0 0.348562 0.0109865
0.0585641 0.359167 0
0.14728 0.370855 0
0.2121 0.382742 0
0.258167 0.394568 0
0.300069 0.406119 0
0.338109 0.417212 0
0.374136 0.427405 0
0.411215 0.437232 0
0.454337 0.446281 0
0.505241 0.454002 0
0.559289 0.461006 0
0.606577 0.466697 0
0.64538 0.470893 0
0.677089 0.474296 0
0.704997 0.476158 0
0.730785 0.476814 0
0.755749 0.476371 0
0.77882 0.474586 0
0.802045 0.472206 0
0.821668 0.468574 0
0.84062 0.463996 0
0.85684 0.458 0
0.870344 0.449805 0
0.882689 0.439689 0
0.894911 0.428046 0
0.906981 0.416953 0
0 0.303227 0.0763714
0 0.316793 0.0714275
0 0.328283 0.0633707
0 0.339162 0.0542916
0 0.349905 0.0448463
0 0.3608 0.0266728
0 0.372305 0
0.0304265 0.383551 0
0.137606 0.396124 0
0.207004 0.408316 0
0.257481 0.420813 0
0.300587 0.432609 0
0.340414 0.444358 0
0.377646 0.455009 0
0.412436 0.465141 0
0.450019 0.474693 0
0.49482 0.483589 0
0.546822 0.491691 0
0.600931 0.498894 0
0.646418 0.504326 0
0.683421 0.508492 0
0.713756 0.51162 0
0.740841 0.513191 0
0.766598 0.513634 0
0.790906 0.512825 0
0.814725 0.510857 0
0.835447 0.507881 0
0.855055 0.503685 0
0.871839 0.497963 0
0.88571 0.489845 0
0.89839 0.479652 0
0.910811 0.468238 0
0.922148 0.455909 0
0 0.322652 0.0768444
0 0.336858 0.0709239
0 0.348791 0.0622416
0 0.360021 0.0525368
0 0.37145 0.0392157
0 0.382834 0.0179904
0 0.394598 0
0.0143893 0.406607 0
0.119142 0.419409 0
0.204593 0.432807 0
0.256031 0.445304 0
0.302449 0.458122 0
0.342626 0.469795 0
0.381567 0.481102 0
0.4168 0.491402 0
0.451698 0.501198 0
0.491264 0.510414 0
0.536385 0.519326 0
0.589273 0.527886 0
0.640818 0.535195 0
0.685298 0.540581 0
0.719799 0.544488 0
0.749477 0.547219 0
0.776486 0.548699 0
0.801663 0.548867 0
0.826535 0.547997 0
0.848249 0.546136 0
0.868742 0.542855 0
0.886336 0.537835 0
0.900877 0.530388 0
0.913893 0.520638 0
0.926436 0.508858 0
0.937331 0.495323 0
0 0.341161 0.0775311
0 0.355856 0.0704051
0 0.368322 0.0606851
0 0.380301 0.0480201
0 0.391806 0.0322728
0 0.403632 0.00602731
0 0.416602 0
0.0173495 0.42916 0
0.108598 0.442466 0
0.192752 0.455909 0
0.256229 0.469566 0
0.302327 0.482246 0
0.345022 0.494926 0
0.384222 0.506203 0
0.420539 0.517037 0
0.456153 0.527214 0
0.492638 0.536629 0
0.532311 0.545876 0
0.578912 0.555032 0
0.630426 0.563592 0
0.681147 0.571038 0
0.721218 0.575738 0
0.755413 0.579187 0
0.784802 0.581521 0
0.811185 0.582437 0
0.836957 0.582452 0
0.859724 0.581262 0
0.881163 0.578958 0
0.899641 0.575204 0
0.914931 0.568917 0
0.92874 0.560342 0
0.941924 0.549508 0
0.952575 0.536004 0
0 0.359182 0.0776684
0 0.374594 0.0691691
0 0.387274 0.0582589
0 0.398947 0.0453803
0 0.410925 0.0216678
0 0.423621 0
0 0.43682 0
0.00175479 0.450462 0
0.0893111 0.463523 0
0.188266 0.477821 0
0.253071 0.491203 0
0.303685 0.504662 0
0.346517 0.517205 0
0.387366 0.52903 0
0.424338 0.540032 0
0.460609 0.550271 0
0.497444 0.559991 0
0.533379 0.569024 0
0.575021 0.578698 0
0.621225 0.587777 0
0.670329 0.596551 0
0.717021 0.603616 0
0.757107 0.608713 0
0.790021 0.61149 0
0.819364 0.613733 0
0.846174 0.614679 0
0.870054 0.614771 0
0.892836 0.613901 0
0.9122 0.6112 0
0.928145 0.605554 0
0.942626 0.597681 0
0.956313 0.587686 0
0.967483 0.575494 0
0 0.375204 0.0776532
0 0.390967 0.0684062
0 0.403998 0.0567941
0 0.416159 0.043183
0 0.428763 0.0104372
0 0.442008 0
0 0.456138 0
0 0.469917 0
0.0585489 0.483635 0
0.165942 0.4981 0
0.253727 0.512169 0
0.30399 0.525872 0
0.348821 0.53901 0
0.389761 0.550988 0
0.428031 0.562387 0
0.465141 0.572992 0
0.502205 0.582773 0
0.538506 0.592493 0
0.575982 0.601694 0
0.61767 0.611444 0
0.66125 0.620295 0
0.709316 0.628977 0
0.752789 0.635477 0
0.791196 0.639628 0
0.824445 0.642191 0
0.853727 0.643946 0
0.878859 0.644709 0
0.902403 0.64445 0
0.92253 0.642695 0
0.939696 0.638727 0
0.955139 0.632547 0
0.970092 0.624521 0
0.982101 0.613947 0
0 0.391043 0.0775006
0 0.407385 0.0669566
0 0.42092 0.0519112
0 0.43328 0.0356603
0 0.446754 0
0 0.460975 0
0 0.475059 0
0 0.489754 0
0.0484169 0.503471 0
0.152148 0.518395 0
0.249409 0.532845 0
0.304616 0.54696 0
0.349706 0.56022 0
0.392447 0.572808 0
0.430945 0.584314 0
0.469001 0.595254 0
0.506706 0.605386 0
0.543221 0.615137 0
0.580758 0.62501 0
0.61828 0.634333 0
0.657465 0.643702 0
0.701259 0.652873 0
0.744366 0.660685 0
0.787137 0.666621 0
0.825666 0.670344 0
0.858686 0.672618 0
0.886458 0.674067 0
0.911498 0.674754 0
0.932403 0.673945 0
0.950622 0.670863 0
0.966796 0.665461 0
0.982162 0.658076 0
0.99176 0.647791 0
0 0.406455 0.0768292
0 0.423651 0.0651408
0 0.437598 0.0461585
0 0.450309 0.0162814
0 0.464973 0
0 0.479316 0
0 0.494148 0
0 0.509148 0
0.0445869 0.523415 0
0.14966 0.538735 0
0.248035 0.553491 0
0.302846 0.567864 0
0.35111 0.581765 0
0.393668 0.594247 0
0.434028 0.6065 0
0.472282 0.617426 0
0.510857 0.628061 0
0.548028 0.638132 0
0.585779 0.648157 0
0.623087 0.658015 0
0.658656 0.667292 0
0.697429 0.676661 0
0.737224 0.685191 0
0.779934 0.69279 0
0.82179 0.697993 0
0.859495 0.700984 0
0.891752 0.703029 0
0.919097 0.704463 0
0.941085 0.70454 0
0.960006 0.702388 0
0.977172 0.697978 0
0.991333 0.690898 0
0.999069 0.680034 0
0 0.42237 0.0763409
0 0.440192 0.063508
0 0.454795 0.0410315
0 0.467658 0
0 0.482811 0
0 0.498283 0
0 0.513436 0
0 0.52874 0
0.0355993 0.543313 0
0.139666 0.559152 0
0.246357 0.574014 0
0.302708 0.588922 0
0.351751 0.602838 0
0.39585 0.615808 0
0.436286 0.628016 0
0.476112 0.639551 0
0.514916 0.650233 0
0.552773 0.660624 0
0.591165 0.671077 0
0.628534 0.680903 0
0.663294 0.690578 0
0.698466 0.699809 0
0.734401 0.708797 0
0.772686 0.717067 0
0.813977 0.723827 0
0.855894 0.728618 0
0.893736 0.731716 0
0.925155 0.733715 0
0.948775 0.734722 0
0.969009 0.733791 0
0.986908 0.730602 0
0.998154 0.7234 0
0.999207 0.710216 0
0 0.438163 0.0776989
0 0.456611 0.0595102
0 0.471839 0.037171
0 0.485405 9.15541e-05
0 0.501244 0
0 0.516976 0
0 0.532784 0
0 0.548394 0
0.0331884 0.563241 0
0.140505 0.579538 0
0.242588 0.59469 0
0.300175 0.609949 0
0.352667 0.624262 0
0.397147 0.637491 0
0.439109 0.650156 0
0.479194 0.661738 0
0.518883 0.672816 0
0.557641 0.683635 0
0.596109 0.694163 0
0.634638 0.704799 0
0.668956 0.714336 0
0.703502 0.72398 0
0.736202 0.732799 0
0.770016 0.741329 0
0.80734 0.749126 0
0.849104 0.755673 0
0.89163 0.760098 0
0.927459 0.762829 0
0.955077 0.764401 0
0.977081 0.764477 0
0.991562 0.761059 0
0.999298 0.753185 0
0.999298 0.740734 0
0 0.454917 0.079118
0 0.473594 0.061677
0 0.489113 0.0336004
0 0.503426 0.00331121
0 0.519234 0
0 0.535271 0
0 0.5514 0
0 0.567102 0
0.0339208 0.582406 0
0.13959 0.598703 0
0.238575 0.614176 0
0.29926 0.629648 0
0.35378 0.644099 0
0.399573 0.657633 0
0.441596 0.670222 0
0.483146 0.682216 0
0.523079 0.693339 0
0.56257 0.704341 0
0.601587 0.715129 0
0.640162 0.725612 0
0.674739 0.735439 0
0.709468 0.74519 0
0.740764 0.754025 0
0.771634 0.762676 0
0.804715 0.770657 0
0.842145 0.778088 0
0.883925 0.784268 0
0.92488 0.788724 0
0.958297 0.791592 0
0.983185 0.79266 0
0.996078 0.789883 0
0.999298 0.782147 0
0.999298 0.771801 0
0 0.470314 0.0833906
0 0.489647 0.0640879
0 0.505699 0.0349584
0 0.520592 0.00766003
0 0.536797 0
0 0.552773 0
0 0.569421 0
0 0.585077 0
0.0344854 0.600732 0
0.137804 0.617288 0
0.232776 0.633097 0
0.297154 0.648814 0
0.354894 0.663615 0
0.400854 0.677134 0
0.444465 0.690242 0
0.486168 0.701885 0
0.52697 0.713314 0
0.566918 0.72433 0
0.606271 0.735164 0
0.645243 0.745907 0
0.679957 0.755657 0
0.714977 0.765484 0
0.746166 0.774334 0
0.775753 0.782635 0
0.806195 0.790753 0
0.838819 0.798306 0
0.87657 0.805875 0
0.918624 0.812406 0
0.957977 0.817334 0
0.987533 0.819837 0
0.998581 0.81651 0
0.999283 0.808988 0
0.999298 0.799481 0
0 0.48603 0.0887617
0 0.505333 0.0710765
0 0.521569 0.0395056
0 0.536873 0.0151369
0 0.552789 0
0 0.568765 0
0 0.585168 0
0 0.600732 0
0.0310826 0.616617 0
