public/luts/screen-style-03.cube
TITLE "Generated by Resolve"
LUT_3D_SIZE 9
0.00485237 0.0260166 0.02533
0.0715953 0.0396582 0.0275578
0.162356 0.0482338 0.0233463
0.250477 0.0502174 0.0115663
0.340871 0.0330968 0
0.429831 0 0
0.509682 0 0
0.597299 0 0
0.694682 0 0
0 0.0760662 0.0446479
0.0713054 0.0941176 0.0434577
0.204868 0.111711 0.0320592
0.317098 0.117144 0.00773632
0.421592 0.112444 0
0.512505 0.106294 0
0.587274 0.0912184 0
0.662013 0.0472267 0
0.74226 0 0
0 0.148104 0.0604562
0.0222782 0.174624 0.0522469
0.181964 0.203494 0.0370947
0.353628 0.224247 0
0.485023 0.231662 0
0.58764 0.227909 0
0.663828 0.21297 0
0.731762 0.190005 0
0.798428 0.167514 0
0 0.223362 0.0712444
0 0.259663 0.0538643
0.170977 0.295735 0.0104372
0.336919 0.333501 0
0.521691 0.360586 0
0.648005 0.369757 0
0.737255 0.362448 0
0.806745 0.341894 0
0.859937 0.311986 0
0 0.303227 0.0763714
0 0.349905 0.0448463
0.137606 0.396124 0
0.340414 0.444358 0
0.49482 0.483589 0
0.683421 0.508492 0
0.790906 0.512825 0
0.871839 0.497963 0
0.922148 0.455909 0
0 0.375204 0.0776532
0 0.428763 0.0104372
0.0585489 0.483635 0
0.348821 0.53901 0
0.502205 0.582773 0
0.66125 0.620295 0
0.824445 0.642191 0
0.92253 0.642695 0
0.982101 0.613947 0
0 0.438163 0.0776989
0 0.501244 0
0.0331884 0.563241 0
0.352667 0.624262 0
0.518883 0.672816 0
0.668956 0.714336 0
0.80734 0.749126 0
0.955077 0.764401 0
0.999298 0.740734 0
0 0.500832 0.0971542
0 0.568322 0.0030518
0.0305486 0.631769 0
0.360311 0.694774 0
0.536629 0.744884 0
0.690517 0.787976 0
0.814588 0.822873 0
0.943145 0.851957 0
0.999283 0.846342 0
0 0.583246 0.217807
0 0.650645 0.188449
0.101564 0.703593 0.135439
0.406653 0.754711 0.0768139
0.57557 0.795056 0.0223697
0.714321 0.831327 0
0.825391 0.861295 0
0.931304 0.885847 0
0.999283 0.897276 0
0 0.0296483 0.0690318
0.0696269 0.0426642 0.0812543
0.160449 0.0521248 0.0887465
0.250248 0.0552682 0.0933547
0.341711 0.040528 0.0933394
0.430732 0 0.0917372
0.512749 0 0.0962081
0.601419 0 0.105211
0.703807 0 0.132692
0 0.0859083 0.102541
0.0707408 0.104417 0.105379
0.205203 0.120638 0.111635
0.316884 0.126818 0.111528
0.420233 0.119875 0.106172
0.509529 0.103685 0.0978103
0.580865 0.0679332 0.0896468
0.656291 0 0.0835889
0.74255 0 0.11043
0 0.164019 0.132128
0 0.190646 0.129686
0.191592 0.21854 0.125368
0.362188 0.234684 0.112459
0.485801 0.229694 0.106401
0.579049 0.21529 0.0964675
0.650095 0.192096 0.0854658
0.715328 0.156939 0.0693065
0.783047 0.120775 0.0921187
0 0.244694 0.157031
0 0.281956 0.15346
0.180377 0.316732 0.142794
0.3458 0.348135 0.125795
0.524163 0.361517 0.0839094
0.641855 0.357992 0.0633097
0.721004 0.336904 0.0504616
0.781979 0.305776 0.035874
0.834852 0.269062 0.0682689
0 0.329274 0.178302
0 0.376852 0.171191
0.0987716 0.417853 0.152316
0.34461 0.457542 0.128756
0.497078 0.48661 0.0842756
0.677363 0.501076 0
0.779126 0.495445 0
0.850202 0.465507 0
0.889952 0.403815 0.0292515
0 0.403052 0.197086
0 0.458152 0.187549
0.0333715 0.504997 0.163256
0.339071 0.550286 0.129854
0.502785 0.585138 0.0801251
0.656382 0.614618 0.0133669
0.816754 0.634287 0
0.906874 0.625666 0
0.94905 0.567147 0
0 0.468421 0.219577
0 0.530663 0.20618
0 0.582589 0.177218
0.328588 0.63267 0.138476
0.508751 0.671855 0.0808576
0.661814 0.706661 0
0.794415 0.738842 0
0.941543 0.75462 0
0.998276 0.720729 0
0 0.531929 0.254871
0 0.597543 0.241947
0 0.651972 0.21294
0.318151 0.703853 0.176638
0.516274 0.744884 0.118654
0.674403 0.780819 0.0522164
0.796582 0.810071 0.0118563
0.921111 0.836164 0
0.999298 0.835538 0
0 0.613916 0.383764
0 0.680949 0.378622
0 0.732723 0.361425
0.359182 0.782208 0.351202
0.553155 0.820478 0.341146
0.697749 0.851865 0.328496
0.810483 0.875608 0.315648
0.91458 0.89453 0.303029
0.999435 0.906615 0.285481
0 0.0287175 0.12253
0.0648966 0.0410468 0.151934
0.167193 0.0518807 0.159167
0.263828 0.0543526 0.166201
0.356771 0.035172 0.172
0.444541 0 0.178241
0.52459 0 0.189059
0.61117 0 0.202884
0.71284 0 0.23624
0 0.0919661 0.165072
0.0422217 0.112703 0.180865
0.197391 0.130709 0.197147
0.314656 0.138613 0.209796
0.422156 0.133059 0.21326
0.515785 0.117296 0.211917
0.588739 0.0887007 0.208133
0.663798 0.0143893 0.206439
0.748928 0 0.232639
0 0.178149 0.21297
0 0.205921 0.218708
0.195895 0.233082 0.222538
0.360647 0.247684 0.229297
0.484154 0.2448 0.230564
0.581567 0.232685 0.226627
0.655573 0.210376 0.219547
0.722377 0.174746 0.210986
0.787076 0.129061 0.221469
0 0.263142 0.248203
0 0.302007 0.253956
0.164599 0.335546 0.250553
0.350759 0.366125 0.245075
0.528969 0.377905 0.232227
0.643381 0.369116 0.231342
0.7205 0.3467 0.225315
0.78265 0.315892 0.216449
0.835523 0.272129 0.222248
0 0.350271 0.276982
0 0.399176 0.281361
0.0601968 0.439689 0.273594
0.34435 0.47834 0.266697
0.503395 0.50631 0.252796
0.678721 0.516121 0.221042
0.776791 0.502037 0.219165
0.842512 0.46305 0.214084
0.884703 0.399069 0.221912
0 0.426398 0.305745
0 0.482231 0.308003
0 0.529198 0.297581
0.329366 0.573678 0.286732
0.507652 0.607324 0.272862
0.661082 0.633799 0.25182
0.80827 0.638743 0.2
0.893736 0.622095 0.196933
0.935332 0.552071 0.213581
0 0.492775 0.334051
0 0.555779 0.335058
0 0.608118 0.322698
0.304372 0.657511 0.308202
0.507851 0.696513 0.293248
0.666102 0.727718 0.272572
0.789593 0.749538 0.24686
0.922942 0.748989 0.155352
0.982208 0.706813 0.209277
0 0.555795 0.374304
0 0.621988 0.375967
0 0.676555 0.361883
0.275181 0.728038 0.347417
0.508095 0.76939 0.334798
0.673182 0.802716 0.317006
0.794232 0.826841 0.298238
0.910628 0.844221 0.270481
0.99942 0.835294 0.201663
0 0.634226 0.492164
0 0.701518 0.495842
0 0.753277 0.48629
0.32047 0.801434 0.481468
0.537224 0.839994 0.479728
0.68838 0.871214 0.475257
0.804578 0.894469 0.469032
0.909895 0.912856 0.461677
0.999435 0.925994 0.452369
0 0.0106508 0.186435
0.0568551 0.0307469 0.229221
0.166476 0.0403296 0.242741
0.271717 0.0419471 0.250584
0.37348 0.00529488 0.256153
0.466392 0 0.264546
0.544564 0 0.275181
0.626612 0 0.288441
0.721813 0 0.317037
0 0.0965133 0.230396
0 0.118318 0.264805
0.190295 0.136172 0.294652
0.324926 0.148028 0.302983
0.436683 0.145235 0.30985
0.528954 0.129839 0.313558
0.600717 0.102327 0.313085
0.672908 0.0320287 0.310384
0.754864 0 0.327443
0 0.187427 0.297307
0 0.219364 0.31107
0.171664 0.245899 0.321111
0.351019 0.265797 0.338491
0.480568 0.266011 0.349126
0.585046 0.254673 0.349569
0.662501 0.232761 0.344701
0.730983 0.196689 0.335882
0.792706 0.141283 0.334768
0 0.279118 0.340459
0 0.319188 0.355795
0.109483 0.352071 0.356313
0.355673 0.382315 0.362921
0.527367 0.392615 0.367529
0.641642 0.386404 0.368887
0.722057 0.367163 0.362951
0.787137 0.336309 0.35111
0.838834 0.285206 0.341436
0 0.368505 0.37351
0 0.419089 0.388281
0.0210422 0.459113 0.385901
0.340002 0.497353 0.38883
0.509148 0.52462 0.384543
0.67921 0.532952 0.372839
0.774487 0.51371 0.372183
0.840177 0.474739 0.363241
0.884657 0.408316 0.351431
0 0.446632 0.404898
0 0.503288 0.415564
0 0.551064 0.41326
0.311604 0.594812 0.410986
0.509712 0.628061 0.407752
0.664271 0.653544 0.39791
0.807385 0.657252 0.372793
0.89012 0.634287 0.370153
0.930556 0.554345 0.359594
0 0.513466 0.432639
0 0.577386 0.442939
0 0.630274 0.439048
0.266194 0.678889 0.432624
0.503624 0.717906 0.429282
0.668482 0.748684 0.42031
0.789776 0.769436 0.407126
0.919463 0.767376 0.371267
0.975677 0.710536 0.372641
0 0.575875 0.470695
0 0.642481 0.479896
0 0.697658 0.474632
0.233127 0.748165 0.466667
0.497551 0.789868 0.463798
0.669871 0.823041 0.456428
0.793393 0.846479 0.446433
0.907256 0.862943 0.430335
0.999466 0.853803 0.393347
0 0.649378 0.575875
0 0.717266 0.585718
0 0.769162 0.580545
0.281025 0.816419 0.577905
0.522637 0.855222 0.580667
0.680232 0.886442 0.580682
0.799176 0.909331 0.577203
0.905486 0.927367 0.571786
0.998932 0.941466 0.565682
0 0 0.244282
0.0469062 0.00187686 0.291066
0.161868 0.0129397 0.312856
0.272999 0.00907912 0.323049
0.38294 0 0.331289
0.482612 0 0.340444
0.563165 0 0.34963
0.643687 0 0.360204
0.732265 0 0.385245
0 0.0941634 0.291905
0 0.119753 0.337606
0.170184 0.138949 0.373526
0.32459 0.150256 0.386709
0.449409 0.150332 0.392996
0.548089 0.140017 0.396719
0.620691 0.114382 0.397742
0.687755 0.0508736 0.395346
0.761944 0 0.405341
0 0.195346 0.360937
0 0.227573 0.377798
0.120455 0.257084 0.401968
0.346365 0.276738 0.428153
0.490135 0.286046 0.434546
0.595483 0.279698 0.43978
0.672282 0.258228 0.439063
0.740261 0.220966 0.431556
0.799558 0.157946 0.423026
0 0.287266 0.414221
0 0.330953 0.436454
0.0668345 0.365606 0.439948
0.341802 0.395392 0.452033
0.51458 0.410544 0.468528
0.638453 0.408438 0.47538
0.724681 0.391516 0.471946
0.792966 0.359442 0.460456
0.844038 0.301366 0.441962
0 0.381308 0.451133
0 0.433631 0.472633
0 0.474952 0.475166
0.33077 0.512413 0.48249
0.515816 0.538857 0.486717
0.675853 0.54609 0.488502
0.770672 0.529778 0.487892
0.840436 0.49485 0.476844
0.887175 0.424048 0.454246
0 0.461036 0.484092
0 0.520119 0.502892
0 0.568353 0.505516
0.285954 0.611292 0.506752
0.51046 0.644404 0.510948
0.666056 0.66891 0.50663
0.804456 0.672099 0.494713
0.885161 0.644862 0.490257
0.928496 0.564721 0.467964
0 0.529595 0.514153
0 0.594018 0.530617
0 0.647684 0.531701
0.23064 0.695613 0.528969
0.49749 0.734783 0.532341
0.667765 0.764858 0.529381
0.789242 0.785077 0.520806
0.914824 0.782177 0.498741
0.969665 0.714885 0.485695
0 0.590753 0.550347
0 0.658686 0.567071
0 0.714351 0.56614
0.164233 0.763745 0.560555
0.486152 0.805905 0.563745
0.665583 0.839048 0.562234
0.792004 0.862043 0.556451
0.903975 0.878035 0.544549
0.998978 0.867262 0.513893
0 0.661067 0.646693
0 0.72929 0.661006
0 0.781933 0.659815
0.239979 0.828351 0.658137
0.508705 0.867445 0.664408
0.672358 0.898726 0.667521
0.794568 0.921523 0.66685
0.901976 0.93933 0.663157
0.998154 0.954025 0.657465
0 0 0.30071
0.0242008 0 0.34789
0.153414 0 0.376608
0.273106 0 0.390921
0.387625 0 0.401251
0.492439 0 0.411292
0.576226 0 0.419089
0.65893 0 0.427436
0.742626 0 0.446555
0 0.0819867 0.34728
0 0.112902 0.401083
0.142565 0.140902 0.439658
0.316838 0.149966 0.461204
0.450126 0.149554 0.469306
0.557961 0.141573 0.474449
0.638148 0.120745 0.476143
0.705776 0.0717632 0.474693
0.770504 0 0.477592
0 0.196521 0.41117
0 0.235325 0.445686
0.0441901 0.265873 0.474983
0.323247 0.285496 0.508736
0.489494 0.294224 0.518761
0.608591 0.297383 0.523781
0.690623 0.285725 0.525032
0.754925 0.251225 0.519158
0.808804 0.180224 0.506127
0 0.298283 0.480125
0 0.340795 0.502281
0.000747692 0.378195 0.507576
0.306523 0.407416 0.533959
0.509957 0.423194 0.555749
0.643763 0.431556 0.561456
0.730495 0.418967 0.564691
0.800183 0.385946 0.556374
0.85095 0.321691 0.532967
0 0.394293 0.525628
0 0.445563 0.550988
0 0.488273 0.557855
0.308919 0.52488 0.566537
0.507637 0.551324 0.57525
0.664759 0.563699 0.590555
0.766751 0.553277 0.593637
0.842329 0.520348 0.583978
0.891356 0.443748 0.555673
0 0.472618 0.558068
0 0.533562 0.584009
0 0.582162 0.590188
0.261952 0.624826 0.594125
0.507134 0.65774 0.603662
0.669108 0.681254 0.606317
0.79939 0.683513 0.605371
0.880934 0.659632 0.600366
0.929 0.582589 0.570535
0 0.542229 0.588571
0 0.607935 0.611902
0 0.662196 0.617075
0.182986 0.709636 0.616831
0.489189 0.748608 0.625101
0.666804 0.778286 0.628244
0.789166 0.797711 0.623575
0.909743 0.79382 0.611688
0.965209 0.723247 0.589807
0 0.603098 0.624018
0 0.671992 0.645808
0 0.728023 0.648981
0.116365 0.77731 0.646357
0.473075 0.819257 0.653346
0.660395 0.852445 0.656718
0.790173 0.875135 0.654917
0.901335 0.89102 0.646693
0.995438 0.876509 0.619486
0 0.67129 0.708583
0 0.740108 0.726253
0 0.792844 0.727565
0.186892 0.838224 0.726192
0.495903 0.877485 0.735653
0.66508 0.908873 0.741512
0.790417 0.931716 0.743282
0.899046 0.949554 0.741695
0.994644 0.964111 0.737591
0 0 0.358038
0 0 0.401816
0.13785 0 0.434089
0.269017 0 0.453605
0.388266 0 0.466804
0.496162 0 0.477012
0.58439 0 0.486091
0.671397 0 0.494728
0.75378 0 0.507958
0 0.0642252 0.404486
0 0.0996567 0.45951
0.106401 0.143526 0.499214
0.301167 0.149859 0.528695
0.444373 0.148104 0.54136
0.559411 0.139025 0.547829
0.647425 0.121614 0.551781
0.721157 0.0826123 0.551781
0.783688 0.0100862 0.551278
0 0.202014 0.467094
0 0.23743 0.513313
0 0.272541 0.545052
0.292195 0.29395 0.578393
0.476265 0.301259 0.597192
0.608667 0.304204 0.603647
0.702571 0.301564 0.606928
0.774151 0.282963 0.604593
0.822446 0.214801 0.589044
0 0.301381 0.535286
0 0.34931 0.560952
0 0.38941 0.582422
0.261509 0.418433 0.608713
0.481651 0.43418 0.637873
0.642191 0.442313 0.646708
0.743648 0.443702 0.649546
0.815381 0.422309 0.646235
0.861295 0.350408 0.622141
0 0.398886 0.587213
0 0.45507 0.618463
0 0.499306 0.626642
0.233783 0.536904 0.632471
0.470558 0.564401 0.658305
0.658549 0.578103 0.676997
0.769757 0.581827 0.680385
0.846616 0.553567 0.678645
0.897139 0.471778 0.650339
0 0.482689 0.628717
0 0.543572 0.658137
0 0.593469 0.668498
0.222766 0.635996 0.673899
0.49276 0.668864 0.687114
0.662364 0.692287 0.693782
0.788281 0.699489 0.706416
0.877852 0.681804 0.704829
0.93106 0.606989 0.674311
0 0.552071 0.657435
0 0.620279 0.686824
0 0.674571 0.695796
0.126696 0.721645 0.697581
0.477836 0.760449 0.709712
0.662852 0.78967 0.717678
0.790448 0.808331 0.719646
0.903151 0.803281 0.717479
0.962417 0.739406 0.692714
0 0.614847 0.692149
0 0.68336 0.717113
0 0.740001 0.724758
0.0834211 0.789227 0.724544
0.459983 0.830808 0.734752
0.653651 0.863996 0.742306
0.788479 0.886748 0.745418
0.899214 0.902403 0.74078
0.98938 0.883635 0.718151
0 0.679118 0.764218
0 0.749157 0.786419
0 0.801862 0.789807
0.0975662 0.846799 0.789425
0.483253 0.886137 0.801541
0.657038 0.917601 0.809781
0.785702 0.940658 0.814115
0.896468 0.958877 0.81532
0.990951 0.973129 0.812055
0 0 0.418891
0 0 0.462638
0.10837 0 0.495521
0.256107 0 0.521569
0.381109 0 0.538903
0.495521 0 0.551827
0.58909 0 0.562493
0.680873 0 0.571405
0.766445 0 0.582193
0 0.0131838 0.465782
0 0.0771344 0.521523
0.0319524 0.143572 0.563668
0.273945 0.151034 0.59826
0.427451 0.147784 0.618128
0.554635 0.135195 0.628138
0.648783 0.115434 0.633799
0.731106 0.0828412 0.637293
0.797406 0.0191348 0.636332
0 0.198627 0.531716
0 0.235859 0.584924
0 0.27483 0.620539
0.249683 0.301778 0.650492
0.445594 0.310246 0.677455
0.598657 0.310658 0.689708
0.702281 0.307744 0.694728
0.786465 0.302037 0.697276
0.842451 0.26688 0.687388
0 0.310521 0.59324
0 0.356847 0.633555
0 0.396246 0.664195
0.179522 0.428092 0.687282
0.438621 0.446296 0.71928
0.624247 0.452323 0.737789
0.741375 0.453315 0.742657
0.829343 0.450965 0.744274
0.879744 0.401373 0.727291
0 0.409476 0.652628
0 0.464134 0.683253
0 0.510201 0.701411
0.108156 0.546838 0.714443
0.421378 0.575235 0.744762
0.627588 0.59144 0.770336
0.765621 0.5944 0.778027
0.859342 0.593362 0.779217
0.909422 0.521401 0.758038
0 0.489906 0.698528
0 0.552972 0.732967
0 0.603067 0.745693
0.0547951 0.644282 0.746151
0.425132 0.678859 0.764431
0.625956 0.70425 0.787579
0.778729 0.713558 0.804761
0.880812 0.714153 0.806409
0.936873 0.645884 0.785702
0 0.561715 0.733745
0 0.630076 0.766552
0 0.684886 0.77911
0.0880903 0.732265 0.783749
0.454337 0.770581 0.798596
0.647288 0.800092 0.81001
0.779492 0.818998 0.816693
0.89398 0.822477 0.828305
0.961944 0.767071 0.810162
0 0.62475 0.765332
0 0.694057 0.79469
0 0.751583 0.806317
0 0.800305 0.808469
0.444755 0.841627 0.822003
0.644282 0.874662 0.833585
0.783978 0.897322 0.840986
0.898573 0.91284 0.843168
0.983276 0.894514 0.829496
0 0.688792 0.823941
0 0.757977 0.847333
0 0.811215 0.853834
0.011902 0.855619 0.855268
0.472328 0.894499 0.868849
0.64889 0.925765 0.87953
0.780514 0.94902 0.886366
0.893721 0.967727 0.890623
0.987533 0.981857 0.890181
0 0 0.516274
0 0 0.553048
0.00450141 0 0.575891
0.211627 0 0.607675
0.342962 0 0.632395
0.472694 0 0.651148
0.581613 0 0.666438
0.68481 0 0.679194
0.783307 0 0.692592
0 0 0.571374
0 0.0166018 0.612177
0 0.130358 0.650477
0.209949 0.168856 0.682185
0.373739 0.172915 0.709789
0.523293 0.163241 0.728481
0.637781 0.142443 0.740093
0.734829 0.107958 0.746273
0.818372 0.0788434 0.75491
0 0.188479 0.637369
0 0.227115 0.684001
0 0.27483 0.717494
0.12932 0.320272 0.738033
0.372717 0.335271 0.767697
0.550744 0.33904 0.788495
0.683085 0.334554 0.800855
0.785824 0.325277 0.80647
0.866545 0.331548 0.813413
0 0.323644 0.697154
0 0.360952 0.738186
0 0.405905 0.771054
0.00399786 0.443595 0.783749
0.351171 0.467689 0.811261
0.55816 0.4795 0.834012
0.710689 0.480064 0.848569
0.824384 0.473686 0.854444
0.90454 0.479438 0.858763
0 0.42475 0.742931
0 0.473823 0.781659
0 0.52108 0.810803
0 0.559579 0.823087
0.316258 0.591257 0.84358
0.55172 0.611719 0.867323
0.721614 0.619303 0.884047
0.850858 0.614466 0.891051
0.933577 0.618555 0.894362
0 0.503426 0.784497
0 0.557763 0.815106
0 0.609751 0.839948
0 0.652995 0.851316
0.285023 0.689326 0.86717
0.546029 0.717159 0.891142
0.722271 0.733318 0.909392
0.867826 0.732967 0.919509
0.955978 0.735317 0.922484
0 0.572885 0.820523
0 0.637568 0.85127
0 0.690913 0.867994
0 0.737209 0.874693
0.265538 0.775677 0.885618
0.547936 0.808972 0.907286
0.72108 0.832578 0.925505
0.872816 0.841825 0.939391
0.97113 0.842863 0.942748
0 0.635523 0.851255
0 0.705119 0.882231
0 0.760998 0.896132
0 0.808988 0.901381
0.377279 0.847639 0.912535
0.595605 0.881117 0.927138
0.739376 0.905928 0.938369
0.873487 0.923369 0.95079
0.981384 0.928695 0.958816
0 0.700694 0.889509
0 0.769268 0.912947
0 0.823163 0.921874
0.0712291 0.86659 0.926253
0.470542 0.904234 0.940658
0.644648 0.934768 0.953872
0.776562 0.957366 0.963104
0.889494 0.975937 0.970459
0.985321 0.990356 0.975586
