public/luts/screen-style-02.cube
TITLE "Generated by Resolve"
LUT_3D_SIZE 33
0 0.0186465 0.0234836
0 0.0219577 0.0239872
0.000137331 0.0253605 0.0246128
0.009308 0.0282139 0.024918
0.0281224 0.030396 0.0247959
0.0505684 0.0320439 0.0240787
0.0763561 0.0330053 0.0226749
0.102464 0.0339666 0.0206302
0.128222 0.0343175 0.0177005
0.153689 0.0339818 0.0141146
0.180591 0.0324102 0.00972
0.206668 0.029221 0.00425727
0.23447 0.0245212 0
0.260822 0.0187686 0
0.286198 0.0123598 0
0.310414 0.00447089 0
0.33286 0 0
0.352773 0 0
0.370367 0 0
0.384649 0 0
0.436942 0 0
0.453056 0 0
0.468162 0 0
0.483879 0 0
0.49865 0 0
0.513756 0 0
0.52961 0 0
0.544945 0 0
0.560204 0 0
0.575845 0 0
0.59176 0 0
0.60798 0 0
0.626673 0 0
0 0.0309148 0.0296025
0 0.0359045 0.0276188
0 0.039765 0.0273442
0.0103761 0.0430915 0.0274815
0.0310063 0.0457923 0.0274968
0.0556954 0.0480201 0.0268864
0.0844129 0.0497139 0.0253605
0.112917 0.0513161 0.0232548
0.140871 0.0522316 0.0202029
0.168307 0.0524758 0.0162203
0.197208 0.0514687 0.0118715
0.225574 0.0495003 0.00610361
0.2551 0.0459907 0
0.283085 0.0415961 0
0.309743 0.0363165 0
0.335073 0.0305333 0
0.357763 0.0234836 0
0.37818 0.0157626 0
0.396796 0.00852979 0
0.412314 0.0011902 0
0.427222 0 0
0.445945 0 0
0.459419 0 0
0.473777 0 0
0.487709 0 0
0.503365 0 0
0.519921 0 0
0.536233 0 0
0.553185 0 0
0.570245 0 0
0.590478 0 0
0.608026 0 0
0.627802 0 0
0 0.0402228 0.0348516
0 0.0458534 0.0345922
0 0.0503243 0.0310216
0.00756847 0.0540932 0.0300298
0.0278782 0.0573739 0.0295262
0.0542611 0.0602426 0.028687
0.086305 0.0626383 0.0271305
0.117906 0.0648814 0.0249332
0.148699 0.0666209 0.0217899
0.179019 0.0679179 0.0176089
0.210346 0.0680247 0.0127413
0.240986 0.0674144 0.00697337
0.272648 0.0652628 0
0.302617 0.0624704 0
0.331197 0.0590219 0
0.359167 0.0556649 0
0.383581 0.0509804 0
0.404593 0.0462043 0
0.424262 0.0415808 0
0.441291 0.0368658 0
0.458228 0.0320134 0
0.474678 0.0284733 0
0.491295 0.0265202 0
0.508278 0.0251621 0
0.525154 0.0230411 0
0.542473 0.0213931 0
0.559884 0.0161288 0
0.577173 0.0112306 0
0.594217 0.0034638 0
0.612406 0.000167849 0
0.632349 0 0
0.649577 0 0
0.669642 0 0
0 0.0495155 0.0395514
0 0.0557412 0.0398108
0 0.0608377 0.0371862
0.00383001 0.0650797 0.0334325
0.0220035 0.0688182 0.0318761
0.0492714 0.0723125 0.0304417
0.083711 0.0752117 0.0286107
0.118151 0.0778058 0.0261845
0.151919 0.0800336 0.0228885
0.185367 0.0818647 0.0185855
0.219013 0.0824598 0.0136568
0.251804 0.0823224 0.00781262
0.285328 0.0806897 0.000350958
0.316976 0.0783093 0
0.348577 0.0758679 0
0.377356 0.0733654 0
0.401266 0.069688 0
0.424353 0.0666514 0
0.445228 0.0642557 0
0.464408 0.0619821 0
0.483528 0.0598154 0
0.501427 0.0566415 0
0.520378 0.0542 0
0.538491 0.0511635 0
0.557519 0.0472572 0
0.575402 0.0433967 0
0.593393 0.0400092 0
0.611933 0.0380713 0
0.62974 0.037995 0
0.64744 0.0380102 0
0.666362 0.0388647 0
0.685786 0.0404669 0
0.708049 0.04271 0
0 0.0603799 0.0440528
0 0.0670329 0.0439765
0 0.0729534 0.0420844
0.00151064 0.0779126 0.0383764
0.0146487 0.0823224 0.0348363
0.0426032 0.0863966 0.0326238
0.0779126 0.0899214 0.0300908
0.114855 0.0929732 0.0272526
0.151369 0.0956893 0.0234836
0.187778 0.0979934 0.0188144
0.223423 0.0991073 0.0135653
0.258412 0.0993362 0.00767529
0.294896 0.0984817 0.00108339
0.328481 0.09691 0
0.36144 0.0952773 0
0.390738 0.0932326 0
0.416571 0.0907149 0
0.441184 0.0886854 0
0.463294 0.0871748 0
0.484535 0.085832 0
0.504738 0.0839094 0
0.524315 0.0818647 0
0.544015 0.0797894 0
0.563378 0.0776989 0
0.58352 0.0753643 0
0.602533 0.0735027 0
0.621851 0.0721447 0
0.640833 0.07187 0
0.659159 0.072755 0
0.677317 0.0734264 0
0.695613 0.0745251 0
0.715099 0.0763714 0
0.738308 0.0818036 0
0 0.0730907 0.0485389
0 0.0798352 0.0475776
0 0.0866255 0.0462806
0 0.0926833 0.0434119
0.00613413 0.0980087 0.038941
0.0344091 0.102998 0.0352789
0.0699626 0.107362 0.0320745
0.108934 0.111116 0.0285649
0.147967 0.11458 0.0239109
0.187121 0.117601 0.0187686
0.224903 0.119661 0.0130159
0.262638 0.120592 0.0069276
0.300221 0.120516 0
0.336095 0.119417 0
0.370855 0.118242 0
0.40264 0.117327 0
0.43032 0.116121 0
0.457115 0.115023 0
0.480461 0.114107 0
0.503273 0.113497 0
0.524681 0.112398 0
0.545266 0.110674 0
0.566369 0.109606 0
0.587121 0.108476 0
0.608545 0.107179 0
0.629206 0.107195 0
0.649287 0.107103 0
0.668544 0.108324 0
0.687099 0.110048 0
0.705287 0.111864 0
0.723812 0.114137 0
0.743404 0.117464 0
0.767361 0.12517 0
0 0.0877241 0.05243
0 0.0939803 0.0504921
0 0.10135 0.0494545
0 0.108461 0.0476844
0.00358587 0.114778 0.0440681
0.0208896 0.120897 0.0386969
0.059678 0.126452 0.0345006
0.100603 0.13109 0.0301823
0.142321 0.13576 0.0247501
0.183474 0.139879 0.0187686
0.223117 0.142916 0.0115511
0.263005 0.144793 0.00326543
0.302312 0.145525 0
0.341131 0.145617 0
0.377584 0.144976 0
0.412299 0.145647 0
0.442023 0.145159 0
0.471504 0.145556 0
0.497063 0.145312 0
0.52137 0.145388 0
0.544335 0.144991 0
0.566018 0.143877 0
0.58909 0.143999 0
0.611093 0.143267 0
0.634302 0.143374 0
0.65539 0.143969 0
0.676631 0.145373 0
0.69604 0.147295 0
0.714549 0.149432 0
0.732601 0.151568 0
0.751141 0.154223 0
0.771344 0.158541 0.000854505
0.792157 0.165438 0.00213626
0 0.102861 0.0561837
0 0.109667 0.0540322
0 0.116503 0.0520638
0 0.124117 0.0505837
0 0.131838 0.0483406
0.00291447 0.138857 0.0435798
0.0433661 0.145541 0.0370947
0.0917372 0.151781 0.0316167
0.135439 0.157321 0.0257115
0.178561 0.162371 0.0183566
0.220645 0.166751 0.00953689
0.262181 0.169955 0
0.302907 0.17203 0
0.344366 0.173938 0
0.382605 0.174441 0
0.419547 0.176303 0
0.452445 0.17734 0
0.484276 0.178546 0
0.512139 0.178927 0
0.538064 0.179553 0
0.562829 0.179843 0
0.586419 0.179553 0
0.611063 0.180056 0
0.63537 0.180545 0
0.659693 0.18117 0
0.681727 0.182452 0
0.703304 0.183795 0
0.722942 0.185977 0
0.741421 0.188022 0
0.759396 0.190021 0.000350958
0.777844 0.192737 0.00112917
0.798566 0.198322 0.00318914
0.814862 0.204334 0.00437934
0 0.117876 0.0590982
0 0.125856 0.0574197
0 0.13286 0.0551766
0 0.140078 0.0530098
0 0.148272 0.0511788
0 0.157229 0.0483253
0.0242771 0.165148 0.0416724
0.0773022 0.172747 0.0344091
0.127443 0.179614 0.0274662
0.172351 0.18558 0.019089
0.217166 0.191302 0.00535592
0.259953 0.195758 0
0.302296 0.199329 0
0.344915 0.202274 0
0.385779 0.20528 0
0.424231 0.207858 0
0.460319 0.210224 0
0.494408 0.212161 0
0.52549 0.213809 0
0.553079 0.214832 0
0.580285 0.216114 0
0.606104 0.216571 0
0.632639 0.217411 0
0.659007 0.218494 0
0.684001 0.219425 0
0.706752 0.220783 0
0.728725 0.222416 0
0.748226 0.224247 0
0.766278 0.225864 0
0.7841 0.227756 0
0.802731 0.230823 0
0.823896 0.237659 0.00392157
0.836988 0.243061 0.00485237
0 0.13283 0.0616617
0 0.141619 0.0600748
0 0.149691 0.0581216
0 0.157015 0.0556802
0 0.164096 0.0526589
0 0.173678 0.0510414
0 0.184527 0.0467842
0.0560922 0.193576 0.0379034
0.113466 0.201862 0.0287175
0.164279 0.209186 0.0196994
0.211032 0.215885 0.00621042
0.255573 0.221653 0
0.300237 0.227359 0
0.344213 0.231876 0
0.386801 0.236316 0
0.426795 0.239887 0
0.465965 0.244022 0
0.501595 0.246494 0
0.535882 0.249134 0
0.565774 0.250828 0
0.595376 0.25275 0
0.623392 0.253941 0
0.652201 0.255467 0
0.67924 0.256489 0
0.70573 0.257771 0
0.728985 0.259358 0
0.751675 0.261097 0
0.771344 0.262943 0
0.789578 0.264683 0
0.807401 0.266651 0
0.825925 0.269902 0
0.847059 0.277348 0.00201419
0.857816 0.282353 0.00239567
0 0.148272 0.0635691
0 0.15848 0.0624399
0 0.167773 0.0607156
0 0.176532 0.0588693
0 0.184787 0.057023
0 0.193942 0.0537423
0 0.205524 0.050721
0.032105 0.215869 0.0422827
0.0924697 0.225269 0.0312963
0.152071 0.234577 0.0170138
0.203433 0.24242 0.00205997
0.250935 0.25037 0
0.296529 0.256886 0
0.341955 0.263554 0
0.385962 0.269474 0
0.427207 0.27451 0
0.46833 0.280018 0
0.506157 0.283833 0
0.543008 0.28751 0
0.575998 0.29073 0
0.607462 0.293309 0
0.63801 0.295567 0
0.668162 0.297536 0
0.696437 0.298863 0
0.723888 0.300069 0
0.748272 0.301396 0
0.771817 0.302892 0
0.791974 0.304677 0
0.810987 0.306294 0
0.829084 0.308156 0
0.847715 0.311315 0
0.868482 0.318776 0
0.878141 0.323323 0
0 0.164065 0.0648203
0 0.175402 0.064271
0 0.186374 0.0631723
0 0.196124 0.0611582
0 0.205341 0.0597696
0 0.215015 0.0564431
0 0.226719 0.053193
0.0103914 0.239307 0.0478523
0.0707713 0.250538 0.0362249
0.132982 0.2607 0.0201572
0.191058 0.270085 0
0.243229 0.279576 0
0.292012 0.288609 0
0.337911 0.296361 0
0.383505 0.303593 0
0.425864 0.310414 0
0.468193 0.316747 0
0.50898 0.322362 0
0.54757 0.326925 0
0.583261 0.331029 0
0.616342 0.334386 0
0.648981 0.337499 0
0.68011 0.339635 0
0.709987 0.341527 0
0.738567 0.343114 0
0.764584 0.344732 0
0.789395 0.346578 0
0.810391 0.348363 0
0.830335 0.350027 0
0.848737 0.351583 0
0.867185 0.354223 0
0.887617 0.361166 0
0.896925 0.365545 0
0 0.181796 0.0664836
0 0.194491 0.0650797
0 0.206973 0.0636606
0 0.218051 0.0632029
0 0.228779 0.0623636
0 0.239002 0.0591897
0 0.249424 0.0545205
0 0.263066 0.0501106
0.0360418 0.276738 0.0420691
0.113237 0.28835 0.0232853
0.17438 0.298924 0
0.232105 0.309987 0
0.284657 0.320455 0
0.332845 0.330541 0
0.380011 0.339117 0
0.422843 0.34699 0
0.466636 0.354833 0
0.509773 0.361822 0
0.54934 0.36733 0
0.588144 0.372534 0
0.622889 0.376715 0
0.657343 0.380697 0
0.689754 0.383551 0
0.721065 0.385931 0
0.75079 0.387823 0
0.7785 0.389639 0
0.80415 0.391485 0
0.826902 0.393271 0
0.848188 0.39498 0
0.867567 0.39646 0
0.886534 0.39884 0
0.906844 0.404852 0
0.915984 0.408667 0
0 0.200793 0.0687419
0 0.215518 0.0680705
0 0.228931 0.0664988
0 0.241016 0.0658274
0 0.252705 0.0650645
0 0.26363 0.0626841
0 0.274815 0.0576791
0 0.288441 0.0534829
0.00822461 0.303105 0.0465705
0.0873121 0.316045 0.0305943
0.156558 0.327901 0
0.217929 0.340505 0
0.274723 0.352468 0
0.326879 0.36376 0
0.375662 0.373999 0
0.420111 0.383215 0
0.464652 0.39237 0
0.508827 0.400137 0
0.550835 0.407141 0
0.591806 0.413077 0
0.627955 0.417884 0
0.663874 0.422629 0
0.69723 0.426047 0
0.730114 0.429252 0
0.761028 0.431693 0
0.790845 0.434134 0
0.817624 0.436347 0
0.842374 0.438392 0
0.865064 0.440208 0
0.885451 0.441459 0
0.904921 0.443168 0
0.925338 0.448234 0
0.93463 0.45182 0
0 0.221805 0.0723735
0 0.237339 0.0719005
0 0.252262 0.070222
0 0.26537 0.0694896
0 0.277531 0.0688487
0 0.289448 0.0667582
0 0.30132 0.0622873
0 0.314809 0.0574655
0 0.329442 0.0519417
0.0643015 0.343679 0.0370642
0.137606 0.3561 0.00598154
0.202472 0.368856 0
0.263325 0.382773 0
0.318837 0.395132 0
0.37116 0.407065 0
0.416724 0.416922 0
0.461646 0.426947 0
0.506905 0.435462 0
0.550347 0.443412 0
0.592584 0.450309 0
0.631754 0.456458 0
0.668574 0.461891 0
0.703716 0.466392 0
0.737682 0.470222 0
0.770184 0.473472 0
0.801541 0.476341 0
0.829572 0.478874 0
0.856474 0.4813 0
0.880751 0.48336 0
0.902205 0.484443 0
0.922438 0.485756 0
0.943282 0.490059 0
0.952438 0.493202 0
0 0.243366 0.0763409
0 0.259495 0.0761425
0 0.274937 0.0746471
0 0.288777 0.0740673
0 0.30193 0.07364
0 0.31426 0.0716564
0 0.326299 0.0669108
0 0.338811 0.0607767
0 0.353933 0.0551766
0.0272221 0.368948 0.0444953
0.124376 0.383322 0.0204471
0.187579 0.395727 0
0.248432 0.409232 0
0.307851 0.423377 0
0.36228 0.436515 0
0.412299 0.448341 0
0.457588 0.458793 0
0.504051 0.468406 0
0.548547 0.47686 0
0.592233 0.485039 0
0.63357 0.491936 0
0.67219 0.498329 0
0.708675 0.503624 0
0.743999 0.508293 0
0.777554 0.512154 0
0.810101 0.515541 0
0.839918 0.518563 0
0.868559 0.521385 0
0.894179 0.523781 0
0.916823 0.525017 0
0.938201 0.526055 0
0.959823 0.529641 0
0.969024 0.532479 0
0 0.263966 0.0806439
0 0.280781 0.0804456
0 0.297215 0.0790112
0 0.311757 0.0784314
0 0.325109 0.0780499
0 0.337697 0.0757153
0 0.350179 0.0712596
0 0.362997 0.0653544
0 0.377432 0.0588693
0 0.391989 0.0491188
0.0912184 0.4065 0.028748
0.173907 0.419898 3.0518e-05
0.23299 0.432639 0
0.293355 0.44686 0
0.350942 0.46183 0
0.403861 0.474937 0
0.451896 0.486793 0
0.499474 0.497292 0
0.545846 0.506844 0
0.590097 0.515587 0
0.63444 0.523842 0
0.673609 0.530999 0
0.711971 0.53753 0
0.747982 0.542733 0
0.783032 0.547448 0
0.816281 0.551232 0
0.847761 0.554711 0
0.878202 0.5579 0
0.904723 0.560586 0
0.928862 0.562081 0
0.951476 0.562921 0
0.973861 0.565972 0
0.98349 0.568261 0
0 0.284276 0.0846571
0 0.301274 0.0846265
0 0.317922 0.0834974
0 0.332265 0.0824292
0 0.3458 0.082063
0 0.359106 0.0805371
0 0.371878 0.0763867
0 0.384497 0.0704814
0 0.398428 0.0631571
0 0.413199 0.0548409
0.0737621 0.428092 0.0369421
0.158053 0.441321 0.0113375
0.219852 0.455039 0
0.278553 0.468727 0
0.337484 0.484215 0
0.393866 0.499016 0
0.444404 0.512383 0
0.493706 0.523644 0
0.542306 0.534173 0
0.587366 0.543633 0
0.63357 0.552819 0
0.673701 0.560678 0
0.713481 0.5682 0
0.750286 0.574166 0
0.786313 0.579538 0
0.820661 0.584085 0
0.853834 0.588205 0
0.885344 0.591943 0
0.91342 0.595163 0
0.939086 0.597253 0
0.962966 0.598352 0
0.986084 0.601022 0
0.995834 0.603067 0
0 0.301427 0.0883955
0 0.31957 0.0887465
0 0.336645 0.0875868
0 0.351751 0.0873884
0 0.365621 0.0866865
0 0.379034 0.0851148
0 0.391882 0.0813458
0 0.404929 0.0749828
0 0.418769 0.0679637
0 0.434028 0.0599222
0.0554818 0.4495 0.0439765
0.144564 0.463188 0.0217899
0.20621 0.476402 0
0.264652 0.489921 0
0.32343 0.505318 0
0.38143 0.521126 0
0.434516 0.536065 0
0.485695 0.548608 0
0.536919 0.560006 0
0.583825 0.570535 0
0.630686 0.580331 0
0.672847 0.589181 0
0.713344 0.59736 0
0.751354 0.604257 0
0.78819 0.610361 0
0.823407 0.615564 0
0.858152 0.62034 0
0.890379 0.624689 0
0.920012 0.628534 0
0.94699 0.631159 0
0.972427 0.632731 0
0.993118 0.634897 0
1 0.636332 0
0 0.319524 0.093843
0 0.337728 0.0937362
0 0.355535 0.0924849
0 0.370809 0.0921492
0 0.38497 0.0914473
0 0.398428 0.0902724
0 0.412116 0.0867781
0 0.425406 0.081178
0 0.438743 0.0731212
0 0.455024 0.0652628
0.0411231 0.471138 0.0502327
0.127047 0.485222 0.030045
0.194186 0.49836 0.00483711
0.253986 0.511894 0
0.309697 0.525536 0
0.368399 0.543069 0
0.422827 0.558083 0
0.475593 0.571847 0
0.528954 0.584741 0
0.578866 0.596109 0
0.626871 0.60676 0
0.671397 0.616495 0
0.712566 0.625406 0
0.751675 0.633173 0
0.789136 0.639933 0
0.825406 0.645914 0
0.86128 0.651362 0
0.894194 0.656199 0
0.925307 0.660609 0
0.953918 0.663996 0
0.980743 0.666087 0
0.996185 0.667536 0
1 0.668391 0
0 0.337819 0.0999466
0 0.356283 0.0998856
0 0.374289 0.098558
0 0.38999 0.0982834
0 0.404486 0.0979324
0 0.418906 0.0971847
0 0.432578 0.0936446
0 0.446189 0.087892
0 0.459464 0.0802014
0 0.475929 0.0713054
0.0220035 0.49247 0.060029
0.110552 0.507546 0.0413519
0.185443 0.521019 0.0186618
0.245441 0.533227 0
0.29984 0.546242 0
0.355184 0.562631 0
0.411109 0.578531 0
0.46479 0.593439 0
0.519097 0.607217 0
0.571771 0.619852 0
0.622187 0.631586 0
0.669474 0.642161 0
0.711131 0.651621 0
0.751156 0.660014 0
0.789105 0.667491 0
0.826169 0.674083 0
0.86247 0.680034 0
0.896757 0.685679 0
0.92932 0.690669 0
0.95935 0.694804 0
0.986633 0.697383 0
0.998428 0.697398 0
1 0.697169 0
0 0.357336 0.108263
0 0.376089 0.108598
0 0.394156 0.107607
0 0.410147 0.106844
0 0.424842 0.106966
0 0.439338 0.1066
0 0.453559 0.103105
0 0.467094 0.0970321
0 0.480003 0.0882124
0 0.496925 0.0808881
0.00563058 0.513985 0.0711223
0.08748 0.529717 0.054963
0.175616 0.54406 0.033753
0.240436 0.556207 0.00671397
0.292531 0.567864 0
0.345037 0.581506 0
0.399741 0.597711 0
0.453391 0.613275 0
0.50869 0.628229 0
0.563775 0.642054 0
0.615351 0.654536 0
0.666773 0.666529 0
0.709484 0.676402 0
0.75079 0.685725 0
0.7888 0.693309 0
0.826658 0.700511 0
0.86331 0.706783 0
0.898497 0.712627 0
0.932494 0.71809 0
0.963668 0.722713 0
0.989883 0.725429 0
1 0.724865 0
1 0.723415 0
0 0.377356 0.118639
0 0.39675 0.119188
0 0.415106 0.118563
0 0.431281 0.118196
0 0.446021 0.117891
0 0.460746 0.117784
0 0.47538 0.114977
0 0.489204 0.110048
0 0.501823 0.101289
0 0.5187 0.0945602
0.00918593 0.53611 0.0857252
0.0773327 0.551934 0.0714733
0.168429 0.566369 0.0538033
0.237278 0.578561 0.0289158
0.290837 0.589822 0.0027924
0.340169 0.60119 0
0.391745 0.614603 0
0.443748 0.629969 0
0.498268 0.645197 0
0.554681 0.659846 0
0.607828 0.673259 0
0.661158 0.685939 0
0.706401 0.696742 0
0.748989 0.706508 0
0.787961 0.714855 0
0.826337 0.722499 0
0.863111 0.729183 0
0.899351 0.735561 0
0.934585 0.741558 0
0.966827 0.746807 0
0.990906 0.750103 0
1 0.748821 0
1 0.746929 0
0 0.39881 0.131365
0 0.418387 0.132464
0 0.436439 0.132677
0 0.452232 0.132769
0 0.467033 0.133257
0 0.481758 0.132906
0 0.496468 0.130632
0 0.510536 0.126207
0 0.523812 0.118379
0 0.540551 0.112291
0.0135042 0.55819 0.104265
0.077821 0.573892 0.0925765
0.168307 0.588342 0.0770581
0.236988 0.600519 0.0535897
0.290578 0.611032 0.0277104
0.340017 0.622614 0.0106508
0.387304 0.63267 0.00582895
0.436545 0.64622 0.00288396
0.488823 0.660731 0
0.544808 0.675563 0
0.599466 0.689693 0
0.653758 0.70312 0
0.701579 0.714687 0
0.745769 0.725048 0
0.786007 0.733669 0
0.825132 0.741726 0
0.862104 0.748547 0
0.899214 0.755169 0
0.935576 0.761456 0
0.968704 0.76704 0
0.99205 0.77055 0
1 0.769421 0
1 0.766583 0
0 0.420661 0.147768
0 0.440436 0.148898
0 0.458228 0.149676
0 0.473869 0.150652
0 0.488457 0.151446
0 0.503014 0.150988
0 0.517555 0.149081
0 0.531502 0.144961
0 0.544869 0.138186
0 0.561685 0.13286
0.0144808 0.579522 0.126223
0.0828717 0.595376 0.115984
0.170977 0.609369 0.102129
0.239033 0.62121 0.0836347
0.292058 0.631327 0.0624857
0.34107 0.641535 0.0385595
0.387106 0.650385 0.0198215
0.433219 0.661555 0.0127565
0.481804 0.673716 0.00669871
0.535119 0.687297 0
0.589822 0.701518 0
0.644984 0.715496 0
0.695155 0.727932 0
0.740414 0.738796 0
0.78262 0.748119 0
0.822446 0.756405 0
0.860288 0.763745 0
0.898085 0.770733 0
0.935088 0.777386 0
0.969162 0.783459 0
0.992554 0.787671 0
1 0.786465 0
1 0.78349 0
0 0.443381 0.167071
0 0.462913 0.169009
0 0.47982 0.170489
0 0.494865 0.172168
0 0.509163 0.173266
0 0.5234 0.173251
0 0.53756 0.171572
0 0.551247 0.167407
0 0.564721 0.161471
0 0.581048 0.156191
0.0107729 0.599435 0.151202
0.0876783 0.615595 0.14258
0.17557 0.62948 0.129534
0.241978 0.640909 0.115999
0.295445 0.650843 0.0990616
0.344335 0.6598 0.0768139
0.388922 0.668101 0.0495003
0.432853 0.677455 0.0330358
0.477699 0.687144 0.0223392
0.527337 0.69865 0.00511177
0.58053 0.712139 0
0.635004 0.725795 0
0.686992 0.738964 0
0.733425 0.750362 0
0.777157 0.760449 0
0.818448 0.769116 0
0.857542 0.776822 0
0.896239 0.784161 0
0.933318 0.790982 0
0.968215 0.797436 0
0.992721 0.802152 0
1 0.801328 0
1 0.798321 0
0 0.465782 0.191485
0 0.485313 0.193439
0 0.50135 0.195224
0 0.515679 0.19733
0 0.529686 0.198627
0 0.543465 0.19881
0 0.557229 0.197177
0 0.570581 0.193423
0 0.583688 0.18735
0 0.598581 0.181292
0.00247196 0.618524 0.178927
0.0911116 0.635142 0.172305
0.176516 0.648554 0.16083
0.245335 0.65977 0.148699
0.300175 0.669398 0.133547
0.348577 0.677791 0.1149
0.392462 0.685206 0.0895552
0.434806 0.693126 0.0631571
0.476982 0.701106 0.0462348
0.522622 0.710063 0.0277714
0.572564 0.72166 0.0116884
0.625437 0.734874 0.00122072
0.677134 0.747326 0
0.724239 0.758801 0
0.769375 0.769528 0
0.811688 0.778744 0
0.852979 0.787121 0
0.892866 0.794812 0
0.930083 0.801923 0
0.965774 0.808759 0
0.992508 0.814054 0
1 0.813718 0
1 0.811048 0
0 0.48806 0.219623
0 0.506691 0.222538
0 0.522179 0.224781
0 0.535973 0.226917
0 0.549615 0.228367
0 0.563027 0.228504
0 0.576303 0.226749
0 0.589426 0.223423
0 0.602411 0.217731
