public/luts/screen-style-02.cube
TITLE "Generated by Resolve"
LUT_3D_SIZE 9
0 0.0186465 0.0234836
0.0281224 0.030396 0.0247959
0.128222 0.0343175 0.0177005
0.23447 0.0245212 0
0.33286 0 0
0.436942 0 0
0.49865 0 0
0.560204 0 0
0.626673 0 0
0 0.0603799 0.0440528
0.0146487 0.0823224 0.0348363
0.151369 0.0956893 0.0234836
0.294896 0.0984817 0.00108339
0.416571 0.0907149 0
0.504738 0.0839094 0
0.58352 0.0753643 0
0.659159 0.072755 0
0.738308 0.0818036 0
0 0.117876 0.0590982
0 0.148272 0.0511788
0.127443 0.179614 0.0274662
0.302296 0.199329 0
0.460319 0.210224 0
0.580285 0.216114 0
0.684001 0.219425 0
0.766278 0.225864 0
0.836988 0.243061 0.00485237
0 0.181796 0.0664836
0 0.228779 0.0623636
0.0360418 0.276738 0.0420691
0.284657 0.320455 0
0.466636 0.354833 0
0.622889 0.376715 0
0.75079 0.387823 0
0.848188 0.39498 0
0.915984 0.408667 0
0 0.263966 0.0806439
0 0.325109 0.0780499
0 0.377432 0.0588693
0.23299 0.432639 0
0.451896 0.486793 0
0.63444 0.523842 0
0.783032 0.547448 0
0.904723 0.560586 0
0.98349 0.568261 0
0 0.337819 0.0999466
0 0.404486 0.0979324
0 0.459464 0.0802014
0.185443 0.521019 0.0186618
0.411109 0.578531 0
0.622187 0.631586 0
0.789105 0.667491 0
0.92932 0.690669 0
1 0.697169 0
0 0.420661 0.147768
0 0.488457 0.151446
0 0.544869 0.138186
0.170977 0.609369 0.102129
0.387106 0.650385 0.0198215
0.589822 0.701518 0
0.78262 0.748119 0
0.935088 0.777386 0
1 0.78349 0
0 0.511147 0.252461
0 0.57055 0.263386
0 0.62182 0.253407
0.181308 0.685893 0.236118
0.402167 0.721096 0.181842
0.564538 0.744762 0.068452
0.745464 0.782391 0.00502022
0.918029 0.818265 0
1 0.832654 0
0 0.596246 0.404532
0 0.641215 0.405875
0 0.685771 0.395712
0.21532 0.7476 0.397482
0.425406 0.784253 0.377707
0.581079 0.81207 0.338247
0.715526 0.832822 0.286107
0.859892 0.847425 0.193851
1 0.861265 0.0822614
0 0.0208591 0.0765545
0.0251469 0.0336919 0.0857099
0.131411 0.037583 0.084596
0.243366 0.0274052 0.0745403
0.346471 0 0.0577249
0.408423 0 0.0355535
0.506844 0 0.0332189
0.569757 0 0.0278782
0.606531 0 0.0190433
0 0.0691081 0.101839
0.0308537 0.0919661 0.109682
0.173419 0.10547 0.109957
0.31722 0.10782 0.101366
0.438758 0.100359 0.0891737
0.524315 0.0892042 0.0781415
0.602274 0.0769665 0.071458
0.674128 0.0721599 0.0734417
0.751354 0.0869459 0.0903334
0 0.131609 0.121798
0.000823987 0.166308 0.134371
0.161288 0.197604 0.122194
0.354162 0.214649 0.11313
0.501701 0.219348 0.106264
0.607385 0.220096 0.100786
0.701869 0.221927 0.100572
0.777127 0.230472 0.111345
0.845258 0.255772 0.139055
0 0.20415 0.143923
0 0.25658 0.163134
0.0916152 0.306722 0.163516
0.328359 0.344228 0.120394
0.512688 0.363424 0.0980545
0.654673 0.372473 0.0870375
0.767956 0.378195 0.0880446
0.850523 0.38938 0.10486
0.915953 0.417105 0.145251
0 0.294926 0.176883
0 0.360922 0.197314
0 0.416648 0.19646
0.273426 0.468666 0.162448
0.489525 0.500343 0.0999924
0.659098 0.521248 0.0543832
0.795697 0.533349 0.0242313
0.899199 0.544961 0.0518654
0.970352 0.565515 0.118166
0 0.373663 0.213291
0 0.44593 0.235004
0 0.501991 0.229221
0.237232 0.566766 0.213596
0.443015 0.604547 0.147997
0.64448 0.633738 0.0512093
0.797086 0.655543 0.0124056
0.920562 0.671229 0.00106813
0.99971 0.684749 0.0364385
0 0.457984 0.268894
0 0.530022 0.290227
0 0.583688 0.281575
0.210025 0.654627 0.277501
0.430961 0.693843 0.238224
0.612772 0.721126 0.146746
0.786694 0.743694 0.0398108
0.924254 0.764096 0.00715648
1 0.775128 0.0191653
0 0.546242 0.363729
0 0.60592 0.381262
0 0.654292 0.37261
0.207385 0.721553 0.373465
0.436851 0.759548 0.347036
0.601389 0.785489 0.293217
0.757671 0.802853 0.196185
0.913512 0.817685 0.0782635
1 0.829648 0.0521096
0 0.622003 0.49015
0 0.667185 0.496132
0 0.708476 0.487388
0.223468 0.771481 0.497917
0.448112 0.811719 0.492897
0.606348 0.841566 0.473213
0.736614 0.862409 0.442649
0.869627 0.875792 0.381125
1 0.886412 0.295766
0 0.0162203 0.139544
0.0192721 0.0313878 0.157153
0.129412 0.0347295 0.160967
0.244587 0.022797 0.152224
0.35079 0 0.135607
0.453101 0 0.135958
0.515892 0 0.121965
0.580179 0 0.119921
0.617533 0 0.10753
0 0.0709239 0.180087
0.0152438 0.0977646 0.195239
0.170062 0.111742 0.203143
0.321141 0.114275 0.199603
0.446586 0.106401 0.190921
0.534844 0.0949264 0.183185
0.61529 0.0830549 0.180591
0.687037 0.0794537 0.187076
0.762737 0.0970016 0.207263
0 0.142885 0.206149
0 0.177676 0.21648
0.185031 0.211231 0.231403
0.371603 0.22771 0.233234
0.515587 0.232898 0.230015
0.621225 0.233921 0.227817
0.71519 0.236164 0.230823
0.78822 0.244999 0.242481
0.852628 0.271672 0.267185
0 0.220844 0.228031
0 0.27509 0.248905
0.132525 0.327901 0.27454
0.358648 0.3635 0.248096
0.549126 0.380072 0.241367
0.681407 0.38735 0.244495
0.785306 0.39382 0.250782
0.860319 0.406073 0.265858
0.920607 0.435798 0.295521
0 0.315618 0.262776
0 0.38584 0.292149
0.00740063 0.443778 0.30988
0.310887 0.496391 0.304555
0.522515 0.525628 0.253971
0.69015 0.543313 0.235966
0.821241 0.552346 0.238697
0.911223 0.563088 0.261006
0.972732 0.586648 0.301122
0 0.396262 0.300237
0 0.47422 0.333852
0 0.531136 0.342184
0.271611 0.598962 0.349996
0.476783 0.636118 0.314778
0.671336 0.661738 0.255695
0.820569 0.678203 0.233326
0.932357 0.69044 0.23772
1 0.706188 0.281865
0 0.48397 0.357961
0 0.560479 0.389273
0 0.61651 0.393988
0.242725 0.686458 0.401968
0.468162 0.726986 0.384253
0.636667 0.752865 0.328038
0.80647 0.77142 0.266545
0.935012 0.785687 0.243107
1 0.795758 0.260487
0 0.570962 0.446311
0 0.633738 0.471153
0 0.683101 0.471794
0.227634 0.747967 0.479683
0.467018 0.788663 0.468437
0.628077 0.814847 0.434073
0.771237 0.830488 0.367697
0.921798 0.843763 0.303853
1 0.853086 0.282841
0 0.64239 0.563378
0 0.6907 0.575143
0 0.73492 0.575479
0.239063 0.79321 0.588571
0.466697 0.83328 0.58883
0.626215 0.863935 0.579049
0.75404 0.884184 0.557031
0.877104 0.897658 0.512825
1 0.906325 0.434653
0 0 0.208087
0.0103761 0.0215763 0.234104
0.123003 0.0233158 0.243519
0.239704 0.00840772 0.238575
0.346716 0 0.223102
0.454719 0 0.233265
0.522011 0 0.223896
0.588891 0 0.223728
0.625345 0 0.20441
0 0.0658122 0.264988
0.00369268 0.10071 0.287572
0.160815 0.115007 0.304128
0.318151 0.117693 0.307149
0.448478 0.109453 0.302388
0.539879 0.097734 0.296895
0.622477 0.0863203 0.295598
0.694881 0.0840009 0.302205
0.770062 0.103258 0.320012
0 0.14844 0.305119
0 0.186481 0.323323
0.170962 0.222934 0.347326
0.368002 0.240269 0.356863
0.518059 0.245518 0.357946
0.626978 0.246387 0.3579
0.721996 0.2486 0.361578
0.794385 0.257115 0.372168
0.85745 0.283742 0.393668
0 0.238376 0.335851
0 0.291997 0.356924
0.137163 0.345281 0.37789
0.388708 0.379751 0.390249
0.565362 0.396078 0.394003
0.689937 0.403601 0.39469
0.790661 0.410086 0.398001
0.863447 0.421912 0.408713
0.922179 0.45156 0.431098
0 0.335561 0.367025
0 0.405814 0.391959
0.0457618 0.467048 0.410697
0.3514 0.518212 0.433967
0.5505 0.547219 0.407614
0.714382 0.561105 0.402975
0.834089 0.569207 0.411414
0.9131 0.580179 0.426581
0.970764 0.60444 0.453162
0 0.416815 0.4
0 0.495949 0.428565
0.000549325 0.560525 0.44683
0.309407 0.624567 0.472984
0.518364 0.662669 0.465202
0.692317 0.685954 0.419532
0.837263 0.698787 0.406821
0.937682 0.708049 0.418387
0.99968 0.724224 0.452155
0 0.504128 0.450294
0 0.582986 0.479744
0 0.642741 0.491981
0.277958 0.713466 0.519875
0.504875 0.754391 0.517311
0.660929 0.780026 0.487114
0.818906 0.795407 0.432486
0.937942 0.807202 0.417975
1 0.817441 0.440314
0 0.589776 0.530587
0 0.65568 0.55436
0 0.709468 0.563149
0.266545 0.774075 0.58584
0.491569 0.812329 0.581689
0.654459 0.839658 0.564645
0.785595 0.854887 0.519005
0.925093 0.866407 0.460899
1 0.875669 0.448173
0 0.659251 0.631922
0 0.710781 0.644129
0 0.762951 0.656168
0.287312 0.816968 0.675135
0.485206 0.853147 0.678599
0.642832 0.883635 0.677119
0.77142 0.904051 0.666835
0.88333 0.917708 0.639185
1 0.925368 0.563546
0 0 0.269291
0.00062562 0 0.301274
0.114214 0 0.315221
0.231098 0 0.314168
0.337407 0 0.297169
0.455512 0 0.322698
0.525612 0 0.315999
0.595911 0 0.317754
0.664302 0 0.323156
0 0.0497292 0.338491
0 0.098024 0.3691
0.151049 0.114122 0.393973
0.31252 0.117082 0.403449
0.446632 0.108614 0.402762
0.540948 0.0962844 0.399527
0.625467 0.0846418 0.399496
0.699351 0.0825513 0.406516
0.775464 0.104738 0.423041
0 0.145571 0.391669
0 0.190295 0.419883
0.156497 0.23032 0.448829
0.360891 0.248341 0.465904
0.515953 0.254154 0.471687
0.627817 0.255055 0.473594
0.724468 0.256977 0.477592
0.797757 0.265553 0.487434
0.860685 0.292134 0.505638
0 0.24213 0.430091
0 0.302907 0.464515
0.0977951 0.357763 0.489235
0.378882 0.392996 0.511482
0.560021 0.409705 0.519814
0.688014 0.416648 0.522225
0.790661 0.422553 0.525963
0.864149 0.433906 0.535927
0.922194 0.462837 0.554391
0 0.346822 0.465827
0 0.42063 0.500069
0.00407416 0.480278 0.514611
0.369223 0.533608 0.538994
0.576944 0.56112 0.546624
0.722347 0.574243 0.549844
0.834104 0.583154 0.554131
0.910872 0.594125 0.564126
0.96788 0.618158 0.582498
0 0.432486 0.499092
0 0.512871 0.530007
0 0.577661 0.541344
0.350576 0.643519 0.570886
0.555154 0.680278 0.586221
0.70927 0.701671 0.56257
0.849119 0.71191 0.559701
0.936431 0.720348 0.573098
0.997192 0.737728 0.59382
0 0.519661 0.544213
0 0.599039 0.569329
0 0.662409 0.577691
0.332555 0.735485 0.612589
0.53753 0.774136 0.624842
0.688807 0.799268 0.617365
0.829786 0.813321 0.576196
0.940124 0.82298 0.567864
1 0.832502 0.592401
0 0.602853 0.60856
0 0.671168 0.628199
0 0.732784 0.639735
0.326863 0.796765 0.668147
0.525078 0.832715 0.675166
0.676524 0.857618 0.668589
0.802563 0.873503 0.64651
0.925246 0.883848 0.597986
1 0.892943 0.59202
0 0.670909 0.691814
0 0.724895 0.702434
0 0.779171 0.715129
0.34226 0.837263 0.744732
0.519142 0.871931 0.754864
0.657557 0.898314 0.755901
0.786862 0.918975 0.753384
0.891585 0.933394 0.738628
1 0.94139 0.675761
0 0 0.326146
0 0 0.359152
0.103258 0 0.375753
0.218799 0 0.376715
0.365026 0 0.404318
0.450446 0 0.397726
0.528054 0 0.398779
0.601572 0 0.402564
0.671122 0 0.407599
0 0.0290074 0.400595
0 0.0903792 0.436194
0.141375 0.111421 0.468086
0.305806 0.114488 0.483467
0.442954 0.105425 0.48716
0.540124 0.0928359 0.487037
0.626566 0.0809186 0.48896
0.702373 0.0787823 0.496788
0.780026 0.103548 0.512535
0 0.136797 0.462486
0 0.190249 0.499794
0.141802 0.234577 0.531518
0.353109 0.253285 0.554528
0.511757 0.259663 0.564996
0.626184 0.260792 0.569879
0.724956 0.262531 0.574929
0.799802 0.270802 0.584146
0.863172 0.297292 0.599496
0 0.244556 0.512856
0 0.309865 0.554437
0.0646525 0.365652 0.579171
0.368032 0.401785 0.607523
0.552239 0.418784 0.620554
0.682994 0.425788 0.625757
0.788342 0.431434 0.630091
0.863706 0.44242 0.638727
0.92224 0.470649 0.653452
0 0.358648 0.557076
0 0.430884 0.594736
0 0.489754 0.610407
0.352392 0.54432 0.641016
0.566247 0.572198 0.655299
0.714397 0.585504 0.661509
0.829145 0.593729 0.666041
0.907637 0.603891 0.674357
0.965423 0.626734 0.688624
0 0.443244 0.587991
0 0.524407 0.622309
0 0.583734 0.629511
0.331014 0.655421 0.66389
0.5673 0.691966 0.677287
0.727306 0.710903 0.682429
0.85037 0.721263 0.685634
0.931319 0.729931 0.691554
0.992645 0.747127 0.703777
0 0.531624 0.627787
0 0.610941 0.654337
0 0.674586 0.661524
0.329839 0.747799 0.69163
0.566903 0.78793 0.705684
0.713939 0.810666 0.715404
0.839109 0.82533 0.695323
0.940063 0.832624 0.694942
1 0.842664 0.710704
0 0.612421 0.680613
0 0.681315 0.698955
0 0.740063 0.70454
0.347829 0.810361 0.735759
0.561608 0.848463 0.748791
0.700389 0.870756 0.754116
0.821668 0.886366 0.747677
0.926513 0.896605 0.71104
1 0.904768 0.711482
0 0.678904 0.746517
0 0.733898 0.754742
0.000274662 0.785046 0.761013
0.376745 0.851392 0.798016
0.554772 0.887083 0.813581
0.68304 0.911299 0.820905
0.79942 0.929778 0.821591
0.899718 0.944762 0.8177
1 0.953643 0.767163
0 0 0.379141
0 0 0.406027
0.091371 0 0.425269
0.207996 0 0.430106
0.35819 0 0.46453
0.451545 0 0.465263
0.530907 0 0.468437
0.606271 0 0.473442
0.678019 0 0.4795
0 0 0.450858
0 0.0825971 0.493416
0.133989 0.108461 0.52813
0.300237 0.11165 0.547738
0.439658 0.102174 0.555138
0.539162 0.0891737 0.558099
0.627741 0.0771038 0.56231
0.705806 0.0758373 0.571588
0.785351 0.103578 0.588006
0 0.12639 0.520836
0 0.188571 0.562646
0.130678 0.237949 0.596918
0.347143 0.257435 0.623835
0.507927 0.264286 0.637751
0.624323 0.265827 0.645411
0.725521 0.267582 0.652323
0.802075 0.275624 0.662013
0.865782 0.301854 0.676478
0 0.245426 0.580484
0 0.313542 0.623362
0.0439002 0.371405 0.648875
0.360265 0.408301 0.68098
0.545846 0.425589 0.697475
0.67808 0.432898 0.705547
0.786023 0.438605 0.711681
0.863767 0.449546 0.720485
0.922683 0.477165 0.733318
0 0.362264 0.625177
0 0.437812 0.66714
0.000396735 0.496406 0.683818
0.341711 0.551598 0.718975
0.558206 0.579767 0.737346
0.706966 0.593439 0.74667
0.824353 0.601678 0.752667
0.905119 0.611246 0.760204
0.963699 0.632975 0.770993
0 0.451865 0.659693
0 0.534142 0.697826
0 0.593606 0.708507
0.31545 0.663584 0.744732
0.557076 0.70013 0.763058
0.717678 0.719203 0.771939
0.842985 0.729229 0.776562
0.926268 0.737072 0.781506
0.989288 0.75346 0.789776
0 0.540536 0.696727
0 0.620661 0.727092
0 0.682597 0.735164
0.309194 0.755764 0.766949
0.555489 0.796109 0.782177
0.719112 0.818509 0.788205
0.849561 0.831281 0.790799
0.936416 0.838788 0.793225
1 0.849744 0.798596
0 0.620798 0.742473
0 0.689219 0.760479
0 0.746731 0.764691
0.337896 0.817792 0.795209
0.563989 0.856687 0.806989
0.720729 0.879667 0.812558
0.838331 0.894377 0.818723
0.929229 0.904784 0.802869
1 0.912657 0.807523
0 0.683848 0.789899
0 0.740414 0.798413
0.00462348 0.792111 0.803098
0.387304 0.859709 0.838407
0.574212 0.896391 0.852872
0.710689 0.921126 0.862715
0.81828 0.938415 0.869001
0.908309 0.952331 0.870542
0.999954 0.962524 0.840604
0 0 0.427909
0 0 0.450843
0.0834821 0 0.471092
0.200443 0 0.477256
0.353033 0 0.515572
0.451423 0 0.521065
0.532448 0 0.526452
0.610193 0 0.532845
0.672892 0 0.519356
0 0 0.495842
0 0.0782025 0.541848
0.128923 0.109529 0.57847
0.297017 0.113298 0.600931
0.438254 0.104326 0.6112
0.539864 0.0914321 0.616815
0.630701 0.0806134 0.623285
0.711467 0.0827344 0.634897
0.793423 0.11136 0.652674
0 0.11986 0.569238
0 0.190951 0.614893
0.123522 0.244144 0.650111
0.344091 0.264195 0.679927
0.506096 0.272068 0.696712
0.623575 0.274266 0.706752
0.726726 0.276234 0.715618
0.805615 0.28423 0.72726
0.869322 0.309575 0.742687
0 0.250355 0.634104
0 0.3187 0.678065
0.038056 0.37882 0.704906
0.356298 0.415824 0.739071
0.541588 0.433463 0.757717
0.674327 0.44155 0.768277
0.784512 0.44799 0.776898
0.864713 0.458717 0.787488
0.923476 0.484855 0.800748
0 0.367254 0.680751
0 0.444343 0.72401
0 0.501991 0.739773
0.338231 0.558907 0.779278
0.553429 0.586908 0.799832
0.70161 0.600946 0.811414
0.820539 0.609598 0.819776
0.903517 0.618479 0.828794
0.962325 0.638621 0.839246
0 0.460624 0.717845
0 0.542199 0.756634
0 0.602457 0.769085
0.311131 0.670909 0.806683
0.551614 0.706661 0.827329
0.710872 0.725505 0.838224
0.836591 0.735836 0.845014
0.922194 0.743236 0.851087
0.986572 0.758389 0.857877
0 0.5514 0.755138
0 0.629755 0.785885
0 0.691234 0.795697
0.304738 0.762829 0.829129
0.547738 0.802152 0.847013
0.710979 0.824186 0.855589
0.841413 0.837034 0.860502
0.930449 0.844358 0.864378
1 0.854337 0.86836
0 0.63003 0.795224
0 0.698085 0.81413
0 0.754025 0.819181
0.321553 0.823468 0.850263
0.553964 0.862165 0.864103
0.71371 0.885252 0.869703
0.843442 0.900038 0.872633
0.934768 0.909651 0.875364
0.999878 0.918227 0.877974
0 0.690425 0.829908
0 0.746303 0.838163
0.00578317 0.79913 0.844251
0.384649 0.864698 0.876509
0.578073 0.901976 0.889723
0.724453 0.927291 0.897307
0.840665 0.945434 0.903914
0.920409 0.957671 0.910185
0.999725 0.968643 0.897688
0 0 0.485954
0 0 0.505684
0.0777142 0 0.527886
0.195361 0 0.534569
0.347967 0 0.572671
0.449943 0 0.580224
0.531884 0 0.586999
0.612573 0 0.596124
0.667887 0 0.577707
0 0 0.54847
0 0.0822461 0.600015
0.12195 0.122713 0.637705
0.293217 0.128222 0.661677
0.43682 0.121904 0.6748
0.541588 0.112566 0.683574
0.635843 0.106081 0.693568
0.721172 0.11371 0.709712
0.806531 0.1393 0.728801
0 0.122637 0.626108
0 0.2038 0.67512
0.111421 0.261311 0.708873
0.340749 0.283757 0.740261
0.503059 0.294026 0.759716
0.621622 0.298238 0.771939
0.727489 0.301015 0.780468
0.810666 0.308492 0.788693
0.875792 0.330587 0.798947
0 0.257008 0.692409
0 0.331533 0.735775
0.0341497 0.394293 0.760769
0.354253 0.432059 0.79527
0.536767 0.450935 0.815534
0.668833 0.460777 0.827817
0.781674 0.468177 0.836027
0.86595 0.478035 0.842786
0.925963 0.501122 0.85069
0 0.376791 0.739788
0 0.455619 0.781689
0 0.51223 0.793057
0.340444 0.570138 0.834424
0.549203 0.597925 0.855741
0.694682 0.612772 0.868406
0.81474 0.622385 0.876417
0.900908 0.630426 0.882338
0.961486 0.648142 0.888487
0 0.474449 0.777996
0 0.554131 0.813489
0 0.613748 0.823285
0.31899 0.679728 0.860868
0.548684 0.713924 0.882521
0.703426 0.732692 0.895354
0.828107 0.74377 0.903166
0.915923 0.751263 0.908293
0.983551 0.764569 0.913024
0 0.565118 0.812634
0 0.641245 0.836347
0 0.700526 0.843732
0.312078 0.769924 0.879225
0.546395 0.807279 0.90013
0.704646 0.828519 0.912718
0.832258 0.841382 0.920684
0.921752 0.848966 0.925551
0.997864 0.858213 0.92961
0 0.642573 0.838422
0 0.707591 0.852415
0 0.761639 0.85742
0.328847 0.829633 0.892927
0.552361 0.866682 0.912245
0.708431 0.889036 0.924056
0.835447 0.903639 0.931792
0.926024 0.913329 0.936858
0.999802 0.921828 0.940719
0 0.69807 0.856306
0 0.753307 0.863981
0.0100557 0.808179 0.875181
0.387747 0.869154 0.90695
0.575158 0.905776 0.923949
0.721172 0.930983 0.934951
0.840055 0.949493 0.942611
0.927993 0.962219 0.947585
0.999847 0.973388 0.951888
