public/luts/screen-style-02.cube
TITLE "Generated by Resolve"
LUT_3D_SIZE 5
0 0.0186465 0.0234836
0.128222 0.0343175 0.0177005
0.33286 0 0
0.49865 0 0
0.626673 0 0
0 0.117876 0.0590982
0.127443 0.179614 0.0274662
0.460319 0.210224 0
0.684001 0.219425 0
0.836988 0.243061 0.00485237
0 0.263966 0.0806439
0 0.377432 0.0588693
0.451896 0.486793 0
0.783032 0.547448 0
0.98349 0.568261 0
0 0.420661 0.147768
0 0.544869 0.138186
0.387106 0.650385 0.0198215
0.78262 0.748119 0
1 0.78349 0
0 0.596246 0.404532
0 0.685771 0.395712
0.425406 0.784253 0.377707
0.715526 0.832822 0.286107
1 0.861265 0.0822614
0 0.0162203 0.139544
0.129412 0.0347295 0.160967
0.35079 0 0.135607
0.515892 0 0.121965
0.617533 0 0.10753
0 0.142885 0.206149
0.185031 0.211231 0.231403
0.515587 0.232898 0.230015
0.71519 0.236164 0.230823
0.852628 0.271672 0.267185
0 0.315618 0.262776
0.00740063 0.443778 0.30988
0.522515 0.525628 0.253971
0.821241 0.552346 0.238697
0.972732 0.586648 0.301122
0 0.48397 0.357961
0 0.61651 0.393988
0.468162 0.726986 0.384253
0.80647 0.77142 0.266545
1 0.795758 0.260487
0 0.64239 0.563378
0 0.73492 0.575479
0.466697 0.83328 0.58883
0.75404 0.884184 0.557031
1 0.906325 0.434653
0 0 0.269291
0.114214 0 0.315221
0.337407 0 0.297169
0.525612 0 0.315999
0.664302 0 0.323156
0 0.145571 0.391669
0.156497 0.23032 0.448829
0.515953 0.254154 0.471687
0.724468 0.256977 0.477592
0.860685 0.292134 0.505638
0 0.346822 0.465827
0.00407416 0.480278 0.514611
0.576944 0.56112 0.546624
0.834104 0.583154 0.554131
0.96788 0.618158 0.582498
0 0.519661 0.544213
0 0.662409 0.577691
0.53753 0.774136 0.624842
0.829786 0.813321 0.576196
1 0.832502 0.592401
0 0.670909 0.691814
0 0.779171 0.715129
0.519142 0.871931 0.754864
0.786862 0.918975 0.753384
1 0.94139 0.675761
0 0 0.379141
0.091371 0 0.425269
0.35819 0 0.46453
0.530907 0 0.468437
0.678019 0 0.4795
0 0.12639 0.520836
0.130678 0.237949 0.596918
0.507927 0.264286 0.637751
0.725521 0.267582 0.652323
0.865782 0.301854 0.676478
0 0.362264 0.625177
0.000396735 0.496406 0.683818
0.558206 0.579767 0.737346
0.824353 0.601678 0.752667
0.963699 0.632975 0.770993
0 0.540536 0.696727
0 0.682597 0.735164
0.555489 0.796109 0.782177
0.849561 0.831281 0.790799
1 0.849744 0.798596
0 0.683848 0.789899
0.00462348 0.792111 0.803098
0.574212 0.896391 0.852872
0.81828 0.938415 0.869001
0.999954 0.962524 0.840604
0 0 0.485954
0.0777142 0 0.527886
0.347967 0 0.572671
0.531884 0 0.586999
0.667887 0 0.577707
0 0.122637 0.626108
0.111421 0.261311 0.708873
0.503059 0.294026 0.759716
0.727489 0.301015 0.780468
0.875792 0.330587 0.798947
0 0.376791 0.739788
0 0.51223 0.793057
0.549203 0.597925 0.855741
0.81474 0.622385 0.876417
0.961486 0.648142 0.888487
0 0.565118 0.812634
0 0.700526 0.843732
0.546395 0.807279 0.90013
0.832258 0.841382 0.920684
0.997864 0.858213 0.92961
0 0.69807 0.856306
0.0100557 0.808179 0.875181
0.575158 0.905776 0.923949
0.840055 0.949493 0.942611
0.999847 0.973388 0.951888
