public/luts/screen-style-03.cube
TITLE "Generated by Resolve"
LUT_3D_SIZE 5
0.00485237 0.0260166 0.02533
0.162356 0.0482338 0.0233463
0.340871 0.0330968 0
0.509682 0 0
0.694682 0 0
0 0.148104 0.0604562
0.181964 0.203494 0.0370947
0.485023 0.231662 0
0.663828 0.21297 0
0.798428 0.167514 0
0 0.303227 0.0763714
0.137606 0.396124 0
0.49482 0.483589 0
0.790906 0.512825 0
0.922148 0.455909 0
0 0.438163 0.0776989
0.0331884 0.563241 0
0.518883 0.672816 0
0.80734 0.749126 0
0.999298 0.740734 0
0 0.583246 0.217807
0.101564 0.703593 0.135439
0.57557 0.795056 0.0223697
0.825391 0.861295 0
0.999283 0.897276 0
0 0.0287175 0.12253
0.167193 0.0518807 0.159167
0.356771 0.035172 0.172
0.52459 0 0.189059
0.71284 0 0.23624
0 0.178149 0.21297
0.195895 0.233082 0.222538
0.484154 0.2448 0.230564
0.655573 0.210376 0.219547
0.787076 0.129061 0.221469
0 0.350271 0.276982
0.0601968 0.439689 0.273594
0.503395 0.50631 0.252796
0.776791 0.502037 0.219165
0.884703 0.399069 0.221912
0 0.492775 0.334051
0 0.608118 0.322698
0.507851 0.696513 0.293248
0.789593 0.749538 0.24686
0.982208 0.706813 0.209277
0 0.634226 0.492164
0 0.753277 0.48629
0.537224 0.839994 0.479728
0.804578 0.894469 0.469032
0.999435 0.925994 0.452369
0 0 0.244282
0.161868 0.0129397 0.312856
0.38294 0 0.331289
0.563165 0 0.34963
0.732265 0 0.385245
0 0.195346 0.360937
0.120455 0.257084 0.401968
0.490135 0.286046 0.434546
0.672282 0.258228 0.439063
0.799558 0.157946 0.423026
0 0.381308 0.451133
0 0.474952 0.475166
0.515816 0.538857 0.486717
0.770672 0.529778 0.487892
0.887175 0.424048 0.454246
0 0.529595 0.514153
0 0.647684 0.531701
0.49749 0.734783 0.532341
0.789242 0.785077 0.520806
0.969665 0.714885 0.485695
0 0.661067 0.646693
0 0.781933 0.659815
0.508705 0.867445 0.664408
0.794568 0.921523 0.66685
0.998154 0.954025 0.657465
0 0 0.358038
0.13785 0 0.434089
0.388266 0 0.466804
0.58439 0 0.486091
0.75378 0 0.507958
0 0.202014 0.467094
0 0.272541 0.545052
0.476265 0.301259 0.597192
0.702571 0.301564 0.606928
0.822446 0.214801 0.589044
0 0.398886 0.587213
0 0.499306 0.626642
0.470558 0.564401 0.658305
0.769757 0.581827 0.680385
0.897139 0.471778 0.650339
0 0.552071 0.657435
0 0.674571 0.695796
0.477836 0.760449 0.709712
0.790448 0.808331 0.719646
0.962417 0.739406 0.692714
0 0.679118 0.764218
0 0.801862 0.789807
0.483253 0.886137 0.801541
0.785702 0.940658 0.814115
0.990951 0.973129 0.812055
0 0 0.516274
0.00450141 0 0.575891
0.342962 0 0.632395
0.581613 0 0.666438
0.783307 0 0.692592
0 0.188479 0.637369
0 0.27483 0.717494
0.372717 0.335271 0.767697
0.683085 0.334554 0.800855
0.866545 0.331548 0.813413
0 0.42475 0.742931
0 0.52108 0.810803
0.316258 0.591257 0.84358
0.721614 0.619303 0.884047
0.933577 0.618555 0.894362
0 0.572885 0.820523
0 0.690913 0.867994
0.265538 0.775677 0.885618
0.72108 0.832578 0.925505
0.97113 0.842863 0.942748
0 0.700694 0.889509
0 0.823163 0.921874
0.470542 0.904234 0.940658
0.776562 0.957366 0.963104
0.985321 0.990356 0.975586
