public/luts/timeless.cube
TITLE "Generated by Resolve"
LUT_3D_SIZE 33
0 0.000595102 0
0.0277256 0.000350958 0
0.0526741 0.00134279 0
0.0759594 0.00234989 0
0.0979171 0.00337224 0.000549325
0.119936 0.00396735 0.00155642
0.142794 0.00434882 0.0021973
0.168414 0.00535592 0.00331121
0.196857 0.00636301 0.00427253
0.229236 0.00735485 0.00502022
0.26215 0.00831617 0.00610361
0.294118 0.00927749 0.00717174
0.327123 0.0102388 0.00823987
0.362722 0.0109255 0.00901808
0.398886 0.0116274 0.00999466
0.428931 0.0120241 0.0108034
0.455375 0.0130007 0.011902
0.47921 0.0139773 0.0128481
0.501808 0.0149538 0.01355
0.52369 0.0159304 0.0146487
0.546197 0.0168002 0.01561
0.569802 0.0176394 0.0165408
0.5953 0.018616 0.0176394
0.619898 0.0193332 0.0185855
0.645365 0.0197604 0.0194705
0.670085 0.020737 0.0205844
0.695003 0.0217288 0.0215152
0.720165 0.0227207 0.0222629
0.744747 0.0234684 0.0230869
0.769009 0.0244297 0.0241703
0.79295 0.0254063 0.0252689
0.81529 0.0264134 0.0263828
0.835782 0.0271153 0.0273136
6.10361e-05 0.0353399 0.00215152
0.0291295 0.0356146 0.00122072
0.0556802 0.0356298 0.0037995
0.0781262 0.0365911 0.00357061
0.0999008 0.0376287 0.00427253
0.121538 0.0385901 0.00526436
0.144793 0.0395209 0.00607309
0.170535 0.0404364 0.00709545
0.199969 0.0411841 0.00833143
0.23238 0.0418555 0.00950637
0.26537 0.0426642 0.0104982
0.29752 0.0433051 0.0115358
0.330068 0.0436713 0.0126345
0.366247 0.0442359 0.0138552
0.401556 0.0450141 0.014786
0.431739 0.0457771 0.0158083
0.458076 0.04654 0.0170443
0.481804 0.0471504 0.0180514
0.504112 0.047837 0.0192416
0.526192 0.0486 0.0204623
0.548867 0.0491951 0.0214694
0.572976 0.049897 0.0226139
0.598154 0.0506905 0.023743
0.623224 0.0513161 0.0245975
0.648478 0.0517586 0.0257725
0.673152 0.0525368 0.0267643
0.698436 0.0531167 0.027985
0.723186 0.0538643 0.0291752
0.747814 0.0546578 0.0303807
0.772137 0.0552529 0.0312963
0.795697 0.0560159 0.0324865
0.818158 0.0568551 0.0333715
0.837781 0.0576486 0.0344396
0.000106813 0.067216 0.00709545
0.0278477 0.0683452 0.00384527
0.0558785 0.0677653 0.00416571
0.0807507 0.067277 0.00808728
0.103182 0.067628 0.0108339
0.124819 0.0684977 0.011368
0.147845 0.0693828 0.0115511
0.173724 0.0702983 0.0120546
0.203632 0.071107 0.012604
0.235813 0.0718395 0.0135042
0.26862 0.0725414 0.0145418
0.300587 0.0730144 0.0156252
0.334051 0.0736248 0.0163272
0.370092 0.0742809 0.017319
0.404974 0.0749065 0.018204
0.434226 0.0753796 0.019379
0.460197 0.0757916 0.0205081
0.484031 0.0761273 0.0213779
0.506264 0.0767224 0.0225834
0.528328 0.0773327 0.0237736
0.551095 0.0777752 0.0246586
0.575311 0.0784161 0.0255436
0.600183 0.079057 0.0265812
0.625696 0.0796979 0.0277409
0.650263 0.0803388 0.0289616
0.675608 0.0807965 0.030045
0.70045 0.0813916 0.0310216
0.725017 0.0820478 0.0321965
0.749691 0.0826581 0.0332952
0.77409 0.0831464 0.0341192
0.797559 0.0835889 0.0350805
0.819409 0.0840467 0.0361944
0.839216 0.0847334 0.0373236
0.00207523 0.0947433 0.0128786
0.0287327 0.096376 0.010544
0.0545815 0.0967575 0.00720226
0.079942 0.0961013 0.00846876
0.10457 0.0953536 0.0123903
0.128481 0.09514 0.0160983
0.152911 0.0955062 0.0184482
0.17969 0.0962387 0.0194553
0.209506 0.0970626 0.0198825
0.241337 0.0978408 0.020264
0.273442 0.0985428 0.0203555
0.30547 0.0990311 0.020798
0.338811 0.0993973 0.0215457
0.37499 0.0996719 0.0222782
0.409018 0.100023 0.0230411
0.43772 0.100587 0.0240177
0.463111 0.101152 0.0250095
0.48632 0.101686 0.0259709
0.508888 0.102235 0.0264134
0.530694 0.102785 0.0274052
0.553567 0.103319 0.0284276
0.577905 0.103853 0.0294804
0.602991 0.104311 0.0303807
0.627665 0.104753 0.0313726
0.652995 0.105165 0.032517
0.678019 0.105623 0.0336309
0.702586 0.106172 0.0344549
0.727565 0.106737 0.0351568
0.752209 0.107195 0.0362554
0.776455 0.1075 0.0373693
0.799588 0.107988 0.0384375
0.821332 0.108461 0.0395666
0.840452 0.108995 0.0404364
0.0039826 0.119585 0.019028
0.0302739 0.121172 0.016556
0.054078 0.122011 0.0125734
0.0789349 0.12163 0.0116426
0.104036 0.121019 0.0137484
0.129564 0.120272 0.0175174
0.156481 0.119661 0.021622
0.18555 0.119509 0.0248875
0.217044 0.119753 0.0268406
0.24918 0.120241 0.0275731
0.280735 0.120897 0.0279088
0.312352 0.121492 0.0281834
0.345541 0.122026 0.0285496
0.381064 0.122499 0.0289769
0.413474 0.123064 0.0294957
0.441627 0.123598 0.0298161
0.466712 0.124025 0.0302586
0.489616 0.124529 0.0309453
0.511513 0.125048 0.0316472
0.533806 0.125551 0.0322118
0.556451 0.126055 0.0330968
0.580804 0.126558 0.0340124
0.605875 0.127062 0.0349584
0.630762 0.12755 0.0358129
0.655863 0.128023 0.036286
0.680461 0.128252 0.037232
0.705562 0.128679 0.0382391
0.730343 0.129198 0.0392004
0.754955 0.129702 0.0401617
0.778531 0.129976 0.0409094
0.801953 0.130343 0.0419776
0.823285 0.130892 0.0429999
0.841672 0.131426 0.0437476
0.00669871 0.142351 0.0250095
0.0322423 0.143877 0.0231479
0.0550851 0.144564 0.0199741
0.0786755 0.14493 0.0170748
0.10341 0.144686 0.0168307
0.129274 0.144045 0.019089
0.157549 0.143175 0.0225528
0.189258 0.14229 0.0264591
0.222889 0.141756 0.0303044
0.256535 0.141619 0.0331884
0.288716 0.141863 0.035111
0.320699 0.142351 0.0360418
0.354406 0.14287 0.0365148
0.388952 0.14342 0.0366522
0.419867 0.143984 0.0367285
0.446586 0.14461 0.0366979
0.470863 0.145205 0.0367895
0.493614 0.145739 0.0372473
0.515251 0.146227 0.0377356
0.537148 0.146639 0.0382696
0.560327 0.147173 0.0386969
0.584405 0.147692 0.0391546
0.609247 0.148241 0.0396582
0.634134 0.148745 0.0404212
0.658747 0.149187 0.0411688
0.683818 0.149615 0.0418097
0.708598 0.149981 0.0424659
0.732982 0.150271 0.0433509
0.757168 0.150668 0.0441596
0.780957 0.151232 0.0449378
0.8038 0.151812 0.0458686
0.825544 0.152422 0.0467689
0.842924 0.152987 0.0472725
0.0099794 0.16672 0.0318914
0.0345769 0.168124 0.0302129
0.0568856 0.169436 0.0275578
0.0792706 0.170138 0.0239872
0.103258 0.170382 0.0221714
0.129183 0.170001 0.0229038
0.158083 0.169192 0.0249943
0.191104 0.168048 0.0280613
0.226841 0.166857 0.0318914
0.261967 0.165957 0.0358892
0.295613 0.165423 0.0392767
0.328862 0.165393 0.0415503
0.363897 0.16556 0.0431678
0.397574 0.166079 0.0438239
0.427161 0.166705 0.0443122
0.452873 0.167452 0.0445411
0.476158 0.1682 0.0446326
0.498268 0.168933 0.0445563
0.519921 0.169635 0.0446479
0.541558 0.170275 0.0446479
0.564645 0.170886 0.0448615
0.5888 0.171344 0.0451667
0.613382 0.171771 0.0453803
0.638117 0.172152 0.0457313
0.662638 0.172717 0.0462348
0.687221 0.173388 0.0467231
0.711727 0.17406 0.0473335
0.736202 0.174731 0.0479896
0.760464 0.175418 0.0486915
0.783948 0.176089 0.0493782
0.806455 0.176669 0.0499275
0.827726 0.177371 0.0505379
0.843732 0.177996 0.0511635
0.0130007 0.195132 0.0396124
0.0375982 0.197284 0.0386816
0.0595865 0.198795 0.0359197
0.0809186 0.199954 0.0326543
0.103822 0.200671 0.029984
0.129427 0.200534 0.0290074
0.158633 0.199969 0.0294957
0.192325 0.198886 0.0312047
0.229252 0.197269 0.0337835
0.265965 0.195453 0.0374456
0.300801 0.194125 0.0413367
0.335515 0.193347 0.0445869
0.371984 0.193011 0.0474098
0.405524 0.193027 0.0494545
0.434165 0.193454 0.0508583
0.45948 0.194141 0.0517281
0.482338 0.194934 0.0521553
0.5037 0.195743 0.0522164
0.525139 0.19649 0.0521096
0.546929 0.197269 0.0518807
0.569818 0.198093 0.0517433
0.593835 0.198901 0.0516213
0.618143 0.199664 0.0515602
0.642481 0.200412 0.0516976
0.66685 0.201114 0.0520027
0.69131 0.201984 0.0523384
0.715816 0.202823 0.0527657
0.740139 0.203494 0.0531014
0.764202 0.204013 0.0532998
0.78732 0.204791 0.0538643
0.809476 0.205692 0.0544137
0.830121 0.206577 0.054963
0.844739 0.207263 0.0554971
0.0173495 0.229877 0.0487373
0.041001 0.232334 0.0480507
0.0624094 0.233875 0.0457923
0.0834516 0.235294 0.04271
0.105837 0.236423 0.0397803
0.130678 0.236881 0.0376898
0.159838 0.236469 0.0366369
0.19382 0.235447 0.0366979
0.231434 0.233997 0.0378729
0.268849 0.231998 0.0401312
0.304463 0.229908 0.0432593
0.340932 0.228031 0.0468605
0.37879 0.22678 0.0503395
0.412329 0.2262 0.0533455
0.440711 0.226093 0.0556649
0.465537 0.226169 0.0573434
0.488289 0.226612 0.0585184
0.509773 0.227329 0.0590524
0.530663 0.228153 0.0591135
0.553048 0.228931 0.0590219
0.575845 0.22974 0.058793
0.599741 0.230671 0.0586252
0.623758 0.231708 0.0584573
0.647913 0.232746 0.0584421
0.672053 0.233738 0.05832
0.696117 0.234684 0.0582895
0.720363 0.235599 0.0583352
0.744442 0.236316 0.0585336
0.768109 0.237034 0.0587167
0.790875 0.237964 0.0590066
0.812497 0.239002 0.0594186
0.832593 0.240116 0.0598611
0.845747 0.240955 0.0601511
0.0218509 0.269688 0.0593729
0.0454414 0.272312 0.0587625
0.0666819 0.274418 0.0569314
0.0873884 0.276173 0.0544594
0.109117 0.276905 0.0514229
0.133593 0.277806 0.0486763
0.162219 0.278096 0.0466316
0.19649 0.277531 0.0453651
0.234501 0.276371 0.0449226
0.271839 0.274311 0.045716
0.308263 0.27187 0.047425
0.345403 0.269261 0.0499733
0.384649 0.266896 0.0529641
0.418128 0.265339 0.0560464
0.446433 0.264393 0.0589456
0.471138 0.263828 0.061387
0.493736 0.263691 0.0632944
0.515297 0.263798 0.0645304
0.536812 0.264073 0.0653849
0.559045 0.264561 0.0657969
0.58262 0.265248 0.0658579
0.606073 0.266041 0.0656138
0.630167 0.267079 0.0654765
0.653895 0.268162 0.0653391
0.677714 0.269306 0.0651408
0.701686 0.270481 0.0648661
0.725383 0.271565 0.064622
0.749081 0.27248 0.0645609
0.772335 0.273442 0.064622
0.794888 0.274525 0.0647593
0.816022 0.275731 0.064744
0.835569 0.276951 0.0649119
0.846906 0.277821 0.0648814
0.0270848 0.312261 0.0714122
0.0503853 0.315221 0.0712139
0.0716106 0.317296 0.0698405
0.0922103 0.31899 0.0675364
0.113878 0.320104 0.064683
0.138048 0.321172 0.0620432
0.166506 0.321752 0.0591897
0.200351 0.321569 0.0570993
0.238102 0.320958 0.0553445
0.275746 0.31957 0.0542916
0.312245 0.31722 0.0547951
0.349996 0.314397 0.0558022
0.389532 0.311391 0.0577096
0.423102 0.308904 0.0601205
0.451286 0.306905 0.0627451
0.476234 0.305394 0.0653086
0.498939 0.304295 0.0675669
0.520577 0.303532 0.069276
0.542351 0.303227 0.0705882
0.565332 0.303288 0.0715343
0.589059 0.303471 0.0721294
0.61294 0.303929 0.0723278
0.636698 0.304692 0.0722515
0.660334 0.305608 0.0721294
0.684199 0.306432 0.0719768
0.707515 0.307362 0.0717784
0.73135 0.308339 0.0715648
0.754665 0.309514 0.0712596
0.777523 0.310643 0.0708629
0.799344 0.311803 0.0706035
0.82005 0.312917 0.0705119
0.839048 0.314076 0.0704967
0.848112 0.314885 0.070161
0.0330663 0.354559 0.0846876
0.0563363 0.357671 0.0847944
0.0776837 0.360021 0.0840467
0.0984665 0.361883 0.0823377
0.120089 0.363653 0.0799573
0.143923 0.364889 0.0769055
0.172198 0.365286 0.0737316
0.205921 0.365484 0.0707866
0.243595 0.365316 0.0680247
0.280308 0.364462 0.0662394
0.317327 0.362646 0.0648661
0.355871 0.360174 0.0645151
0.395254 0.357137 0.065095
0.428122 0.354055 0.0662089
0.45594 0.351064 0.0677348
0.480797 0.348486 0.069749
0.503639 0.34638 0.0717937
0.525795 0.344656 0.0735943
0.547906 0.343496 0.0751354
0.57142 0.342794 0.0762798
0.595407 0.342443 0.0771496
0.619486 0.342214 0.0777905
0.64332 0.342367 0.0781567
0.667201 0.342672 0.0783246
0.690669 0.343252 0.0782788
0.714107 0.344015 0.0781415
0.737652 0.344869 0.0780041
0.760708 0.345892 0.0777752
0.78323 0.346944 0.0774243
0.804486 0.347921 0.0771649
0.824674 0.348928 0.076997
0.842771 0.349966 0.076936
0.849119 0.350683 0.0763409
0.0396277 0.39762 0.0983444
0.0629129 0.400504 0.09897
0.0843366 0.403479 0.0984665
0.105409 0.405936 0.0971695
0.127398 0.407568 0.0951705
0.15111 0.409064 0.0923629
0.179507 0.410346 0.0894636
0.212985 0.410925 0.0860609
0.249836 0.41091 0.0829175
0.286641 0.410529 0.0799115
0.32343 0.409216 0.0777295
0.362814 0.406912 0.0760204
0.401633 0.403738 0.0750896
0.433387 0.400473 0.0750744
0.460777 0.396658 0.0752575
0.485405 0.392996 0.0759747
0.508232 0.389822 0.0772106
0.5308 0.387045 0.0787366
0.553491 0.384604 0.0799878
0.577218 0.382589 0.0809644
0.601556 0.381353 0.0817731
0.625834 0.380484 0.082475
0.649836 0.37998 0.0831006
0.673777 0.37969 0.0835737
0.697307 0.379797 0.0838026
0.720958 0.380102 0.0838941
0.74432 0.380621 0.0839551
0.767254 0.381231 0.0839399
0.789334 0.382101 0.0838483
0.810101 0.383017 0.083772
0.829694 0.384039 0.0836805
0.847181 0.385168 0.0834974
0.850431 0.38584 0.082887
0.0460365 0.44123 0.111986
0.0696422 0.444755 0.112734
0.0913863 0.448005 0.112612
0.112673 0.449836 0.112001
0.135088 0.451987 0.110704
0.15938 0.454017 0.108415
0.1879 0.455497 0.105394
0.221134 0.456443 0.101854
0.256931 0.457191 0.0982986
0.293141 0.457008 0.094667
0.330129 0.455985 0.0916304
0.370474 0.453819 0.0888838
0.408042 0.450935 0.0871595
0.439109 0.447501 0.085771
0.465995 0.443412 0.0849622
0.490303 0.439445 0.0844282
0.51313 0.435065 0.0844587
0.535515 0.430961 0.0849622
0.558938 0.427207 0.08542
0.582925 0.423774 0.0859998
0.607462 0.421225 0.0864729
0.631907 0.419577 0.087068
0.656168 0.41828 0.0878309
0.680125 0.417365 0.0885328
0.703838 0.416861 0.0890364
0.72752 0.416495 0.0894331
0.75082 0.416434 0.0898146
0.773541 0.416571 0.090013
0.795331 0.417075 0.0901045
0.815824 0.417853 0.090135
0.83476 0.418814 0.0900587
0.851774 0.419913 0.0899062
0.851896 0.420554 0.089189
0.0524758 0.482872 0.124269
0.0762646 0.486839 0.125963
0.0986343 0.49044 0.12665
0.120516 0.492851 0.126406
0.142885 0.495491 0.125246
0.167926 0.497612 0.123262
0.196506 0.499092 0.120592
0.229633 0.500755 0.117357
0.264439 0.501793 0.113573
0.299962 0.502174 0.110002
0.337636 0.501747 0.106172
0.378286 0.500008 0.103105
0.414984 0.497505 0.100267
0.445106 0.49424 0.0981003
0.47155 0.49012 0.0961776
0.495369 0.48542 0.0944839
0.518044 0.480735 0.093019
0.540764 0.475761 0.0923323
0.564065 0.471015 0.0916915
0.58851 0.466438 0.0915084
0.613199 0.462608 0.0916915
0.637736 0.459846 0.0919814
0.661997 0.457618 0.0926223
0.686122 0.455879 0.0932174
0.710246 0.454673 0.0938735
0.733669 0.453849 0.0945449
0.757076 0.453269 0.0951095
0.779568 0.453086 0.0954757
0.801312 0.453101 0.0957809
0.821424 0.453513 0.0959793
0.839536 0.454185 0.096025
0.853284 0.455009 0.0960555
0.8533 0.455619 0.0955673
0.058732 0.523537 0.136553
0.0825513 0.528038 0.138201
0.105531 0.532082 0.139223
0.127993 0.534997 0.139528
0.150774 0.537926 0.138842
0.176135 0.540581 0.137621
0.205585 0.542641 0.135729
0.238254 0.544625 0.13283
0.27216 0.545708 0.128954
0.307195 0.546502 0.124941
0.345144 0.546654 0.120912
0.385977 0.545449 0.117311
0.421775 0.543404 0.113741
0.451331 0.540246 0.111025
0.477043 0.536202 0.108019
0.500587 0.531609 0.105547
0.523095 0.526207 0.103059
0.546136 0.520882 0.101152
0.569406 0.515053 0.0994125
0.594034 0.510002 0.098146
0.618708 0.505302 0.0977646
0.64332 0.501442 0.0975967
0.667781 0.498314 0.097734
0.692012 0.495537 0.0981765
0.716106 0.493614 0.0986343
0.739879 0.492073 0.0991836
0.763104 0.490837 0.0997482
0.785733 0.490272 0.100282
0.807019 0.490043 0.100816
0.826871 0.490135 0.10135
0.844343 0.490425 0.101854
0.85481 0.490929 0.102098
0.854841 0.491447 0.101915
0.0638895 0.563333 0.147021
0.0886244 0.568154 0.149081
0.111681 0.572625 0.150759
0.134707 0.576104 0.151659
0.15819 0.579446 0.151736
0.18436 0.582452 0.151003
0.214206 0.585 0.149325
0.246723 0.587533 0.146761
0.279973 0.589288 0.143572
0.314839 0.590417 0.139666
0.353414 0.590768 0.135668
0.393393 0.590082 0.131395
0.427985 0.588144 0.127733
0.45716 0.58555 0.124132
0.482338 0.581827 0.120623
0.505653 0.577279 0.117418
0.528389 0.571969 0.114168
0.551034 0.565789 0.110674
0.575158 0.559838 0.108064
0.599222 0.553918 0.105867
0.624262 0.548684 0.104677
0.648905 0.544121 0.103868
0.673243 0.540185 0.10341
0.697826 0.536645 0.103395
0.722087 0.533806 0.103777
0.746075 0.531487 0.104204
0.769253 0.529732 0.104845
0.791577 0.528267 0.105638
0.81268 0.527443 0.106371
0.831968 0.527108 0.107088
0.849149 0.527184 0.107729
0.856733 0.52752 0.108232
0.856764 0.527871 0.108461
0.0681163 0.601556 0.15555
0.0932937 0.607279 0.158785
0.117189 0.611948 0.160967
0.140429 0.616114 0.162036
0.164782 0.619547 0.162387
0.19173 0.622934 0.162203
0.222263 0.625925 0.161135
0.254582 0.628855 0.159503
0.287068 0.631083 0.156619
0.321813 0.63267 0.153231
0.361089 0.633646 0.149264
0.400046 0.633143 0.145342
0.433906 0.631556 0.141039
0.462303 0.629084 0.137148
0.487129 0.62594 0.133013
0.510597 0.621485 0.129015
0.533181 0.616342 0.12488
0.556268 0.610559 0.121019
0.580331 0.604425 0.117494
0.605097 0.598215 0.114549
0.629541 0.592432 0.112581
0.654307 0.587137 0.111086
0.67892 0.582635 0.110155
0.703304 0.578332 0.109606
0.727657 0.574945 0.109438
0.75169 0.57203 0.109712
0.775067 0.569467 0.11014
0.797208 0.567407 0.110674
0.818204 0.565896 0.11136
0.837064 0.565072 0.112123
0.853971 0.564752 0.112886
0.858991 0.564813 0.11368
0.859007 0.565042 0.114244
0.0721294 0.638102 0.1635
0.0970321 0.643671 0.166751
0.121111 0.648981 0.169131
0.144915 0.653361 0.170367
0.170581 0.657755 0.171572
0.198093 0.661433 0.172061
0.228779 0.66479 0.171633
0.261234 0.667857 0.170321
0.293553 0.670619 0.168063
0.328389 0.672648 0.164996
0.367742 0.674083 0.161212
0.406363 0.674266 0.157275
0.439094 0.673121 0.153201
0.466926 0.67097 0.148928
0.491417 0.668055 0.144594
0.514809 0.663798 0.13994
0.537652 0.658869 0.135531
0.561257 0.653666 0.131228
0.585595 0.647883 0.127428
0.610666 0.642023 0.124254
0.635325 0.63621 0.121294
0.659785 0.630289 0.119188
0.684337 0.625177 0.117632
0.708965 0.620432 0.116457
0.733394 0.616312 0.115633
0.757412 0.612787 0.115297
0.780621 0.609689 0.115465
0.802777 0.607355 0.115953
0.823697 0.60531 0.116564
0.842039 0.603967 0.117449
0.858457 0.603189 0.118425
0.861418 0.603037 0.119478
0.861448 0.603067 0.120363
0.0757153 0.674022 0.171023
0.100908 0.679332 0.173999
0.124743 0.684092 0.176211
0.149004 0.688869 0.177508
0.17438 0.692988 0.178714
0.202808 0.697414 0.179294
0.233936 0.70135 0.179309
0.266239 0.705196 0.178622
0.299001 0.708064 0.176974
0.334157 0.710475 0.174594
0.373449 0.712154 0.171405
0.411765 0.712947 0.167849
0.443275 0.712489 0.163668
0.470558 0.710903 0.159457
0.495125 0.708278 0.15491
0.51838 0.704463 0.150378
0.541939 0.699901 0.145846
0.565896 0.695125 0.141451
0.590997 0.689677 0.137331
0.615747 0.684184 0.133654
0.640879 0.678508 0.130373
0.665385 0.672969 0.127794
0.689967 0.66743 0.12546
0.714427 0.662348 0.123781
0.738689 0.657542 0.122301
0.76286 0.653574 0.121813
0.78616 0.649943 0.121553
0.80827 0.647105 0.121691
0.82887 0.644877 0.122179
0.84715 0.643153 0.123125
0.862821 0.641901 0.124163
0.863844 0.641566 0.12549
0.863874 0.641398 0.12668
0.0799725 0.708995 0.178027
0.104448 0.714595 0.180606
0.128496 0.719097 0.182437
0.152804 0.723735 0.183642
0.178851 0.727825 0.184894
0.207401 0.73196 0.185641
0.238315 0.736355 0.185733
0.270619 0.740246 0.185199
0.303349 0.743938 0.183932
0.338964 0.746685 0.18201
0.37821 0.748638 0.179446
0.415381 0.749477 0.176089
0.446693 0.749615 0.172854
0.473808 0.748699 0.168719
0.49836 0.746731 0.164446
0.521935 0.74377 0.160067
0.545632 0.740032 0.155734
0.570428 0.735561 0.151385
0.595773 0.73048 0.146868
0.621088 0.725185 0.143008
0.645945 0.719738 0.139742
0.670863 0.714351 0.13669
0.695674 0.708827 0.134051
0.720241 0.703716 0.132082
0.74435 0.698634 0.130053
0.768444 0.694179 0.128908
0.791775 0.690089 0.128145
0.813703 0.686671 0.127855
0.833951 0.684184 0.128252
0.852079 0.682033 0.129
0.866758 0.680613 0.13019
0.866789 0.680171 0.131838
0.866804 0.679835 0.133333
0.0835126 0.743465 0.184039
0.108446 0.748684 0.186542
0.132235 0.753597 0.188464
0.156481 0.757778 0.189548
0.182528 0.762264 0.190814
0.211643 0.766201 0.191653
0.243122 0.770733 0.191989
0.2748 0.774609 0.191623
0.307469 0.778424 0.190417
0.343404 0.781826 0.188479
0.382559 0.784207 0.186267
0.419028 0.785641 0.18349
0.449805 0.785977 0.180545
0.476616 0.785443 0.177066
0.501259 0.7841 0.173449
0.525139 0.781796 0.169192
0.549279 0.778653 0.164858
0.57467 0.774975 0.160708
0.600381 0.770489 0.156771
0.626154 0.765393 0.152651
0.651377 0.760067 0.14876
0.676204 0.754788 0.145541
0.700984 0.749325 0.142763
0.725689 0.744289 0.140291
0.750011 0.739178 0.138293
0.773892 0.734646 0.136339
0.797009 0.730251 0.135088
0.818998 0.726375 0.13431
0.838804 0.723369 0.134554
0.856352 0.720867 0.135424
0.870054 0.719173 0.136446
0.8701 0.718563 0.138231
0.870146 0.718059 0.139879
0.0874647 0.77705 0.189746
0.111925 0.782147 0.192218
0.136141 0.787198 0.194171
0.160784 0.791455 0.195453
0.187015 0.795819 0.19678
0.216358 0.800137 0.197604
0.247456 0.804227 0.197971
0.279149 0.808484 0.197757
0.311894 0.812253 0.19675
0.348058 0.815778 0.194949
0.386969 0.818448 0.192859
0.422766 0.820462 0.190356
0.452934 0.821256 0.187411
0.479393 0.821332 0.184436
0.504173 0.820508 0.181308
0.528191 0.818448 0.177523
0.552728 0.815854 0.173709
0.578607 0.81268 0.169574
0.604944 0.808881 0.165454
0.630625 0.804517 0.161532
0.656397 0.799619 0.15787
0.681514 0.794507 0.154437
0.706416 0.789105 0.151247
0.731136 0.783993 0.148394
0.75552 0.778714 0.146349
0.779446 0.774258 0.144259
0.802686 0.769833 0.143038
0.824002 0.765927 0.141878
0.843854 0.762676 0.141604
0.861295 0.759869 0.142168
0.873335 0.757809 0.14316
0.873381 0.757061 0.145068
0.873426 0.756405 0.146853
0.0911879 0.810285 0.195575
0.115648 0.814923 0.197925
0.139605 0.819806 0.199756
0.164172 0.824079 0.20116
0.191043 0.828351 0.202457
0.220737 0.83299 0.203403
0.252094 0.837308 0.203815
0.283284 0.841871 0.203723
0.316197 0.845853 0.202945
0.35288 0.849287 0.201343
0.39205 0.851881 0.199283
0.426535 0.853971 0.196887
0.455848 0.855329 0.194095
0.482383 0.855924 0.191394
0.506905 0.855665 0.18819
0.531136 0.854353 0.184985
0.55613 0.852277 0.181613
0.582361 0.849363 0.17789
0.60885 0.845884 0.173877
0.635264 0.841932 0.169955
0.660838 0.837659 0.166308
0.686442 0.832944 0.163012
0.711666 0.828077 0.159792
0.736629 0.822965 0.156954
0.761273 0.817594 0.154467
0.785122 0.813077 0.152407
0.80795 0.808423 0.150835
0.829648 0.804639 0.149508
0.848692 0.801389 0.149065
0.865934 0.798596 0.149233
0.877134 0.796704 0.150408
0.877195 0.795834 0.152377
0.877272 0.795071 0.154238
0.0951247 0.842466 0.201221
0.119753 0.847318 0.203479
0.143465 0.85185 0.205371
0.168246 0.856367 0.20676
0.195178 0.860349 0.20795
0.225254 0.864851 0.209003
0.256367 0.8692 0.209567
0.287373 0.873793 0.209476
0.3205 0.877928 0.208743
0.357412 0.881727 0.207385
0.396384 0.884855 0.205524
0.430243 0.887144 0.203326
0.459174 0.888548 0.200656
0.484916 0.889403 0.198093
0.509575 0.889464 0.194995
0.533913 0.888548 0.191897
0.559243 0.887098 0.188525
0.585946 0.884916 0.185336
0.612757 0.882078 0.181949
0.639277 0.878294 0.17818
0.665415 0.874281 0.174273
0.691157 0.870085 0.17084
0.716518 0.865461 0.16791
0.741756 0.860578 0.165209
0.766445 0.855787 0.162356
0.790417 0.851286 0.160388
0.81326 0.846555 0.158511
0.834607 0.842603 0.157168
0.853849 0.839155 0.156313
0.870634 0.836332 0.156466
0.880781 0.83447 0.157717
0.880858 0.833616 0.15967
0.880934 0.832822 0.161593
0.098436 0.873655 0.206729
0.12285 0.878294 0.208759
0.147005 0.883009 0.210773
0.171817 0.887343 0.212299
0.199252 0.89163 0.213336
0.229679 0.896361 0.214481
0.261128 0.900557 0.215167
0.292134 0.905119 0.21529
0.325277 0.909316 0.214679
0.362692 0.913146 0.213291
0.401297 0.91635 0.211398
0.43418 0.918853 0.2094
0.462196 0.920684 0.206989
0.487663 0.922042 0.204532
0.512276 0.921996 0.201587
0.536629 0.92166 0.198688
0.562325 0.920638 0.195392
0.589258 0.918837 0.192203
0.616495 0.916381 0.188891
0.643046 0.913634 0.185733
0.669688 0.90988 0.182177
0.695781 0.905852 0.178561
0.721569 0.901457 0.175357
0.746792 0.896834 0.172412
0.771695 0.89247 0.170031
0.79585 0.887953 0.168032
0.818479 0.88365 0.166232
0.839872 0.879866 0.165179
0.858671 0.876371 0.163958
0.875425 0.873381 0.163561
0.884688 0.871885 0.164538
0.884779 0.870985 0.166491
0.884886 0.870115 0.168429
0.102434 0.903807 0.212085
0.126757 0.908537 0.213977
0.15082 0.913314 0.216037
0.176104 0.917464 0.217777
0.203937 0.921828 0.218997
0.234089 0.926421 0.220279
0.265064 0.930785 0.220996
0.296223 0.935378 0.221241
0.329824 0.939544 0.220722
0.367407 0.943465 0.219364
0.405524 0.946746 0.217456
0.437705 0.949432 0.215412
0.465522 0.951431 0.213199
0.490684 0.953048 0.210513
