public/luts/timeless.cube
TITLE "Generated by Resolve"
LUT_3D_SIZE 9
0 0.000595102 0
0.0979171 0.00337224 0.000549325
0.196857 0.00636301 0.00427253
0.327123 0.0102388 0.00823987
0.455375 0.0130007 0.011902
0.546197 0.0168002 0.01561
0.645365 0.0197604 0.0194705
0.744747 0.0234684 0.0230869
0.835782 0.0271153 0.0273136
0.0039826 0.119585 0.019028
0.104036 0.121019 0.0137484
0.217044 0.119753 0.0268406
0.345541 0.122026 0.0285496
0.466712 0.124025 0.0302586
0.556451 0.126055 0.0330968
0.655863 0.128023 0.036286
0.754955 0.129702 0.0401617
0.841672 0.131426 0.0437476
0.0173495 0.229877 0.0487373
0.105837 0.236423 0.0397803
0.231434 0.233997 0.0378729
0.37879 0.22678 0.0503395
0.488289 0.226612 0.0585184
0.575845 0.22974 0.058793
0.672053 0.233738 0.05832
0.768109 0.237034 0.0587167
0.845747 0.240955 0.0601511
0.0396277 0.39762 0.0983444
0.127398 0.407568 0.0951705
0.249836 0.41091 0.0829175
0.401633 0.403738 0.0750896
0.508232 0.389822 0.0772106
0.601556 0.381353 0.0817731
0.697307 0.379797 0.0838026
0.789334 0.382101 0.0838483
0.850431 0.38584 0.082887
0.0638895 0.563333 0.147021
0.15819 0.579446 0.151736
0.279973 0.589288 0.143572
0.427985 0.588144 0.127733
0.528389 0.571969 0.114168
0.624262 0.548684 0.104677
0.722087 0.533806 0.103777
0.81268 0.527443 0.106371
0.856764 0.527871 0.108461
0.0799725 0.708995 0.178027
0.178851 0.727825 0.184894
0.303349 0.743938 0.183932
0.446693 0.749615 0.172854
0.545632 0.740032 0.155734
0.645945 0.719738 0.139742
0.74435 0.698634 0.130053
0.833951 0.684184 0.128252
0.866804 0.679835 0.133333
0.0951247 0.842466 0.201221
0.195178 0.860349 0.20795
0.3205 0.877928 0.208743
0.459174 0.888548 0.200656
0.559243 0.887098 0.188525
0.665415 0.874281 0.174273
0.766445 0.855787 0.162356
0.853849 0.839155 0.156313
0.880934 0.832822 0.161593
0.109483 0.960174 0.222766
0.212131 0.977264 0.231189
0.339406 0.995056 0.233738
0.471336 0.997818 0.226001
0.571069 0.99765 0.214115
0.680629 0.995605 0.201572
0.785794 0.988113 0.189914
0.872999 0.977707 0.184131
0.897047 0.972015 0.188464
0.122957 1 0.243305
0.22829 1 0.252857
0.358007 1 0.25594
0.482979 1 0.249012
0.581872 1 0.23595
0.691844 1 0.220462
0.799847 1 0.208453
0.887373 1 0.202106
0.909331 1 0.206912
0 0.00169375 0.12314
0.0981155 0.00436408 0.127138
0.198047 0.00798047 0.131533
0.328893 0.0110781 0.135271
0.45742 0.0137484 0.139376
0.548959 0.016968 0.143114
0.648829 0.0196841 0.147021
0.74876 0.0229496 0.15082
0.838727 0.025803 0.154437
0.0180362 0.115343 0.125093
0.10428 0.120073 0.13106
0.208011 0.122148 0.133959
0.339544 0.123491 0.136522
0.464424 0.125353 0.13904
0.554833 0.127443 0.14139
0.654368 0.129091 0.143664
0.753384 0.130938 0.146426
0.842283 0.132845 0.148577
0.0271763 0.217884 0.144747
0.109071 0.226505 0.149813
0.223514 0.228534 0.142489
0.364431 0.226459 0.149798
0.477089 0.230167 0.150774
0.566384 0.233585 0.151705
0.665156 0.237095 0.152758
0.763073 0.240208 0.154635
0.846265 0.243854 0.157
0.0428016 0.379644 0.177127
0.127382 0.391974 0.18265
0.236545 0.398383 0.175158
0.387167 0.395209 0.165591
0.500084 0.384894 0.16849
0.591028 0.382101 0.171359
0.685557 0.383444 0.17026
0.778592 0.386267 0.16907
0.851102 0.389899 0.168566
0.0662547 0.54432 0.209186
0.158831 0.562737 0.218143
0.272557 0.575143 0.215869
0.416403 0.578561 0.203662
0.522683 0.567285 0.195544
0.619455 0.547204 0.190768
0.714641 0.532891 0.189868
0.804349 0.528466 0.190143
0.857939 0.530221 0.189548
0.0847334 0.694438 0.239048
0.186511 0.718364 0.256199
0.307836 0.739208 0.263828
0.446723 0.749767 0.252155
0.54725 0.744701 0.235416
0.647089 0.723644 0.22063
0.742061 0.698283 0.210208
0.830137 0.682094 0.20972
0.869657 0.677821 0.212772
0.100542 0.828687 0.270222
0.203296 0.85095 0.287602
0.328359 0.874128 0.299092
0.464317 0.890242 0.294301
0.563165 0.89305 0.277607
0.669154 0.880262 0.257435
0.768475 0.858991 0.241947
0.855497 0.839048 0.23505
0.887739 0.831052 0.241627
0.115282 0.946853 0.300359
0.22034 0.967575 0.317266
0.347982 0.990188 0.329549
0.477409 0.998947 0.328069
0.575845 0.998535 0.314687
0.6851 0.997375 0.296147
0.790402 0.991028 0.278813
0.879271 0.979355 0.270542
0.908171 0.972702 0.277867
0.129137 1 0.324895
0.236347 1 0.341192
0.367178 1 0.353597
0.489616 1 0.353674
0.587762 1 0.342367
0.696895 1 0.324636
0.805264 1 0.306661
0.896239 1 0.2981
0.923232 1 0.306905
0 0.00399786 0.207248
0.0980697 0.0065919 0.210101
0.197971 0.0103456 0.213748
0.32845 0.012726 0.217197
0.457328 0.0161593 0.221164
0.548516 0.0189059 0.224994
0.648356 0.021973 0.229328
0.748409 0.0252384 0.233722
0.838773 0.0280003 0.238193
0.0179599 0.117433 0.202533
0.10454 0.121279 0.214466
0.208621 0.123018 0.218341
0.340764 0.124407 0.222141
0.465339 0.126009 0.226535
0.556848 0.127794 0.231037
0.65655 0.129168 0.235584
0.756146 0.130541 0.240482
0.843565 0.132296 0.245228
0.0374609 0.214237 0.213352
0.12163 0.220066 0.218875
0.219028 0.226337 0.22359
0.353231 0.229023 0.227649
0.473259 0.232044 0.231388
0.564248 0.234668 0.235843
0.664347 0.237888 0.240101
0.763058 0.240818 0.244968
0.846891 0.24419 0.249729
0.0478218 0.363485 0.235355
0.130358 0.373068 0.244266
0.232242 0.382986 0.250904
0.37232 0.383749 0.241611
0.488746 0.379263 0.249821
0.577188 0.382452 0.250462
0.674632 0.38529 0.250751
0.771084 0.388006 0.252674
0.850553 0.390967 0.255192
0.064271 0.517815 0.27332
0.154269 0.534722 0.291417
0.266011 0.550332 0.301793
0.396948 0.557275 0.289143
0.50988 0.550011 0.280339
0.606775 0.534447 0.283452
0.702647 0.528267 0.286549
0.792065 0.52781 0.284321
0.857099 0.530373 0.282399
0.0835737 0.66865 0.316121
0.185229 0.693584 0.341802
0.305303 0.716472 0.360372
0.437232 0.730327 0.356161
0.537026 0.731548 0.341039
0.64094 0.715938 0.330419
0.73727 0.691951 0.324086
0.82356 0.67599 0.323445
0.869795 0.672511 0.324956
0.100649 0.804486 0.354086
0.205829 0.829068 0.379812
0.33579 0.860792 0.406226
0.469978 0.884123 0.414893
0.566125 0.892836 0.403616
0.674311 0.88481 0.38764
0.773098 0.860868 0.371695
0.856458 0.835096 0.362234
0.892912 0.825116 0.367346
0.116609 0.923156 0.388205
0.224537 0.94667 0.412222
0.356207 0.97641 0.437888
0.48632 0.999542 0.452079
0.584909 0.999329 0.447303
0.694011 0.998962 0.43122
0.799237 0.993606 0.413916
0.887678 0.980331 0.404089
0.920699 0.970397 0.410544
0.131197 0.999985 0.41445
0.241001 1 0.438544
0.376761 1 0.464378
0.498543 1 0.479698
0.598733 1 0.477256
0.706676 1 0.462623
0.815381 1 0.444068
0.908293 1 0.433387
0.941314 1 0.441672
0 0.00561532 0.327443
0.0978103 0.00888075 0.333272
0.19765 0.0121767 0.33846
0.32842 0.0150912 0.34435
0.457069 0.0182956 0.349844
0.548165 0.0209659 0.355505
0.647547 0.0241703 0.361227
0.747631 0.0268711 0.366796
0.838529 0.030045 0.372274
0.0130617 0.120439 0.326421
0.10428 0.122728 0.341833
0.208301 0.124117 0.347356
0.340352 0.12575 0.352621
0.465064 0.12752 0.358648
0.556359 0.128939 0.364065
0.656077 0.13048 0.369863
0.75555 0.131991 0.375097
0.843259 0.133639 0.380774
0.037995 0.217197 0.325475
0.119005 0.223972 0.339239
0.219501 0.22797 0.356222
0.353338 0.230854 0.361486
0.473304 0.233402 0.367239
0.564095 0.236637 0.372457
0.664256 0.239582 0.378134
0.763424 0.242573 0.383246
0.847761 0.245823 0.388724
0.0571603 0.357107 0.345937
0.141466 0.362799 0.353399
0.244907 0.368521 0.360861
0.363745 0.375753 0.368246
0.480293 0.378317 0.371878
0.570794 0.381949 0.375937
0.670192 0.384543 0.379034
0.7682 0.388251 0.383124
0.849622 0.391638 0.386236
0.0697795 0.494514 0.373388
0.153719 0.503258 0.382544
0.261204 0.513573 0.393149
0.383047 0.526543 0.402213
0.494438 0.526299 0.392645
0.589792 0.520592 0.399008
0.685771 0.52285 0.399313
0.779828 0.525567 0.399756
0.854109 0.528237 0.401556
0.0827039 0.637461 0.405921
0.17351 0.65272 0.421546
0.291264 0.672862 0.44213
0.422782 0.692241 0.457359
0.515221 0.697429 0.443854
0.619379 0.689403 0.43473
0.719097 0.672282 0.43418
0.808743 0.665736 0.435538
0.865736 0.666926 0.434256
0.0972 0.771405 0.439658
0.196292 0.791348 0.461906
0.326696 0.823117 0.497185
0.461952 0.851804 0.522576
0.550515 0.862562 0.516762
0.657069 0.862608 0.499931
0.761364 0.846098 0.487327
0.84863 0.823331 0.479286
0.8907 0.813825 0.481575
0.112551 0.890791 0.474067
0.216968 0.911971 0.499397
0.353017 0.946014 0.538994
0.489876 0.983688 0.576806
0.587091 0.999527 0.583322
0.693202 0.998459 0.569314
0.802808 0.993561 0.550896
0.893172 0.978988 0.535805
0.930037 0.966262 0.537499
0.127535 0.970718 0.50248
0.234974 0.991302 0.529061
0.375036 1 0.568887
0.503304 1 0.60499
0.60885 1 0.619791
0.716335 1 0.610956
0.826352 1 0.592203
0.921721 1 0.574105
0.958709 1 0.577295
0 0.00753796 0.457298
0.0973831 0.0111696 0.462409
0.197574 0.0139162 0.467262
0.328466 0.0174105 0.472374
0.456626 0.0200809 0.477668
0.547997 0.0233158 0.483101
0.647196 0.0265049 0.488319
0.746944 0.0291142 0.493828
0.837934 0.0323033 0.499458
0.0110323 0.122072 0.457816
0.104036 0.123705 0.469932
0.208301 0.125536 0.47483
0.340414 0.127184 0.479957
0.464805 0.128985 0.485237
0.555886 0.130343 0.490639
0.655741 0.131685 0.496544
0.755123 0.133364 0.501595
0.843122 0.135134 0.507393
0.0327764 0.221759 0.449119
0.114321 0.22681 0.4692
0.219501 0.230198 0.482536
0.352972 0.233127 0.487709
0.473045 0.235645 0.493202
0.563836 0.238743 0.498512
0.663752 0.241642 0.504112
0.762829 0.244862 0.509422
0.847456 0.248295 0.514977
0.0596475 0.35996 0.455283
0.142763 0.36582 0.463142
0.244358 0.372091 0.473503
0.364996 0.377111 0.493751
0.480598 0.380194 0.499626
0.571389 0.383032 0.504494
0.671519 0.385718 0.51043
0.769314 0.389059 0.515358
0.850523 0.391577 0.521111
0.0763561 0.48986 0.475654
0.161471 0.49546 0.48278
0.268406 0.501366 0.490852
0.391363 0.508476 0.499443
0.486686 0.515312 0.505608
0.578759 0.517662 0.509636
0.677989 0.520592 0.512932
0.774792 0.524193 0.517082
0.852171 0.526986 0.520256
0.0893568 0.621805 0.501671
0.176257 0.629206 0.511116
0.285542 0.638666 0.522377
0.410636 0.651209 0.53666
0.501686 0.663676 0.546029
0.597452 0.662684 0.534325
0.698634 0.655924 0.539696
0.789914 0.658122 0.539544
0.858579 0.660441 0.540246
0.101488 0.748577 0.53254
0.19205 0.760189 0.545937
0.309865 0.778256 0.567086
0.444251 0.803189 0.595529
0.532708 0.820737 0.608698
0.625925 0.824842 0.594873
0.733669 0.815869 0.583978
0.824781 0.799039 0.581933
0.875822 0.794583 0.584344
0.113588 0.864225 0.564126
0.209461 0.878172 0.581109
0.336355 0.903197 0.610544
0.475914 0.939971 0.65037
0.570977 0.96463 0.671199
0.668513 0.972381 0.663157
0.775769 0.97113 0.648051
0.872023 0.955581 0.637797
0.913237 0.94284 0.638239
0.126482 0.942504 0.590234
0.226703 0.956847 0.60856
0.35935 0.983581 0.640208
0.495674 1 0.685191
0.599481 1 0.712276
0.701183 1 0.710307
0.80679 1 0.694804
0.909102 1 0.681239
0.950301 1 0.681559
0 0.00984207 0.587991
0.0971542 0.0130007 0.593133
0.197406 0.0161746 0.597833
0.328634 0.0194553 0.602655
0.456214 0.0221103 0.607492
0.547906 0.0253452 0.612421
0.647028 0.0280003 0.61735
0.746639 0.0311742 0.622309
0.837156 0.0345006 0.62739
0.0104524 0.123491 0.5897
0.103639 0.124926 0.599924
0.208057 0.126772 0.605219
0.340627 0.128588 0.6094
0.464714 0.13022 0.614771
0.555444 0.131334 0.619242
0.655482 0.133135 0.624613
0.754788 0.1346 0.629389
0.842451 0.136599 0.634394
0.028397 0.225193 0.581842
0.112215 0.229053 0.601328
0.219287 0.232166 0.612085
0.352895 0.234791 0.616831
0.473045 0.237995 0.621515
0.56376 0.241093 0.626307
0.663554 0.243885 0.631281
0.762188 0.247166 0.636271
0.846662 0.250309 0.640864
0.0576333 0.3635 0.572244
0.137835 0.369543 0.584894
0.237934 0.375952 0.604028
0.364935 0.379065 0.622339
0.480385 0.382406 0.627024
0.571115 0.384695 0.6318
0.671214 0.388006 0.636484
0.768719 0.391073 0.641474
0.850141 0.393881 0.64593
0.0796063 0.492348 0.587533
0.164858 0.497856 0.595315
0.270954 0.504204 0.602914
0.390875 0.511131 0.614237
0.487846 0.51667 0.632395
0.579126 0.519097 0.637552
0.678569 0.522026 0.642191
0.77583 0.525139 0.646983
0.852583 0.527703 0.651774
0.0955673 0.618448 0.608118
0.182361 0.623911 0.614694
0.290318 0.629923 0.622232
0.41445 0.635904 0.630304
0.50428 0.64242 0.637888
0.585748 0.649226 0.643076
0.686076 0.650843 0.64654
0.781445 0.653849 0.649409
0.853712 0.657099 0.652857
0.108568 0.738262 0.630838
0.197192 0.744518 0.638819
0.308141 0.75288 0.64863
0.432532 0.763424 0.660685
0.519432 0.775479 0.673915
0.605158 0.78761 0.681437
0.706752 0.785763 0.670878
0.800687 0.778729 0.674403
0.862287 0.781033 0.674372
0.120287 0.847715 0.655467
0.212451 0.855817 0.665141
0.327932 0.868376 0.679957
0.45565 0.888624 0.701854
0.547616 0.910948 0.726879
0.64239 0.926665 0.737911
0.737209 0.92871 0.723644
0.836332 0.920195 0.715496
0.884016 0.909316 0.717571
0.131319 0.922347 0.676448
0.226841 0.930602 0.687526
0.346822 0.945922 0.70573
0.475303 0.970886 0.735378
0.574426 0.998093 0.768124
0.674861 1 0.782132
0.768688 1 0.769696
0.868101 1 0.757031
0.91426 1 0.756695
0 0.0121004 0.705364
0.09691 0.014847 0.709957
0.197375 0.0184634 0.714015
0.328359 0.0212406 0.718456
0.456245 0.0243992 0.723171
0.547753 0.0275883 0.727337
0.646906 0.0301976 0.73228
0.74641 0.0332647 0.736492
0.836484 0.0361639 0.741314
0.0101625 0.124575 0.707424
0.103456 0.126284 0.716274
0.208164 0.128161 0.720607
0.340841 0.129976 0.724926
0.464683 0.131273 0.729274
0.555489 0.132723 0.733761
0.655039 0.134371 0.738277
0.754437 0.136019 0.742855
0.841764 0.137713 0.747555
0.0255131 0.227481 0.70219
0.111437 0.23125 0.717693
0.219348 0.234257 0.727031
0.352926 0.236881 0.730831
0.473106 0.240101 0.735546
0.563775 0.242771 0.739742
0.663417 0.246296 0.74435
0.761715 0.249363 0.749035
0.845899 0.25275 0.753246
0.052491 0.367666 0.685359
0.131746 0.373373 0.70193
0.234607 0.378012 0.720928
0.365179 0.381231 0.736004
0.480262 0.3841 0.739803
0.571069 0.386892 0.744533
0.671 0.390265 0.748821
0.768368 0.392584 0.753338
0.84921 0.39617 0.757885
0.0792859 0.495369 0.689616
0.162982 0.501442 0.697398
0.266957 0.508492 0.708476
0.385138 0.514763 0.728283
0.487877 0.518318 0.745235
0.579171 0.520989 0.749386
0.678416 0.524254 0.753841
0.775448 0.526665 0.758251
0.851896 0.530007 0.762661
0.0995804 0.620249 0.705974
0.186206 0.626108 0.712413
0.293873 0.632059 0.719463
0.416602 0.63827 0.72755
0.504051 0.644877 0.737194
0.587076 0.649836 0.754131
0.686213 0.652323 0.758923
0.781979 0.654856 0.763455
0.853925 0.658045 0.767773
0.114336 0.736095 0.724422
0.20322 0.740764 0.730449
0.311849 0.746883 0.737606
0.434653 0.752636 0.745037
0.519829 0.758099 0.75256
0.605768 0.764035 0.759869
0.692454 0.770413 0.76405
0.787808 0.771664 0.768353
0.855436 0.774212 0.772549
0.127016 0.840558 0.744228
0.218677 0.845289 0.751415
0.329702 0.852171 0.760388
0.450858 0.860365 0.770565
0.534539 0.869032 0.781674
0.624552 0.88072 0.795285
0.712383 0.890486 0.800946
0.806317 0.888624 0.791272
0.863188 0.883635 0.794995
0.138384 0.911513 0.762402
0.23238 0.916167 0.770214
0.346807 0.923384 0.78088
0.465141 0.934188 0.795041
0.551431 0.946807 0.81149
0.648417 0.962798 0.831159
0.738918 0.972519 0.837339
0.825696 0.973022 0.824155
0.87892 0.967178 0.82327
0 0.0138857 0.815396
0.0966506 0.016968 0.819471
0.197482 0.0206302 0.823529
0.328664 0.023209 0.827695
0.456153 0.0264439 0.831464
0.547433 0.02916 0.835874
0.646922 0.0323491 0.840009
0.746288 0.0354009 0.844083
0.83592 0.0379492 0.848157
0.0102998 0.125948 0.817258
0.103243 0.127565 0.825025
0.208316 0.129549 0.828901
0.340581 0.13135 0.832883
0.464698 0.13228 0.837339
0.555596 0.134096 0.840848
0.65507 0.135668 0.845411
0.753994 0.137438 0.849042
0.841276 0.138827 0.853437
0.0242313 0.229984 0.812192
0.110994 0.233402 0.82623
0.219287 0.236103 0.834318
0.353185 0.23917 0.838224
0.473014 0.242313 0.842008
0.563668 0.24509 0.846265
0.663432 0.248402 0.849958
0.761563 0.251331 0.854047
0.845396 0.254917 0.857755
0.047715 0.370932 0.792859
0.127108 0.376532 0.810956
0.23331 0.380301 0.82948
0.36553 0.383429 0.841627
0.480339 0.38587 0.845487
0.571206 0.389105 0.849256
0.670634 0.392386 0.853208
0.768002 0.394812 0.856794
0.848585 0.398428 0.860853
0.0768139 0.499306 0.786252
0.158419 0.505425 0.796963
0.261601 0.511772 0.812268
0.381674 0.517464 0.835508
0.487694 0.520256 0.849119
0.579141 0.523125 0.853086
0.678431 0.526345 0.856443
0.775158 0.528679 0.860609
0.851133 0.532235 0.864408
0.100633 0.623072 0.797238
0.186664 0.62887 0.803601
0.293324 0.635248 0.811276
0.413611 0.6421 0.822354
0.500587 0.648203 0.839918
0.587182 0.651331 0.856214
0.686183 0.654169 0.860304
0.781476 0.65684 0.863676
0.853147 0.659678 0.867185
0.118105 0.737819 0.813352
0.207538 0.742535 0.818982
0.315862 0.748287 0.825849
0.437095 0.754391 0.832822
0.521752 0.760037 0.839323
0.606073 0.765774 0.847578
0.694133 0.770687 0.863035
0.78764 0.772686 0.866957
0.855207 0.775341 0.870771
0.132357 0.839139 0.829374
0.224002 0.843397 0.834913
0.334112 0.848554 0.841794
0.452399 0.853452 0.848402
0.535058 0.858778 0.854902
0.623087 0.863432 0.861646
0.712413 0.867903 0.867964
0.79292 0.874098 0.870985
0.856657 0.874617 0.873152
0.143969 0.90695 0.843549
0.238315 0.910552 0.849928
0.350774 0.914534 0.856931
0.464729 0.919722 0.864698
0.547539 0.924575 0.872633
0.637507 0.929686 0.880842
0.727214 0.936675 0.890608
0.804486 0.942336 0.892683
0.86009 0.941466 0.888426
0 0.0158999 0.912077
0.0966659 0.0192264 0.915496
0.197482 0.0222477 0.918578
0.32903 0.0254215 0.92105
0.456352 0.0284733 0.923751
0.547478 0.0311742 0.926116
0.646845 0.034226 0.928832
0.746288 0.0370489 0.930831
0.83563 0.039704 0.933242
0.0106203 0.127199 0.911543
0.103258 0.128908 0.918212
0.208148 0.130938 0.920943
0.340978 0.132006 0.924071
0.464988 0.133639 0.926497
0.555825 0.135348 0.929061
0.655222 0.136889 0.930999
0.754055 0.138415 0.93341
0.840864 0.1402 0.935729
0.0237278 0.23209 0.904891
0.110872 0.235218 0.916686
0.219226 0.238102 0.923293
0.353628 0.241413 0.926177
0.473228 0.2439 0.928817
0.563729 0.247456 0.930556
0.663554 0.250492 0.932982
0.761608 0.253666 0.935012
0.845121 0.257176 0.937316
0.0442512 0.373892 0.883009
0.124788 0.378561 0.900313
0.232837 0.382391 0.916106
0.366049 0.385168 0.92636
0.480613 0.3879 0.928908
0.571481 0.391272 0.930846
0.670863 0.393622 0.932891
0.768093 0.396994 0.934905
0.848157 0.400061 0.936736
0.0734722 0.502449 0.867094
0.153658 0.509102 0.878645
0.257801 0.514702 0.896162
0.380865 0.519326 0.917937
0.487556 0.522057 0.928695
0.579324 0.525277 0.930617
0.678706 0.527764 0.932616
0.774792 0.5308 0.934356
0.850797 0.534325 0.936034
0.100114 0.62623 0.868879
0.184955 0.63209 0.875349
0.290944 0.638071 0.883757
0.410178 0.645029 0.89749
0.499001 0.650462 0.917128
0.587533 0.653269 0.929793
0.686381 0.65597 0.932006
0.781399 0.658824 0.933822
0.852705 0.66154 0.935241
0.119799 0.73991 0.879942
0.20943 0.74493 0.884703
0.317372 0.750469 0.890135
0.437552 0.756756 0.896284
0.520607 0.762936 0.903517
0.603403 0.768597 0.91577
0.694423 0.772168 0.930983
0.787793 0.774456 0.932967
0.854765 0.777157 0.934325
0.135546 0.840101 0.892119
0.22771 0.844388 0.896391
0.33727 0.849744 0.901793
0.454795 0.854414 0.907042
0.536812 0.859541 0.911879
0.624994 0.864393 0.916884
0.713481 0.868864 0.921523
0.794461 0.873335 0.931243
0.856397 0.874952 0.93341
0.147997 0.906249 0.901869
0.241596 0.909545 0.905867
0.353948 0.913359 0.910842
0.466636 0.916854 0.916014
0.548363 0.920729 0.920775
0.637873 0.923903 0.925826
0.727138 0.927474 0.930251
0.808682 0.93022 0.9355
0.857008 0.933852 0.934752
