public/luts/timeless.cube
TITLE "Generated by Resolve"
LUT_3D_SIZE 5
0 0.000595102 0
0.196857 0.00636301 0.00427253
0.455375 0.0130007 0.011902
0.645365 0.0197604 0.0194705
0.835782 0.0271153 0.0273136
0.0173495 0.229877 0.0487373
0.231434 0.233997 0.0378729
0.488289 0.226612 0.0585184
0.672053 0.233738 0.05832
0.845747 0.240955 0.0601511
0.0638895 0.563333 0.147021
0.279973 0.589288 0.143572
0.528389 0.571969 0.114168
0.722087 0.533806 0.103777
0.856764 0.527871 0.108461
0.0951247 0.842466 0.201221
0.3205 0.877928 0.208743
0.559243 0.887098 0.188525
0.766445 0.855787 0.162356
0.880934 0.832822 0.161593
0.122957 1 0.243305
0.358007 1 0.25594
0.581872 1 0.23595
0.799847 1 0.208453
0.909331 1 0.206912
0 0.00399786 0.207248
0.197971 0.0103456 0.213748
0.457328 0.0161593 0.221164
0.648356 0.021973 0.229328
0.838773 0.0280003 0.238193
0.0374609 0.214237 0.213352
0.219028 0.226337 0.22359
0.473259 0.232044 0.231388
0.664347 0.237888 0.240101
0.846891 0.24419 0.249729
0.064271 0.517815 0.27332
0.266011 0.550332 0.301793
0.50988 0.550011 0.280339
0.702647 0.528267 0.286549
0.857099 0.530373 0.282399
0.100649 0.804486 0.354086
0.33579 0.860792 0.406226
0.566125 0.892836 0.403616
0.773098 0.860868 0.371695
0.892912 0.825116 0.367346
0.131197 0.999985 0.41445
0.376761 1 0.464378
0.598733 1 0.477256
0.815381 1 0.444068
0.941314 1 0.441672
0 0.00753796 0.457298
0.197574 0.0139162 0.467262
0.456626 0.0200809 0.477668
0.647196 0.0265049 0.488319
0.837934 0.0323033 0.499458
0.0327764 0.221759 0.449119
0.219501 0.230198 0.482536
0.473045 0.235645 0.493202
0.663752 0.241642 0.504112
0.847456 0.248295 0.514977
0.0763561 0.48986 0.475654
0.268406 0.501366 0.490852
0.486686 0.515312 0.505608
0.677989 0.520592 0.512932
0.852171 0.526986 0.520256
0.101488 0.748577 0.53254
0.309865 0.778256 0.567086
0.532708 0.820737 0.608698
0.733669 0.815869 0.583978
0.875822 0.794583 0.584344
0.126482 0.942504 0.590234
0.35935 0.983581 0.640208
0.599481 1 0.712276
0.80679 1 0.694804
0.950301 1 0.681559
0 0.0121004 0.705364
0.197375 0.0184634 0.714015
0.456245 0.0243992 0.723171
0.646906 0.0301976 0.73228
0.836484 0.0361639 0.741314
0.0255131 0.227481 0.70219
0.219348 0.234257 0.727031
0.473106 0.240101 0.735546
0.663417 0.246296 0.74435
0.845899 0.25275 0.753246
0.0792859 0.495369 0.689616
0.266957 0.508492 0.708476
0.487877 0.518318 0.745235
0.678416 0.524254 0.753841
0.851896 0.530007 0.762661
0.114336 0.736095 0.724422
0.311849 0.746883 0.737606
0.519829 0.758099 0.75256
0.692454 0.770413 0.76405
0.855436 0.774212 0.772549
0.138384 0.911513 0.762402
0.346807 0.923384 0.78088
0.551431 0.946807 0.81149
0.738918 0.972519 0.837339
0.87892 0.967178 0.82327
0 0.0158999 0.912077
0.197482 0.0222477 0.918578
0.456352 0.0284733 0.923751
0.646845 0.034226 0.928832
0.83563 0.039704 0.933242
0.0237278 0.23209 0.904891
0.219226 0.238102 0.923293
0.473228 0.2439 0.928817
0.663554 0.250492 0.932982
0.845121 0.257176 0.937316
0.0734722 0.502449 0.867094
0.257801 0.514702 0.896162
0.487556 0.522057 0.928695
0.678706 0.527764 0.932616
0.850797 0.534325 0.936034
0.119799 0.73991 0.879942
0.317372 0.750469 0.890135
0.520607 0.762936 0.903517
0.694423 0.772168 0.930983
0.854765 0.777157 0.934325
0.147997 0.906249 0.901869
0.353948 0.913359 0.910842
0.548363 0.920729 0.920775
0.727138 0.927474 0.930251
0.857008 0.933852 0.934752
