public/luts/wolf-2383.cube
TITLE "Generated by Resolve"
LUT_3D_SIZE 9
0.0211032 0.0237888 0.0252537
0.0812543 0.0340734 0.0268711
0.159228 0.0446021 0.0194553
0.252522 0.052842 0.00399786
0.346029 0.0561227 0
0.414969 0.0560616 0
0.477867 0.0670634 0
0.540841 0.0820478 0
0.612116 0.129046 0
0.00151064 0.0735485 0.0400092
0.111101 0.0872206 0.0388495
0.237354 0.0969406 0.022797
0.354376 0.0977951 0.000213626
0.433112 0.098497 0
0.49662 0.104265 0
0.550042 0.12079 0
0.598749 0.153323 0
0.663371 0.20325 0
1.5259e-05 0.195117 0.0639048
0.0493935 0.209995 0.0570687
0.291829 0.245121 0.028809
0.438972 0.258839 0.00761425
0.514809 0.258122 0.00340276
0.580118 0.259236 0.00244144
0.641474 0.267536 0.000717174
0.701106 0.288289 0
0.73312 0.302876 0
0.00428779 0.324941 0.0794385
0.0787213 0.344991 0.0648051
0.290318 0.373083 0.0429999
0.48307 0.400473 0.00743114
0.592233 0.409171 0.00354009
0.661219 0.408469 0.00268559
0.718593 0.410513 0.000808728
0.773754 0.416587 3.0518e-05
0.830121 0.436469 0
0.0796521 0.453956 0.0954147
0.180301 0.470466 0.0817578
0.342123 0.493431 0.0704662
0.484047 0.513405 0.063798
0.619867 0.529549 0.0138247
0.715953 0.533745 0.00978103
0.781765 0.532769 0.00814832
0.836774 0.531182 0.00215152
0.8878 0.53962 0
0.218982 0.575051 0.156374
0.301946 0.587289 0.150179
0.417319 0.604623 0.147585
0.506798 0.614939 0.157488
0.602228 0.627024 0.1635
0.72668 0.635798 0.065568
0.818769 0.63769 0.040116
0.881712 0.634348 0.0298466
0.938125 0.636042 0.00105287
0.360082 0.675242 0.253086
0.40676 0.682139 0.25211
0.470832 0.692576 0.253895
0.539071 0.703548 0.260822
0.609842 0.712886 0.278523
0.697429 0.726452 0.284138
0.822354 0.730327 0.157488
0.912963 0.72929 0.101122
0.973175 0.724102 0.0393225
0.451606 0.746838 0.364614
0.47837 0.751186 0.364248
0.519921 0.758648 0.364935
0.570977 0.768688 0.369055
0.631708 0.780209 0.376059
0.697169 0.791608 0.392569
0.785183 0.806256 0.394217
0.917021 0.80856 0.253712
0.989105 0.800443 0.146624
0.526986 0.802274 0.504814
0.547433 0.805783 0.50454
0.571054 0.810468 0.505653
0.606439 0.817441 0.507378
0.649561 0.826001 0.508507
0.703014 0.836866 0.514107
0.771618 0.850034 0.521187
0.864393 0.865583 0.523949
0.996262 0.860014 0.349905
3.0518e-05 0.019791 0.0888991
0.103273 0.0402228 0.102739
0.218784 0.0506294 0.0879377
0.32845 0.0357061 0.072755
0.411872 0.0132143 0.0690776
0.469306 0.0077821 0.0524758
0.517845 0.00642405 0.0281071
0.572808 0.0128023 0.00918593
0.628489 0.0857252 0
0.000335698 0.0970474 0.114778
0.0815442 0.100862 0.119173
0.253086 0.103746 0.0984665
0.382452 0.0895399 0.0820478
0.464469 0.0738231 0.0701915
0.527672 0.0564584 0.0475776
0.575753 0.0562905 0.0292515
0.628672 0.0810101 0.0112001
0.687816 0.146487 0.00149538
0 0.234852 0.13193
0.0319066 0.245838 0.133089
0.271626 0.25803 0.125643
0.44892 0.260578 0.0990616
0.527703 0.250233 0.0908217
0.595605 0.238331 0.0732586
0.659602 0.230182 0.0527199
0.709636 0.235142 0.0312047
0.767651 0.277821 0.00231937
0.00378424 0.359915 0.158068
0.0845045 0.374884 0.148928
0.27158 0.38703 0.155184
0.468147 0.403388 0.124926
0.590875 0.404135 0.0873274
0.662409 0.398459 0.081651
0.720729 0.390967 0.0718547
0.774594 0.386145 0.0417334
0.828138 0.403067 0.00874342
0.0840772 0.480568 0.187884
0.183032 0.493645 0.18407
0.337942 0.50927 0.186282
0.46775 0.519387 0.196139
0.604639 0.529397 0.142611
0.710307 0.529702 0.100053
0.777005 0.522316 0.0936904
0.831662 0.513878 0.0747082
0.882612 0.515846 0.0209201
0.221714 0.592477 0.241032
0.305028 0.6038 0.239673
0.408942 0.616419 0.243458
0.500694 0.62562 0.256352
0.590829 0.634409 0.266835
0.715892 0.640436 0.189685
0.813519 0.637995 0.134981
0.876585 0.629282 0.116762
0.92871 0.619654 0.0480049
0.360006 0.686015 0.315038
0.4047 0.692363 0.314748
0.467521 0.701991 0.316777
0.537591 0.71223 0.323476
0.606531 0.720851 0.340581
0.691264 0.732754 0.346807
0.816892 0.737667 0.252827
0.909545 0.733471 0.180102
0.966278 0.719966 0.103517
0.449226 0.752712 0.398306
0.47837 0.757565 0.398535
0.518563 0.76466 0.399603
0.569802 0.774014 0.402991
0.630747 0.785504 0.409644
0.696376 0.79649 0.425361
0.78201 0.810498 0.427878
0.914565 0.814099 0.314076
0.987564 0.803204 0.196262
0.524926 0.804685 0.520562
0.544198 0.808255 0.520897
0.572473 0.813428 0.521309
0.606287 0.819974 0.522332
0.650156 0.828733 0.523934
0.703563 0.839628 0.528984
0.771099 0.852537 0.536385
0.863081 0.867948 0.540261
0.996078 0.863539 0.37615
0 0.00234989 0.195895
0.0892805 0.0102388 0.213046
0.255955 0.0157473 0.23035
0.351736 0.0141909 0.203555
0.436057 0.00901808 0.190356
0.506157 0.00561532 0.178439
0.577218 0.00697337 0.17879
0.640421 0.0238346 0.168048
0.668727 0.0175937 0.0729992
0 0.0967117 0.238865
0.0626383 0.119692 0.245563
0.252476 0.132479 0.244129
0.399939 0.112245 0.219257
0.479438 0.0978866 0.206455
0.549065 0.0999924 0.204227
0.616434 0.119188 0.20499
0.674861 0.0868238 0.165637
0.710079 0.0858473 0.0788128
0 0.254124 0.26862
0.00813306 0.266011 0.272374
0.235645 0.280324 0.274372
0.431342 0.28542 0.254734
0.528038 0.270375 0.240345
0.607095 0.255543 0.227802
0.673701 0.241398 0.210254
0.733379 0.234699 0.183597
0.771969 0.228183 0.114717
0 0.385687 0.277974
0.0303349 0.397131 0.269642
0.248219 0.409079 0.284276
0.447974 0.421271 0.275364
0.586725 0.424323 0.252979
0.662684 0.417426 0.25391
0.726024 0.402213 0.243366
0.785718 0.388479 0.221164
0.832288 0.373663 0.16611
0.0279698 0.496788 0.300893
0.155947 0.511421 0.30808
0.334554 0.527657 0.306279
0.453254 0.53431 0.32282
0.589761 0.543145 0.289235
0.700114 0.544411 0.273213
0.776318 0.533623 0.256931
0.831708 0.520134 0.247517
0.875288 0.497902 0.188739
0.209689 0.608454 0.345174
0.308125 0.620066 0.342458
0.410361 0.630671 0.343618
0.497704 0.639094 0.353475
0.581353 0.643 0.362692
0.702907 0.652216 0.320714
0.80589 0.651881 0.290929
0.876356 0.637537 0.263966
0.922515 0.61651 0.217914
0.351476 0.698314 0.38938
0.408087 0.705272 0.388083
0.469642 0.71397 0.389792
0.536965 0.723629 0.397086
0.606043 0.731487 0.408759
0.685084 0.740108 0.415122
0.808255 0.748791 0.356741
0.906294 0.743694 0.301198
0.96202 0.722866 0.236393
0.442023 0.760571 0.445212
0.477638 0.765911 0.444709
0.51902 0.772992 0.445624
0.572488 0.782193 0.448341
0.629908 0.792645 0.454063
0.695628 0.803616 0.465171
0.778439 0.815869 0.469856
0.910033 0.822477 0.385138
0.986236 0.810101 0.278355
0.522606 0.808927 0.544137
0.541222 0.81207 0.544472
0.571694 0.817746 0.544686
0.607904 0.824613 0.545296
0.650965 0.833234 0.54786
0.703639 0.843687 0.552178
0.770214 0.85658 0.559548
0.860975 0.871672 0.564294
0.995682 0.86952 0.41828
0 0 0.288151
0.0531472 0.0163119 0.305699
0.256535 0.0237736 0.318669
0.390585 0.0192721 0.331991
0.459525 0.0121767 0.311162
0.524269 0.00810254 0.300465
0.591882 0.00511177 0.295018
0.663417 0.0237278 0.293767
0.735332 0.10042 0.299565
0 0.0874952 0.335103
0.022797 0.125612 0.357443
0.272007 0.156573 0.363699
0.409232 0.163134 0.365698
0.494423 0.127871 0.339193
0.567834 0.109377 0.324941
0.634104 0.104204 0.316777
0.699763 0.143008 0.321096
0.764157 0.202731 0.320806
0 0.274159 0.398352
0.0252384 0.289479 0.394934
0.24123 0.29868 0.396841
0.418753 0.311009 0.394003
0.542855 0.288167 0.371359
0.617548 0.286076 0.363424
0.681331 0.283833 0.357321
0.737987 0.288273 0.352819
0.796124 0.274037 0.32047
0.000228885 0.399008 0.409491
0.0245212 0.410544 0.409628
0.184512 0.424567 0.41062
0.43447 0.439033 0.412329
0.56907 0.439963 0.397589
0.658824 0.43125 0.3841
0.726513 0.413062 0.370871
0.790112 0.394171 0.357473
0.840742 0.381247 0.327749
0.0309911 0.518944 0.416251
0.105165 0.530694 0.4121
0.263218 0.543862 0.408972
0.447242 0.548135 0.424186
0.573648 0.554833 0.416571
0.695781 0.558999 0.398581
0.771374 0.55259 0.39736
0.834119 0.533165 0.38381
0.882826 0.505486 0.352651
0.0885328 0.615442 0.423438
0.196811 0.627527 0.425772
0.382269 0.641566 0.442664
0.495033 0.652613 0.446311
0.57261 0.655314 0.459251
0.692515 0.664317 0.426566
0.798474 0.666178 0.410925
0.873487 0.653284 0.39353
0.922179 0.627207 0.365469
0.313436 0.707256 0.462638
0.383566 0.715602 0.466194
0.460182 0.725902 0.466316
0.536873 0.736019 0.468925
0.605844 0.743847 0.479698
0.679576 0.748272 0.486015
0.800504 0.759487 0.443931
0.900694 0.757824 0.411322
0.960891 0.735744 0.369085
0.43267 0.769223 0.499763
0.467048 0.774426 0.499809
0.51519 0.782132 0.499611
0.5738 0.791928 0.500603
0.629938 0.801785 0.506004
0.694438 0.81236 0.514504
0.773632 0.823392 0.519631
0.903838 0.832364 0.459205
0.986557 0.821195 0.375311
0.518181 0.814328 0.577386
0.538399 0.818006 0.578042
0.56733 0.82327 0.579232
0.60763 0.830777 0.579705
0.652445 0.839597 0.58175
0.704234 0.849805 0.585107
0.769284 0.862119 0.590921
0.858167 0.876967 0.597147
0.994965 0.878111 0.475273
0 0.00982681 0.377707
0.0419318 0.0312047 0.394873
0.25095 0.0448768 0.41593
0.394965 0.0341344 0.415244
0.493782 0.0470893 0.431357
0.558709 0.0531167 0.413748
0.607935 0.0249638 0.393408
0.670817 0.0382696 0.387076
0.740642 0.0816205 0.386831
0 0.0932326 0.426246
0.0208286 0.142428 0.448737
0.259342 0.189014 0.462562
0.427085 0.188968 0.460395
0.520348 0.204669 0.468681
0.589807 0.170825 0.441627
0.647761 0.14699 0.423392
0.706493 0.144656 0.411826
0.770794 0.189731 0.410788
0 0.288777 0.488731
0.0263371 0.308217 0.495811
0.255497 0.327611 0.498863
0.440772 0.340475 0.491615
0.536385 0.342931 0.492073
0.629175 0.308843 0.474357
0.698756 0.298131 0.457191
0.754177 0.286992 0.44477
0.806088 0.303197 0.439841
0.00132753 0.419165 0.511223
0.062974 0.430335 0.510445
0.269566 0.443259 0.509178
0.438682 0.450706 0.515175
0.545708 0.459617 0.508522
0.65069 0.441505 0.487892
0.726024 0.434974 0.480156
0.786816 0.425086 0.470237
0.841947 0.417288 0.458289
0.02916 0.528557 0.517006
0.104891 0.538094 0.516609
0.2551 0.551476 0.518288
0.422538 0.561639 0.521538
0.567102 0.56759 0.520058
0.678218 0.567269 0.506737
0.766903 0.561852 0.493324
0.832776 0.535485 0.475425
0.884367 0.505882 0.454368
0.153292 0.636362 0.520668
0.232242 0.645914 0.519127
0.337636 0.657176 0.516609
0.453391 0.666575 0.517067
0.568444 0.665461 0.532036
0.682078 0.672572 0.521385
0.796384 0.677638 0.505867
0.871717 0.666621 0.496452
0.924102 0.634989 0.472206
0.222553 0.714717 0.52433
0.27808 0.721325 0.522255
0.372519 0.731289 0.52369
0.513527 0.744732 0.544244
0.602502 0.75552 0.548699
0.675258 0.760021 0.559045
0.791821 0.770504 0.525338
0.897337 0.770611 0.500465
0.959808 0.749386 0.474403
0.353048 0.770291 0.547723
0.410315 0.77821 0.553231
0.485161 0.788937 0.560342
0.553292 0.799771 0.560052
0.623941 0.811505 0.561502
0.691447 0.822522 0.570947
0.76704 0.832242 0.577707
0.898375 0.843275 0.528161
0.986847 0.834867 0.464729
0.512566 0.821973 0.620935
0.529763 0.824826 0.620722
0.558785 0.829664 0.621363
0.599237 0.837293 0.62266
0.650187 0.846937 0.623468
0.702556 0.857221 0.626749
0.766598 0.869505 0.633341
0.852018 0.883925 0.641367
0.993744 0.888487 0.541756
1.5259e-05 0.0407111 0.472145
0.0348363 0.0705272 0.486
0.240925 0.0966964 0.509133
0.405585 0.0984817 0.520073
0.499413 0.0905623 0.517128
0.587259 0.122225 0.536889
0.653834 0.15024 0.52668
0.687861 0.07364 0.492042
0.747829 0.102678 0.48098
0 0.134813 0.519585
0.0281682 0.178561 0.536141
0.237491 0.204868 0.551781
0.427222 0.234302 0.56376
0.527642 0.228397 0.558221
0.6112 0.249348 0.568917
0.677821 0.247395 0.548882
0.720424 0.187961 0.51928
0.775082 0.193469 0.502342
0.000228885 0.303532 0.573861
0.0376898 0.3178 0.584176
0.25333 0.344747 0.594659
0.437766 0.364599 0.591669
0.550668 0.361822 0.586801
0.626245 0.369711 0.59028
0.704067 0.336385 0.56997
0.763363 0.313329 0.548989
0.811292 0.299443 0.528618
0.00595102 0.43508 0.605112
0.0837873 0.449592 0.6056
0.288853 0.464851 0.609659
0.446571 0.470634 0.610727
0.556481 0.477348 0.599451
0.635843 0.478996 0.59968
0.732586 0.448905 0.588754
0.801556 0.435721 0.570626
0.849882 0.421485 0.554513
0.0461738 0.545449 0.615045
0.148272 0.555871 0.615579
0.312428 0.565988 0.618143
0.449668 0.572274 0.618341
0.563149 0.577951 0.622583
0.654887 0.58706 0.613596
0.754238 0.566995 0.594736
0.826612 0.553597 0.583017
0.881315 0.535088 0.563577
0.137789 0.645518 0.618143
0.212116 0.65388 0.61886
0.310246 0.66273 0.620462
0.428962 0.672663 0.623575
0.550881 0.680507 0.62501
0.675593 0.685054 0.622492
0.78233 0.682612 0.606027
0.869078 0.672297 0.585809
0.923201 0.63212 0.555688
0.263142 0.73286 0.615778
0.309606 0.738766 0.615534
0.381109 0.747372 0.615015
0.470481 0.757977 0.613626
0.561074 0.767529 0.613611
0.664271 0.771221 0.629877
0.780682 0.780743 0.613993
0.896681 0.78262 0.588403
0.959213 0.760021 0.572061
0.2972 0.778134 0.615213
0.32755 0.782116 0.613748
0.380316 0.788815 0.611109
0.476768 0.801495 0.615427
0.595239 0.819608 0.635096
0.67921 0.833371 0.637003
0.758099 0.844373 0.6477
0.891051 0.85594 0.602975
0.985855 0.849638 0.555398
0.4748 0.825254 0.664347
0.501106 0.829526 0.666987
0.54197 0.836789 0.673014
0.584176 0.844617 0.6766
0.63183 0.853269 0.675563
0.694652 0.865156 0.676112
0.760266 0.877592 0.681666
0.845792 0.892699 0.691905
0.991653 0.901213 0.619654
0.00135805 0.105394 0.55903
0.048249 0.130037 0.566384
0.236866 0.148165 0.582162
0.401907 0.175845 0.606439
0.510796 0.170214 0.61001
0.587015 0.162173 0.609476
0.668666 0.192538 0.627207
0.73724 0.227131 0.626657
0.762356 0.133288 0.584298
0.0015259 0.193729 0.596063
0.0540017 0.22327 0.606332
0.241291 0.247562 0.6215
0.414588 0.272892 0.639948
0.530236 0.271443 0.642741
0.610193 0.265522 0.640284
0.688594 0.28513 0.651987
0.754376 0.297368 0.643015
0.785687 0.220554 0.606119
0.00451667 0.317968 0.640497
0.0662089 0.335134 0.648096
0.248829 0.352911 0.660258
0.422141 0.365301 0.669612
0.545403 0.383917 0.671839
0.631083 0.376608 0.668849
0.70605 0.389746 0.674662
0.775006 0.380316 0.659373
0.818326 0.322698 0.631052
0.00546273 0.441382 0.676799
0.108049 0.454765 0.681987
0.2963 0.470649 0.690272
0.445609 0.481086 0.694621
0.557351 0.494957 0.688823
0.649836 0.494179 0.686976
0.720226 0.496544 0.690715
0.800076 0.457481 0.676799
0.854597 0.429404 0.653346
0.0910048 0.560174 0.699931
0.188785 0.569787 0.701137
0.324758 0.580575 0.704784
0.459007 0.587701 0.709041
0.563027 0.590341 0.708598
0.659342 0.597833 0.699626
0.731762 0.597803 0.699672
0.827451 0.56289 0.692714
0.888548 0.541085 0.672312
0.168948 0.660853 0.711376
0.232227 0.666682 0.712489
0.337514 0.674235 0.714778
0.462898 0.681407 0.718212
0.563088 0.687739 0.718944
0.666911 0.694469 0.72221
0.754452 0.703166 0.714733
0.854871 0.674525 0.696376
0.918364 0.650843 0.679301
0.220295 0.741634 0.714015
0.265843 0.74728 0.714931
0.330907 0.754528 0.71606
0.423987 0.764141 0.718853
0.528679 0.775006 0.722591
0.6383 0.785657 0.724773
0.767849 0.793759 0.722667
0.887526 0.787793 0.699901
0.958892 0.756664 0.663279
0.324071 0.798291 0.708598
0.351354 0.802258 0.708446
0.396277 0.808042 0.708156
0.464683 0.816754 0.707591
0.541085 0.827146 0.706249
0.626322 0.839872 0.705135
0.738689 0.855589 0.720424
0.877089 0.869429 0.698451
0.983597 0.86598 0.662913
0.411337 0.825574 0.712734
0.425116 0.827497 0.712688
0.461875 0.833692 0.715511
0.521813 0.843687 0.722332
0.592416 0.857099 0.731228
0.666484 0.871931 0.739788
0.74284 0.885328 0.736965
0.837736 0.902251 0.746746
0.989487 0.915343 0.701366
0.0207828 0.186664 0.624643
0.0935378 0.201846 0.628687
0.262806 0.213275 0.640024
0.392767 0.233585 0.660487
0.501091 0.241184 0.673106
0.591104 0.230869 0.676371
0.659922 0.215274 0.676417
0.738933 0.239643 0.691875
0.808667 0.288304 0.700954
0.0282597 0.252888 0.650462
0.111757 0.26836 0.656245
0.26978 0.284001 0.668009
0.395697 0.282887 0.67895
0.511727 0.303822 0.694636
0.606851 0.298833 0.698207
0.678859 0.290333 0.698634
0.755734 0.311482 0.71075
0.821653 0.338842 0.713222
0.0504463 0.341955 0.684169
0.13109 0.355032 0.689967
0.281178 0.368704 0.70042
0.409094 0.366293 0.708782
0.530068 0.395071 0.722499
0.626001 0.391592 0.725551
0.702068 0.384558 0.725353
0.775784 0.399222 0.733516
0.839857 0.40734 0.728893
0.0870375 0.442512 0.71899
0.172412 0.452277 0.723644
0.298543 0.462089 0.731212
0.438132 0.472755 0.740841
0.541222 0.484382 0.746944
0.643427 0.500298 0.751354
0.725246 0.491646 0.750607
0.795285 0.501518 0.756542
0.860792 0.472511 0.744305
0.132662 0.556802 0.750881
0.221592 0.56466 0.754513
0.344839 0.573098 0.760296
0.463447 0.582834 0.766537
0.561074 0.591333 0.771115
0.659297 0.607187 0.771313
0.746105 0.605661 0.771374
0.813046 0.605585 0.774731
0.8869 0.552544 0.762509
0.221698 0.666545 0.775876
0.276448 0.672694 0.777813
0.362768 0.68014 0.780392
0.474006 0.68809 0.785046
0.572381 0.694453 0.789425
0.662943 0.697963 0.790906
0.756695 0.707454 0.787579
0.829282 0.706432 0.788785
0.917967 0.653681 0.780407
0.251225 0.753933 0.791821
0.292561 0.758495 0.793011
0.363592 0.764889 0.795148
0.466499 0.772839 0.798672
0.561669 0.781765 0.801831
0.654658 0.789731 0.80444
0.756634 0.79736 0.80795
0.851392 0.804669 0.80473
0.94815 0.758358 0.78761
0.259083 0.804303 0.794873
0.282765 0.808133 0.795651
0.325109 0.81445 0.797055
0.3906 0.823362 0.799237
0.480049 0.834607 0.802274
0.586892 0.848066 0.806973
0.69778 0.864775 0.811154
0.857908 0.883299 0.811933
0.98201 0.877668 0.780713
0.465797 0.849378 0.795544
0.477729 0.851057 0.796078
0.495155 0.85388 0.796826
0.522667 0.858289 0.798032
0.561273 0.86482 0.798428
0.61265 0.873457 0.798596
0.696376 0.889967 0.806043
0.823911 0.912703 0.814817
0.987015 0.932586 0.794842
0.162814 0.31751 0.691341
0.24184 0.315435 0.694087
0.32665 0.309682 0.69897
0.400336 0.305806 0.704982
0.495567 0.334249 0.722545
0.582467 0.333608 0.730144
0.662593 0.328954 0.735546
0.737682 0.31368 0.736614
0.807385 0.312367 0.742901
0.173739 0.351461 0.705669
0.256184 0.351553 0.709026
0.339864 0.349508 0.714519
0.41149 0.349905 0.720989
0.50338 0.371633 0.735393
0.591714 0.375753 0.743816
0.672969 0.370245 0.748226
0.750805 0.356756 0.749294
0.819806 0.354604 0.754086
0.219715 0.401831 0.726741
0.288899 0.403265 0.730297
0.357717 0.405051 0.735759
0.428275 0.406516 0.741405
0.509346 0.411566 0.748928
0.605188 0.4318 0.761563
0.68954 0.429038 0.766217
0.770428 0.416892 0.766934
0.839628 0.42089 0.77229
0.27126 0.470436 0.752026
0.318746 0.473625 0.755611
0.381033 0.478126 0.760418
0.452415 0.480446 0.765682
0.528023 0.479637 0.770626
0.624399 0.506371 0.782818
0.71043 0.50811 0.787976
0.796384 0.501091 0.789563
0.863462 0.502937 0.793301
0.323476 0.556283 0.778866
0.359609 0.559182 0.781262
0.410483 0.563577 0.785183
0.479652 0.567651 0.790036
0.555306 0.570153 0.794903
0.640604 0.581537 0.801892
0.73431 0.605875 0.810712
0.821027 0.601602 0.812741
0.888426 0.597284 0.814603
0.3776 0.648142 0.803998
0.406241 0.65066 0.805844
0.450416 0.655024 0.808682
0.515038 0.661921 0.813474
0.590463 0.671458 0.81915
0.666865 0.680552 0.824552
0.756893 0.703868 0.831296
0.844663 0.703563 0.833844
0.913512 0.695171 0.83447
0.433783 0.753155 0.827787
0.460822 0.755901 0.82919
0.50338 0.760555 0.831708
0.559396 0.767559 0.835462
0.618921 0.776532 0.839582
0.687541 0.785687 0.844083
0.768246 0.791852 0.848142
0.863783 0.805402 0.85185
0.938293 0.797696 0.852125
0.5028 0.832685 0.844877
0.518975 0.835172 0.845869
0.54493 0.839323 0.847501
0.583841 0.845624 0.849912
0.630045 0.853666 0.853071
0.69221 0.8636 0.857114
0.770748 0.873854 0.861265
0.865888 0.883131 0.865492
0.965805 0.889372 0.868605
0.572686 0.875517 0.854948
0.580926 0.876997 0.855436
0.596979 0.879942 0.856413
0.619745 0.884153 0.857755
0.652033 0.890303 0.859846
0.695293 0.898543 0.862593
0.756085 0.909728 0.86598
0.845197 0.925063 0.871046
0.984009 0.946273 0.875807
