public/luts/wolf-2383.cube
TITLE "Generated by Resolve"
LUT_3D_SIZE 33
0.0211032 0.0237888 0.0252537
0.0335241 0.0248722 0.0258335
0.0480507 0.0264591 0.0266423
0.0627451 0.030518 0.0273747
0.0812543 0.0340734 0.0268711
0.100725 0.0367437 0.0254368
0.118074 0.0396429 0.0239567
0.137331 0.0423896 0.0221103
0.159228 0.0446021 0.0194553
0.182879 0.0464637 0.0159304
0.205203 0.0489967 0.012604
0.22768 0.0510262 0.00907912
0.252522 0.052842 0.00399786
0.279194 0.0542611 0.00111391
0.302953 0.0553445 0
0.325093 0.0558785 0
0.346029 0.0561227 0
0.364981 0.0560006 0
0.382055 0.055848 0
0.39884 0.0556649 0
0.414969 0.0560616 0
0.431357 0.0577707 0
0.446815 0.0610666 0
0.462272 0.0650797 0
0.477867 0.0670634 0
0.493751 0.069749 0
0.509239 0.0727398 0
0.525307 0.0764324 0
0.540841 0.0820478 0
0.556649 0.0867475 0
0.572625 0.0968643 0
0.59234 0.113161 0
0.612116 0.129046 0
0.019501 0.0341039 0.0287022
0.0337682 0.0349584 0.0292973
0.0541543 0.0370794 0.0294041
0.0714122 0.0390021 0.0297093
0.0929122 0.0420539 0.0293126
0.119753 0.0452125 0.0281834
0.143526 0.0479896 0.0262455
0.1691 0.050309 0.0233768
0.194202 0.0519417 0.0191196
0.220844 0.0535286 0.0142977
0.246464 0.0547646 0.00854505
0.272663 0.0555276 0.00314336
0.295796 0.0562295 0.000732433
0.31545 0.0565805 0
0.334081 0.0569467 0
0.352377 0.0569009 0
0.368627 0.0569009 0
0.384695 0.0567636 0
0.400656 0.0566567 0
0.416861 0.0586252 0
0.431693 0.0611887 0
0.446754 0.0645457 0
0.462013 0.0677195 0
0.477241 0.0712902 0
0.492943 0.0735332 0
0.507851 0.0766461 0
0.522896 0.0805982 0
0.538567 0.0860761 0
0.553109 0.0952773 0
0.569665 0.105165 0
0.586831 0.118166 0
0.60412 0.129885 0
0.625223 0.147021 0
0.009308 0.0457465 0.0310979
0.0244297 0.0466316 0.0322271
0.0547799 0.0493935 0.0321202
0.0775616 0.0518349 0.0320439
0.101732 0.0547799 0.0312963
0.126864 0.0574197 0.0297246
0.151797 0.0594339 0.0281224
0.178897 0.0611887 0.024918
0.209888 0.0618143 0.019913
0.239002 0.06215 0.0143435
0.26891 0.0619669 0.0065919
0.29778 0.0615854 0.00166323
0.322377 0.0611887 0
0.343267 0.0610056 0
0.363104 0.0606088 0
0.378683 0.0606394 0
0.393118 0.0608682 0
0.40766 0.0617075 0
0.42179 0.063386 0
0.436194 0.066041 0
0.449561 0.0686809 0
0.463615 0.0724956 0
0.477699 0.0749065 0
0.492866 0.0777905 0
0.50782 0.0802777 0
0.522255 0.0851911 0
0.537316 0.0926223 0
0.55169 0.102571 0
0.567529 0.114763 0
0.58201 0.125658 0
0.598932 0.134585 0
0.617319 0.147967 0
0.636683 0.162783 0
0.00614939 0.0568399 0.034638
0.0222019 0.057557 0.0348669
0.0460975 0.0610666 0.0361486
0.0779736 0.0645151 0.0353857
0.110857 0.0678569 0.033753
0.136431 0.0710155 0.0323644
0.162249 0.0730907 0.0300908
0.192035 0.0751049 0.026688
0.221729 0.076463 0.022034
0.252506 0.0773632 0.016144
0.283101 0.0774548 0.00857557
0.311925 0.0768444 0.00289921
0.337102 0.0766918 0.000213626
0.35967 0.0763714 0
0.379538 0.0766155 0
0.397711 0.0763714 0
0.41471 0.0771954 0
0.430671 0.0780041 0
0.446235 0.079057 0
0.459388 0.0803845 0
0.472801 0.0817121 0
0.48542 0.0836194 0
0.499504 0.0873732 0
0.511818 0.0908064 0
0.524956 0.0961471 0
0.538476 0.103761 0
0.552728 0.111879 0
0.567452 0.122255 0
0.581582 0.132891 0
0.595911 0.142519 0
0.611856 0.152743 0
0.629404 0.164096 0
0.649531 0.180713 0
0.00151064 0.0735485 0.0400092
0.016022 0.0748455 0.0398108
0.0382086 0.0770581 0.0402991
0.0670787 0.0818189 0.0410925
0.111101 0.0872206 0.0388495
0.146487 0.0906844 0.0355993
0.176547 0.0944076 0.0329137
0.205646 0.0960098 0.0288396
0.237354 0.0969406 0.022797
0.267094 0.0975052 0.017319
0.298894 0.0979019 0.00949111
0.328908 0.0979324 0.00363165
0.354376 0.0977951 0.000213626
0.376852 0.0978103 0
0.396567 0.0975204 0
0.415076 0.0979171 0
0.433112 0.098497 0
0.449958 0.100038 0
0.465629 0.101122 0
0.481422 0.102953 0
0.49662 0.104265 0
0.511894 0.107012 0
0.525414 0.110765 0
0.537484 0.114397 0
0.550042 0.12079 0
0.561898 0.128222 0
0.573571 0.135119 0
0.585504 0.142809 0
0.598749 0.153323 0
0.611872 0.162799 0
0.625254 0.172183 0
0.644007 0.18584 0
0.663371 0.20325 0
0.00343328 0.0973983 0.0461433
0.0117494 0.098146 0.0456092
0.024155 0.0995041 0.0458839
0.0523537 0.104051 0.0461891
0.0979324 0.111055 0.0460517
0.14844 0.116854 0.0408331
0.190372 0.120546 0.0353552
0.223545 0.124926 0.0301518
0.255253 0.127306 0.0235447
0.286305 0.128084 0.0155795
0.317678 0.129183 0.00881972
0.347051 0.129778 0.0041352
0.37113 0.129458 0.00138857
0.394385 0.129534 0.000808728
0.41445 0.129625 0.00120546
0.433875 0.129534 0.00129702
0.451469 0.130556 0.00146487
0.46865 0.1308 0.00148013
0.484962 0.13283 0.00138857
0.501503 0.134905 0.00114443
0.517052 0.136843 0.000869764
0.533089 0.139559 0.000564584
0.548135 0.142779 0.000427253
0.563012 0.147616 0.000106813
0.578103 0.153094 0
0.591485 0.159747 0
0.602533 0.166445 0
0.612818 0.173068 0
0.622263 0.180728 0
0.631693 0.188922 0
0.64416 0.198779 0
0.66038 0.21207 0
0.678965 0.228077 0
0.000320439 0.127871 0.0529946
0.00181582 0.128939 0.051957
0.00813306 0.130816 0.0516976
0.0335851 0.133852 0.0508888
0.0829938 0.14168 0.0508431
0.137957 0.149584 0.0482185
0.192737 0.156527 0.0388342
0.240864 0.160708 0.0273136
0.27509 0.164858 0.0207218
0.309087 0.16791 0.0140078
0.339834 0.169085 0.00787366
0.367681 0.16997 0.00399786
0.392386 0.170779 0.00222782
0.413855 0.171069 0.00331121
0.433539 0.170336 0.00421149
0.453086 0.170611 0.00456245
0.470939 0.171435 0.00434882
0.488411 0.171466 0.00404364
0.505852 0.172366 0.00367742
0.521752 0.17319 0.00311284
0.538048 0.175494 0.00259403
0.553704 0.178561 0.00202945
0.569039 0.180209 0.00158694
0.584527 0.184878 0.00115969
0.599039 0.189319 0.000717174
0.614755 0.19646 0.000167849
0.629435 0.202136 0
0.6439 0.21146 0
0.653498 0.217304 0
0.662181 0.225086 0
0.667979 0.231739 0
0.678538 0.240757 0
0.696101 0.255558 0
1.5259e-05 0.161883 0.0591592
6.10361e-05 0.163546 0.0576944
0.0052491 0.16614 0.0568551
0.0250858 0.169482 0.0556649
0.0664073 0.175677 0.0544594
0.12697 0.184771 0.0520943
0.186023 0.193988 0.0453803
0.240772 0.200855 0.0320897
0.291478 0.205554 0.0211032
0.331579 0.210224 0.0157778
0.364797 0.213428 0.0110933
0.390936 0.215106 0.00793469
0.414145 0.214969 0.00560006
0.435859 0.215274 0.00404364
0.455787 0.215183 0.00456245
0.475151 0.215274 0.0049897
0.493233 0.21442 0.00492866
0.510353 0.215137 0.00437934
0.527382 0.216052 0.00404364
0.544015 0.216312 0.00357061
0.559853 0.218128 0.00308232
0.575357 0.220005 0.00260929
0.590311 0.222065 0.002121
0.606271 0.225696 0.00183108
0.620264 0.227466 0.00143435
0.63534 0.23328 0.000762951
0.650233 0.238758 3.0518e-05
0.666209 0.247272 0
0.681071 0.255177 0
0.692851 0.263828 0
0.697459 0.266407 0
0.701381 0.270146 0
0.714717 0.280568 0
1.5259e-05 0.195117 0.0639048
0.000381476 0.197711 0.0622873
0.00317388 0.201663 0.0607004
0.00987259 0.205615 0.0585031
0.0493935 0.209995 0.0570687
0.118807 0.219257 0.053727
0.176455 0.228565 0.0502937
0.236515 0.238437 0.0399786
0.291829 0.245121 0.028809
0.343709 0.249989 0.0187533
0.385168 0.254765 0.012253
0.415198 0.25803 0.00941482
0.438972 0.258839 0.00761425
0.459159 0.258671 0.00634775
0.478706 0.258869 0.00482185
0.49778 0.258289 0.00361639
0.514809 0.258122 0.00340276
0.532708 0.258015 0.00337224
0.548791 0.258412 0.0031281
0.564904 0.258045 0.00283818
0.580118 0.259236 0.00244144
0.596323 0.260639 0.00195315
0.611048 0.261677 0.00158694
0.625711 0.264408 0.00114443
0.641474 0.267536 0.000717174
0.655924 0.271366 7.62951e-05
0.670924 0.275944 0
0.68481 0.280278 0
0.701106 0.288289 0
0.716274 0.296437 0
0.728038 0.3037 0
0.731243 0.305119 0
0.73312 0.302876 0
0.000137331 0.227298 0.0683146
0.000701915 0.231296 0.066331
0.0028687 0.235904 0.0627298
0.013962 0.240513 0.0610971
0.0477302 0.245869 0.0575723
0.102922 0.252415 0.0548409
0.173083 0.262791 0.0521859
0.227131 0.272328 0.0489357
0.287877 0.281117 0.0363928
0.343938 0.287541 0.0230716
0.395041 0.292058 0.0133516
0.430472 0.295872 0.00862135
0.458 0.298512 0.00645457
0.481468 0.300481 0.00477607
0.500526 0.299001 0.00389105
0.519326 0.299199 0.00303655
0.537728 0.30013 0.00175479
0.554238 0.300664 0.00114443
0.570657 0.300847 0.000976577
0.586374 0.300206 0.000976577
0.601862 0.300542 0.00105287
0.6168 0.301595 0.0009308
0.631937 0.301747 0.000350958
0.646647 0.303655 3.0518e-05
0.661158 0.305821 0
0.675425 0.307912 0
0.690288 0.311284 0
0.704311 0.314412 0
0.719615 0.320974 0
0.734569 0.328725 0
0.749706 0.3355 0
0.76054 0.341146 0
0.76109 0.336385 0
0.000320439 0.259434 0.0720684
0.00154116 0.264042 0.0681773
0.00546273 0.268864 0.064622
0.0200504 0.274235 0.062089
0.0484474 0.279698 0.0590219
0.0996719 0.285481 0.0572061
0.167575 0.293568 0.054139
0.230625 0.303868 0.0501106
0.279042 0.312581 0.0426184
0.341787 0.321187 0.0257115
0.396368 0.327108 0.0135805
0.439933 0.330571 0.00701915
0.472755 0.333608 0.00354009
0.497765 0.335729 0.00254826
0.520806 0.337942 0.00205997
0.540871 0.33875 0.00143435
0.557595 0.338506 0.00077821
0.57525 0.338155 0.000442512
0.591028 0.337697 0
0.606607 0.337667 0
0.621485 0.337911 0
0.636744 0.33814 0
0.651011 0.338094 0
0.66598 0.339254 0
0.680308 0.341054 0
0.695018 0.343145 0
0.708644 0.345159 0
0.72372 0.34934 0
0.737957 0.353277 0
0.752697 0.359289 0
0.766979 0.364797 0
0.782757 0.374044 0
0.789731 0.37351 0
0.000640879 0.292515 0.0759899
0.00436408 0.297307 0.0724193
0.0137636 0.302342 0.0697642
0.0296025 0.307393 0.066453
0.0614633 0.312169 0.0627146
0.110307 0.318013 0.0591745
0.170962 0.324788 0.0554665
0.231327 0.333928 0.0493629
0.283711 0.342809 0.0423743
0.330053 0.350652 0.0351568
0.393683 0.359701 0.0162814
0.441199 0.36492 0.007187
0.480583 0.36788 0.00285344
0.512139 0.369787 0.000381476
0.535561 0.372229 0.000488289
0.557397 0.37406 0.000854505
0.577066 0.374701 0.000869764
0.594736 0.374746 0.000640879
0.61117 0.375082 0
0.627527 0.374517 0
0.642405 0.374533 0
0.656962 0.37525 0
0.671916 0.375586 0
0.685512 0.375387 0
0.699733 0.376562 0
0.714137 0.378119 0
0.728069 0.379065 0
0.741665 0.381857 0
0.755718 0.385809 0
0.769635 0.389548 0
0.784878 0.395209 0
0.798825 0.401328 0
0.813886 0.409689 0
0.00428779 0.324941 0.0794385
0.0119936 0.329885 0.0759899
0.0244602 0.334478 0.0724346
0.0447547 0.339467 0.0686656
0.0787213 0.344991 0.0648051
0.123522 0.350515 0.0606546
0.180026 0.357412 0.0556649
0.235813 0.363958 0.0505226
0.290318 0.373083 0.0429999
0.33753 0.381155 0.0374456
0.381415 0.388632 0.0318456
0.44242 0.396735 0.0107881
0.48307 0.400473 0.00743114
0.51751 0.403021 0.0047303
0.549233 0.405234 0.00297551
0.571313 0.407309 0.00315862
0.592233 0.409171 0.00354009
0.611536 0.410117 0.00375372
0.629252 0.410346 0.00378424
0.645472 0.408972 0.00341802
0.661219 0.408469 0.00268559
0.676188 0.409171 0.00132753
0.690791 0.40972 0.0009308
0.705089 0.410498 0.000427253
0.718593 0.410513 0.000808728
0.732204 0.411246 0.000762951
0.745922 0.412451 0.000747692
0.760067 0.413718 0.000457771
0.773754 0.416587 3.0518e-05
0.787213 0.420035 0
0.800916 0.423667 0
0.815061 0.429145 0
0.830121 0.436469 0
0.012192 0.35761 0.0823072
0.0243839 0.362509 0.0778363
0.0419013 0.366979 0.0730144
0.0675364 0.37174 0.0690776
0.100786 0.376654 0.0649729
0.142626 0.38201 0.0611124
0.194965 0.388937 0.0558938
0.246311 0.395666 0.052903
0.297154 0.402564 0.0480507
0.346654 0.411139 0.042771
0.390875 0.418601 0.0379187
0.43299 0.425467 0.0323186
0.483482 0.432059 0.0139315
0.521248 0.43473 0.00961318
0.553063 0.436088 0.00723278
0.584009 0.438773 0.00476081
0.605676 0.440558 0.00453193
0.625238 0.44213 0.00456245
0.644602 0.44329 0.00463874
0.661463 0.443519 0.00433356
0.678279 0.442741 0.00436408
0.693446 0.441993 0.00384527
0.708629 0.441535 0.00326543
0.722988 0.442283 0.00263981
0.736507 0.442771 0.00215152
0.7505 0.442924 0.00175479
0.763439 0.443671 0.00183108
0.776837 0.444968 0.00180056
0.78967 0.445823 0.00144961
0.803861 0.449027 0.000640879
0.817395 0.452415 7.62951e-05
0.830839 0.456672 0
0.845106 0.463004 0
0.0260624 0.390143 0.0842451
0.0437476 0.394919 0.079942
0.0659495 0.398978 0.0764324
0.0927901 0.403586 0.072343
0.123171 0.408026 0.0682536
0.166644 0.41416 0.0641642
0.213977 0.420264 0.0608225
0.26157 0.426368 0.0563973
0.308675 0.433143 0.0536812
0.355123 0.440269 0.0489204
0.398581 0.447547 0.0440681
0.437629 0.45388 0.0412909
0.474678 0.458595 0.0349279
0.521019 0.465309 0.0162509
0.555642 0.467491 0.0115511
0.586404 0.468711 0.00889601
0.61706 0.470695 0.0062562
0.637629 0.472572 0.00596628
0.656641 0.473625 0.00552377
0.675441 0.474617 0.00520333
0.692226 0.475105 0.00517281
0.708553 0.474144 0.00462348
0.724483 0.473884 0.0043946
0.73959 0.47306 0.00401312
0.75375 0.472862 0.00347906
0.767025 0.473686 0.00283818
0.780331 0.47361 0.00236515
0.7935 0.474403 0.00228885
0.806317 0.47567 0.00207523
0.819501 0.477455 0.00158694
0.832624 0.479774 0.000900282
0.846693 0.484062 3.0518e-05
0.859907 0.488472 0
0.0516976 0.422156 0.0873121
0.0724651 0.426261 0.0835889
0.0952163 0.430564 0.07953
0.1205 0.435035 0.0758221
0.151247 0.439826 0.0725109
0.190341 0.445075 0.0684215
0.235813 0.451255 0.0654002
0.280613 0.457313 0.0627756
0.325063 0.46331 0.0610666
0.366339 0.468803 0.0583352
0.408392 0.475486 0.0541238
0.445518 0.481407 0.0493477
0.476936 0.486015 0.0477302
0.512764 0.490288 0.0369879
0.555398 0.496452 0.0164187
0.588937 0.499092 0.00994888
0.618326 0.500099 0.00706493
0.647135 0.501076 0.00633249
0.668223 0.502708 0.00608835
0.68719 0.504204 0.00585946
0.705501 0.505287 0.00624094
0.722438 0.505089 0.00570687
0.73814 0.504875 0.0053254
0.754116 0.504265 0.00511177
0.768734 0.503609 0.00476081
0.783413 0.502861 0.00411994
0.796292 0.503243 0.00384527
0.809323 0.503059 0.0033875
0.821973 0.504067 0.00289921
0.834806 0.505028 0.00259403
0.847303 0.506889 0.0019379
0.8607 0.509957 0.00102235
0.874571 0.515084 0
0.0796521 0.453956 0.0954147
0.100877 0.45774 0.0914321
0.127916 0.462196 0.0884413
0.151049 0.465995 0.0851453
0.180301 0.470466 0.0817578
0.215396 0.476143 0.0783856
0.257191 0.481682 0.0753185
0.299992 0.487327 0.0728161
0.342123 0.493431 0.0704662
0.381811 0.499504 0.0698711
0.41529 0.502419 0.0679026
0.453025 0.508873 0.0647593
0.484047 0.513405 0.063798
0.512078 0.517021 0.0635691
0.54699 0.520928 0.0502785
0.586877 0.526864 0.0212711
0.619867 0.529549 0.0138247
0.648661 0.530129 0.0116732
0.676966 0.530816 0.00935378
0.697643 0.532479 0.00932326
0.715953 0.533745 0.00978103
0.734127 0.534356 0.00962844
0.750591 0.534066 0.00970474
0.766354 0.533867 0.00921645
0.781765 0.532769 0.00814832
0.796674 0.532265 0.00656138
0.810834 0.530663 0.00407416
0.82388 0.531228 0.00306706
0.836774 0.531182 0.00215152
0.849577 0.531884 0.00128176
0.86183 0.533379 0.000411994
0.874846 0.535683 3.0518e-05
0.8878 0.53962 0
0.112444 0.485527 0.10454
0.13611 0.489219 0.101518
0.157351 0.492729 0.0991836
0.181704 0.496635 0.0958419
0.20882 0.50071 0.092134
0.242832 0.505745 0.0890516
0.280522 0.511543 0.086717
0.32224 0.517479 0.0852674
0.363485 0.523476 0.0845197
0.398398 0.52842 0.0830701
0.429267 0.53167 0.0842908
0.457343 0.534142 0.0839399
0.489891 0.539345 0.0817426
0.51809 0.543404 0.0823072
0.543023 0.546624 0.0850843
0.578637 0.550149 0.0638743
0.616754 0.55552 0.0304265
0.649348 0.558282 0.0210117
0.677348 0.558923 0.0174868
0.704982 0.55906 0.0137636
0.725567 0.56022 0.0141909
0.743801 0.561456 0.0147555
0.761364 0.562005 0.0146487
0.777691 0.561624 0.0144961
0.793164 0.560998 0.0135195
0.808652 0.560403 0.0111086
0.823407 0.559167 0.00972
0.837812 0.558465 0.00656138
0.850355 0.557809 0.00354009
0.863172 0.558389 0.00102235
0.875746 0.558923 0.000366217
0.887861 0.560723 0.000244144
0.901122 0.564614 1.5259e-05
0.148638 0.516487 0.117189
0.16994 0.519768 0.114443
0.193164 0.523507 0.111696
0.213077 0.526665 0.109789
0.238239 0.530373 0.107744
0.268238 0.534936 0.106188
0.305821 0.540719 0.104082
0.344839 0.546258 0.102815
0.381277 0.552377 0.102678
0.414328 0.557458 0.103426
0.441108 0.559365 0.105913
0.465797 0.560815 0.108888
0.493538 0.564614 0.106477
0.522622 0.568887 0.106615
0.548165 0.572274 0.107134
0.572168 0.575051 0.109834
0.608331 0.578393 0.0817884
0.644907 0.582681 0.0425727
0.676616 0.585367 0.0315557
0.704234 0.586603 0.0252689
0.731807 0.586923 0.021088
0.751888 0.587533 0.0203708
0.770184 0.588037 0.0205997
0.787213 0.588174 0.0205692
0.803738 0.587716 0.0203098
0.818875 0.587259 0.0190585
0.833875 0.586191 0.0172427
0.848722 0.584558 0.0137484
0.863111 0.584283 0.00898756
0.875593 0.583383 0.00512703
0.888655 0.584436 0.00131228
0.900923 0.585412 0.000503548
0.913481 0.588251 0.000289921
0.183459 0.546288 0.13518
0.204868 0.549645 0.133028
0.223041 0.552361 0.131365
0.245808 0.555825 0.129717
0.269612 0.559075 0.127504
0.297688 0.563439 0.125856
0.332067 0.568612 0.124636
0.36585 0.573846 0.124132
0.398703 0.579477 0.124636
0.427832 0.583978 0.12575
0.452735 0.586389 0.126772
0.476112 0.588296 0.129976
0.49897 0.589273 0.13402
0.524849 0.592813 0.132433
0.551843 0.596643 0.133028
0.576242 0.600107 0.135912
0.598474 0.603006 0.139757
0.635493 0.604929 0.104067
0.671244 0.608621 0.0583963
0.70219 0.611048 0.0471809
0.730251 0.612039 0.0374456
0.756848 0.612177 0.0312505
0.777279 0.612924 0.0304417
0.794675 0.612848 0.0309758
0.81207 0.613016 0.0303807
0.828046 0.612558 0.0294041
0.84332 0.611826 0.0268406
0.858091 0.61088 0.0228122
0.87332 0.61033 0.017258
0.887282 0.60856 0.0115053
0.90042 0.608499 0.00613413
0.913512 0.6103 0.00189212
0.926162 0.61207 0.000503548
0.218982 0.575051 0.156374
0.238804 0.577996 0.1552
0.258808 0.580789 0.153445
0.280278 0.584009 0.151751
0.301946 0.587289 0.150179
0.329168 0.591302 0.149096
0.356512 0.59559 0.149172
0.386007 0.600092 0.148821
0.417319 0.604623 0.147585
0.44062 0.608331 0.149248
0.46392 0.611154 0.150896
0.485817 0.61326 0.153506
0.506798 0.614939 0.157488
0.528679 0.61677 0.159838
0.553567 0.620203 0.159365
0.579049 0.62417 0.160815
0.602228 0.627024 0.1635
0.624216 0.629496 0.167452
0.661524 0.631159 0.12755
0.696422 0.633692 0.0762036
0.72668 0.635798 0.065568
0.754726 0.636622 0.0523995
0.781582 0.637293 0.0427863
0.801266 0.637369 0.0405737
0.818769 0.63769 0.040116
0.835889 0.637201 0.0403449
0.851804 0.636393 0.0389563
0.86685 0.635309 0.0352483
0.881712 0.634348 0.0298466
0.896956 0.634333 0.0209659
0.91075 0.632242 0.0131685
0.924346 0.633356 0.0059968
0.938125 0.636042 0.00105287
0.254414 0.602106 0.179721
0.27396 0.604868 0.178744
0.29456 0.608194 0.177127
0.311238 0.610788 0.176257
0.333959 0.61413 0.175906
0.356054 0.617487 0.174777
0.381353 0.621317 0.174807
0.407095 0.625345 0.175143
0.431373 0.628611 0.17528
0.454154 0.631754 0.176562
0.474327 0.634852 0.178149
0.495888 0.637354 0.179721
0.515084 0.639124 0.182849
0.534066 0.640879 0.188403
0.556405 0.64271 0.189654
0.580438 0.646616 0.189303
0.604913 0.650294 0.190295
0.62652 0.653178 0.194171
0.649226 0.655741 0.197787
0.686809 0.656657 0.153918
0.720913 0.658061 0.0990463
0.750469 0.659937 0.0872206
0.779065 0.660426 0.071107
0.805798 0.661128 0.0587167
0.825452 0.661295 0.05626
0.842741 0.661463 0.0546273
0.859953 0.661021 0.0534829
0.875456 0.659876 0.0510719
0.890242 0.658595 0.0456855
0.905333 0.657984 0.0379034
0.920348 0.657343 0.0256504
0.934722 0.656458 0.0128481
0.94818 0.658274 0.00418097
0.291768 0.627771 0.202441
0.309468 0.630549 0.201648
0.325963 0.633219 0.200763
0.343542 0.635813 0.199924
0.361456 0.63859 0.199619
0.383322 0.641993 0.199207
0.402533 0.644831 0.199313
0.4224 0.648051 0.200443
0.44419 0.651133 0.201236
0.465537 0.654154 0.202396
0.485634 0.656992 0.202762
0.504921 0.659693 0.204379
0.524086 0.662089 0.207874
0.542107 0.66389 0.21297
0.560678 0.665782 0.217334
0.582574 0.668009 0.217273
0.605127 0.671794 0.219333
0.628977 0.675319 0.221881
0.651408 0.678477 0.223743
0.672831 0.681208 0.22707
0.710933 0.681544 0.179629
0.744991 0.681956 0.12195
0.774762 0.683742 0.1084
0.803037 0.68423 0.0906386
0.830411 0.684642 0.074403
0.849302 0.684718 0.071397
0.866712 0.684718 0.0690929
0.883192 0.684306 0.0670176
0.898619 0.682628 0.0634928
0.913466 0.681254 0.0551614
0.928527 0.680735 0.042237
0.943603 0.679774 0.0264591
0.957412 0.680308 0.0107118
0.325963 0.652705 0.227924
0.343694 0.65536 0.227253
0.357229 0.657282 0.226749
0.37174 0.659297 0.226215
0.386267 0.661646 0.226047
0.404257 0.664515 0.226276
0.419516 0.66659 0.226062
0.437644 0.669291 0.226291
0.457282 0.672618 0.227634
0.475883 0.675319 0.228443
0.494713 0.678111 0.230365
0.513054 0.681132 0.232486
0.530999 0.683528 0.23566
0.549783 0.685908 0.238514
0.568032 0.687984 0.243122
0.584863 0.689952 0.249821
0.606348 0.692363 0.24976
0.630243 0.696193 0.250019
0.652201 0.699641 0.252155
0.674128 0.703014 0.255695
0.698024 0.70573 0.256046
0.734905 0.70576 0.207065
0.76875 0.705669 0.148455
0.79794 0.707073 0.133318
0.82707 0.707301 0.113344
0.854841 0.707454 0.0912337
0.87245 0.707561 0.0892653
0.889586 0.707301 0.0852216
0.906386 0.706844 0.0798352
0.921187 0.704829 0.0729992
0.936584 0.703868 0.0625772
0.951034 0.702922 0.0442664
0.965698 0.701778 0.0212406
0.360082 0.675242 0.253086
0.371786 0.676921 0.252613
0.383032 0.678676 0.252415
0.395422 0.680629 0.252155
0.40676 0.682139 0.25211
0.421653 0.684504 0.251942
0.436637 0.687053 0.252049
0.451575 0.689387 0.252674
0.470832 0.692576 0.253895
0.486625 0.695201 0.256062
0.504555 0.698024 0.257496
0.521447 0.700801 0.259617
0.539071 0.703548 0.260822
0.556863 0.706065 0.26363
0.575006 0.708736 0.268132
0.592248 0.710979 0.273884
0.609842 0.712886 0.278523
0.630274 0.715282 0.278187
0.653117 0.719341 0.280232
0.675303 0.72311 0.283085
0.697429 0.726452 0.284138
0.721691 0.729152 0.281621
0.759289 0.729229 0.233082
0.792737 0.729152 0.173922
0.822354 0.730327 0.157488
0.850797 0.730175 0.132799
0.878111 0.729671 0.10988
0.895674 0.729732 0.106554
0.912963 0.72929 0.101122
0.928985 0.728222 0.0946059
0.943694 0.726421 0.0837262
0.958114 0.724895 0.066392
0.973175 0.724102 0.0393225
0.385077 0.695506 0.281117
0.394919 0.696788 0.280919
0.4065 0.698604 0.280781
0.414939 0.699931 0.280858
0.426017 0.701793 0.280751
0.438987 0.703777 0.280766
0.453132 0.706157 0.28098
0.466972 0.708553 0.281697
0.483314 0.711666 0.282628
0.497963 0.713893 0.283421
0.512901 0.716426 0.284581
0.530556 0.719295 0.286
0.54696 0.72195 0.288304
0.563546 0.72491 0.291035
0.580987 0.727672 0.294697
0.598199 0.729976 0.297185
0.615198 0.732448 0.302464
0.632364 0.734493 0.308278
0.652659 0.737392 0.307988
0.675959 0.741558 0.309041
0.697597 0.744884 0.309987
0.720424 0.748562 0.312093
0.745281 0.751171 0.30724
0.783246 0.751369 0.259953
0.817456 0.750591 0.200412
0.846967 0.7523 0.182742
0.875517 0.751797 0.152804
0.900771 0.751293 0.130999
0.918685 0.750988 0.125521
0.934981 0.750362 0.117922
0.950545 0.749218 0.10605
0.964309 0.746273 0.0899367
0.978271 0.744717 0.0609903
0.407828 0.714153 0.308904
0.418235 0.715846 0.308568
0.426703 0.717235 0.308278
0.434455 0.718486 0.308156
0.445914 0.720134 0.307988
0.456397 0.721874 0.307942
0.468132 0.723873 0.308064
0.4813 0.726101 0.308522
0.495552 0.728344 0.309285
0.509285 0.730816 0.310582
0.52369 0.733608 0.312352
0.538674 0.7364 0.314443
0.554574 0.739254 0.316197
0.570687 0.742138 0.318227
0.586954 0.744457 0.31957
0.604105 0.747555 0.323232
0.620829 0.750423 0.327504
0.637598 0.752895 0.332647
0.65481 0.755138 0.337041
0.675303 0.757977 0.336431
0.697368 0.762173 0.337957
0.71957 0.765988 0.339956
0.742229 0.769497 0.340063
0.767483 0.772457 0.334417
0.806516 0.772381 0.285542
0.840757 0.771862 0.233127
0.870146 0.7729 0.207874
0.899626 0.772 0.171893
0.92314 0.771527 0.15227
0.940352 0.771572 0.144884
0.956283 0.770428 0.134188
0.970092 0.767391 0.116762
0.982589 0.764538 0.0866102
0.4309 0.730907 0.336004
0.439719 0.732418 0.335836
0.446174 0.733501 0.335805
0.454215 0.734691 0.335744
0.462852 0.736233 0.33576
0.471916 0.737881 0.335988
0.484184 0.740032 0.336278
0.494331 0.74197 0.336828
0.507744 0.744289 0.33753
