public/luts/wolf-2383.cube
TITLE "Generated by Resolve"
LUT_3D_SIZE 5
0.0211032 0.0237888 0.0252537
0.159228 0.0446021 0.0194553
0.346029 0.0561227 0
0.477867 0.0670634 0
0.612116 0.129046 0
1.5259e-05 0.195117 0.0639048
0.291829 0.245121 0.028809
0.514809 0.258122 0.00340276
0.641474 0.267536 0.000717174
0.73312 0.302876 0
0.0796521 0.453956 0.0954147
0.342123 0.493431 0.0704662
0.619867 0.529549 0.0138247
0.781765 0.532769 0.00814832
0.8878 0.53962 0
0.360082 0.675242 0.253086
0.470832 0.692576 0.253895
0.609842 0.712886 0.278523
0.822354 0.730327 0.157488
0.973175 0.724102 0.0393225
0.526986 0.802274 0.504814
0.571054 0.810468 0.505653
0.649561 0.826001 0.508507
0.771618 0.850034 0.521187
0.996262 0.860014 0.349905
0 0.00234989 0.195895
0.255955 0.0157473 0.23035
0.436057 0.00901808 0.190356
0.577218 0.00697337 0.17879
0.668727 0.0175937 0.0729992
0 0.254124 0.26862
0.235645 0.280324 0.274372
0.528038 0.270375 0.240345
0.673701 0.241398 0.210254
0.771969 0.228183 0.114717
0.0279698 0.496788 0.300893
0.334554 0.527657 0.306279
0.589761 0.543145 0.289235
0.776318 0.533623 0.256931
0.875288 0.497902 0.188739
0.351476 0.698314 0.38938
0.469642 0.71397 0.389792
0.606043 0.731487 0.408759
0.808255 0.748791 0.356741
0.96202 0.722866 0.236393
0.522606 0.808927 0.544137
0.571694 0.817746 0.544686
0.650965 0.833234 0.54786
0.770214 0.85658 0.559548
0.995682 0.86952 0.41828
0 0.00982681 0.377707
0.25095 0.0448768 0.41593
0.493782 0.0470893 0.431357
0.607935 0.0249638 0.393408
0.740642 0.0816205 0.386831
0 0.288777 0.488731
0.255497 0.327611 0.498863
0.536385 0.342931 0.492073
0.698756 0.298131 0.457191
0.806088 0.303197 0.439841
0.02916 0.528557 0.517006
0.2551 0.551476 0.518288
0.567102 0.56759 0.520058
0.766903 0.561852 0.493324
0.884367 0.505882 0.454368
0.222553 0.714717 0.52433
0.372519 0.731289 0.52369
0.602502 0.75552 0.548699
0.791821 0.770504 0.525338
0.959808 0.749386 0.474403
0.512566 0.821973 0.620935
0.558785 0.829664 0.621363
0.650187 0.846937 0.623468
0.766598 0.869505 0.633341
0.993744 0.888487 0.541756
0.00135805 0.105394 0.55903
0.236866 0.148165 0.582162
0.510796 0.170214 0.61001
0.668666 0.192538 0.627207
0.762356 0.133288 0.584298
0.00451667 0.317968 0.640497
0.248829 0.352911 0.660258
0.545403 0.383917 0.671839
0.70605 0.389746 0.674662
0.818326 0.322698 0.631052
0.0910048 0.560174 0.699931
0.324758 0.580575 0.704784
0.563027 0.590341 0.708598
0.731762 0.597803 0.699672
0.888548 0.541085 0.672312
0.220295 0.741634 0.714015
0.330907 0.754528 0.71606
0.528679 0.775006 0.722591
0.767849 0.793759 0.722667
0.958892 0.756664 0.663279
0.411337 0.825574 0.712734
0.461875 0.833692 0.715511
0.592416 0.857099 0.731228
0.74284 0.885328 0.736965
0.989487 0.915343 0.701366
0.162814 0.31751 0.691341
0.32665 0.309682 0.69897
0.495567 0.334249 0.722545
0.662593 0.328954 0.735546
0.807385 0.312367 0.742901
0.219715 0.401831 0.726741
0.357717 0.405051 0.735759
0.509346 0.411566 0.748928
0.68954 0.429038 0.766217
0.839628 0.42089 0.77229
0.323476 0.556283 0.778866
0.410483 0.563577 0.785183
0.555306 0.570153 0.794903
0.73431 0.605875 0.810712
0.888426 0.597284 0.814603
0.433783 0.753155 0.827787
0.50338 0.760555 0.831708
0.618921 0.776532 0.839582
0.768246 0.791852 0.848142
0.938293 0.797696 0.852125
0.572686 0.875517 0.854948
0.596979 0.879942 0.856413
0.652033 0.890303 0.859846
0.756085 0.909728 0.86598
0.984009 0.946273 0.875807
